(Created with grbl post processor 2026/07/15 16:47)
G20
(G-code Generated with Fabex and NC library)
G17G90
G64 P 0.1
(Tool: D = 4.8425''  type END flutes 2)
S12000M03
G00 Z19.69

G0X0Y0Z19.685
X23.622Y22.1158
G1Z-4.5275F196.85
Y23.3363F393.7
X23.6589Y23.3225
Z0.3937
X25.1334Y22.7695
Z-4.5275F196.85
X25.1968Y22.7457F393.7
Y22.1158
X26.7716
Y22.7457
X28.3464
Y22.1158
X29.9212
Y22.7457
X31.496
Y22.1158
X33.0708
Y22.7457
X34.6456
Y22.1158
X36.2204
Y22.7457
X37.7952
Y22.1158
X39.37
Y22.7457
X40.9448
Y22.1158
X42.5196
Y22.7457
X44.0944
Y22.1158
X45.6693
Y22.7457
X47.2441
Y22.1158
X48.8189
Y22.7457
X50.3937
Y22.1158
X51.9685
Y22.7457
X53.5433
Y22.1158
X55.1181
Y22.7457
X56.6929
Y22.1158
X58.2677
Y22.7457
X59.8425
Y22.1158
X61.4173
Y22.7457
X62.9921
Y22.1158
X64.5669
Y22.7457
X66.1417
Y22.1158
X67.7165
Y22.7457
X69.2913
Y22.1158
X70.8661
Y22.7457
X72.4409
Y22.1158
X74.0157
Y22.7457
X75.5905
Y22.1158
X77.1653
Y22.7457
X78.7401
Y22.1158
X80.3149
Y22.7457
X81.8897
Y22.1158
X83.4645
Y22.7457
X85.0393
Y22.1158
X86.6141
Y22.7457
X88.1889
Y22.1158
X89.7637
Y22.7457
X91.3385
Y22.1158
X92.9133
Y22.7457
X94.4881
Y22.1158
X96.0629
Y22.7457
X97.6377
Y22.1158
X99.2125
Y22.7457
X100.7874
Y22.1158
X102.3622
Y22.7457
X103.937
Y22.1158
X105.5118
Y22.7457
X107.0866
Y22.1158
X108.6614
Y22.7457
X110.2362
Y22.1158
X111.811
Y22.7457
X113.3858
Y22.1158
X114.9606
Y22.7457
X116.5354
Y22.1158
X118.1102
Y22.7457
X119.685
Y22.1158
X121.2598
Y22.7457
X122.8346
Y22.1158
X124.4094
Y22.7457
X125.9842
Y22.1158
X127.559
Y22.7457
X129.1338
Y22.1158
X130.7086
Y22.7457
X132.2834
Y22.1158
X133.8582
Y22.7457
X135.433
Y22.1158
X137.0078
Y22.7457
X138.5826
Y22.1158
X140.1574
Y22.7457
X141.7322
Y22.1158
X143.307
Y22.7457
X144.8818
Y22.1158
X146.4566
Y22.7457
X148.0314
Y22.1158
X149.6062
Y22.7457
X151.1811
Y22.1158
X152.7559
Y22.7457
X154.3307
Y22.1158
X155.9055
Y22.7457
X157.4803
Y22.1158
X159.0551
Y22.7457
X160.6299
Y22.1158
X162.2047
Y22.7457
X163.7795
Y22.1158
X165.3543
Y22.7457
X166.9291
Y22.1158
X168.5039
Y22.7457
X170.0787
Y22.1158
X171.6535
Y22.7457
X173.2283
Y22.1158
X174.8031
Y22.7457
X176.3779
Y22.1158
X177.9527
Y22.7457
X179.5275
Y22.1158
X181.1023
Y22.7457
X182.6771
Y22.1158
X184.2519
Y22.7457
X185.8267
Y22.1158
X187.4015
Y22.7457
X188.9763
Y22.1158
X190.5511
Y22.7457
X192.1259
Y22.1158
X193.7007
Y22.7457
X195.2755
Y22.1158
X196.8503
Y22.7457
X198.4251
Y22.1158
X199.9999
Y22.7457
X201.5747
Y22.1158
X203.1496
Y22.7457
X204.7244
Y22.1158
X206.2992
Y22.7457
X207.874
Y22.1158
X209.4488
Y22.7457
X211.0236
Y22.1158
X212.5984
Y22.7457
X214.1732
Y22.1158
X215.748
Y22.7457
X217.3228
Y22.1158
X218.8976
Y22.7457
X220.4724
Y22.1158
X222.0472
Y22.7457
X223.622
Y22.1158
X225.1968
Y22.7457
X226.7716
Y22.1158
X228.3464
Y22.7457
X229.9212
Y22.1158
X231.496
Y22.7457
X233.0708
Y22.1158
X234.6456
Y22.7457
X236.2204
Y22.1158
X237.7952
Y22.7457
X239.37
Y22.1158
X240.9448
Y22.7457
X242.5196
Y22.1158
X244.0944
Y22.7457
X245.6692
Y22.1158
X247.2441
Y22.7457
X248.8189
Y22.1158
X250.3937
Y22.7457
X251.9685
Y22.1158
X253.5433
Y22.7457
X255.1181
Y22.1158
X256.6929
Y22.7457
X258.2677
Y22.1158
X259.8425
Y22.7457
X261.4173
Y22.1158
X262.9921
Y22.7457
X264.5669
Y22.1158
X266.1417
Y22.7457
X267.7165
Y22.1158
X269.2913
Y22.7457
X270.8661
Y22.1158
X272.4409
Y22.7457
X274.0157
Y22.1158
X275.5905
Y22.7457
X277.1653
Y22.1158
X278.7401
Y22.7457
X280.3149
Y22.1158
X281.8897
Y22.7457
X283.4645
Y22.1158
X285.0393
Y22.7457
X286.6141
Y22.1158
X288.1889
Y22.7457
X289.7637
Y22.1158
X291.3385
Y22.7457
X292.9133
Y22.1158
X294.4881
Y22.7457
X296.0629
Y22.1158
X297.6377
Y22.7457
X299.2125
Y22.1158
X300.7873
Y22.7457
X302.3621
Y22.1158
X303.937
Y22.7457
X305.5118
Y22.1158
X307.0866
Y22.7457
X308.6614
Y22.1158
X310.2362
Y22.7457
X311.811
Y22.1158
X313.3858
Y22.7457
X314.9606
Y22.1158
X316.5354
Y22.7457
X318.1102
Y22.1158
X319.685
Y22.7457
X321.2598
Y22.1158
X322.8346
Y22.7457
X324.4094
Y22.1158
X325.9842
Y22.7457
X327.559
Y22.1158
X329.1338
Y22.7457
X330.7086
Y22.1158
X332.2834
Y22.7457
X333.8582
Y22.1158
X335.433
Y22.7457
X337.0078
Y22.1158
X338.5826
Y22.7457
X340.1574
Y22.1158
X341.7322
Y22.7457
X343.307
Y22.1158
X344.8818
Y22.7457
X346.4567
Y22.1158
X348.0315
Y22.7457
X349.6063
Y22.1158
X351.1811
Y22.7457
X352.7559
Y22.1158
X354.3307
Y22.7457
X355.9055
Y22.1158
X357.4803
Y22.7457
X359.0551
Y22.1158
X360.6299
Y22.7457
X362.2047
Y22.1158
X363.7795
Y22.7457
X365.3543
Y22.1158
X366.9291
Y22.7457
X368.5039
Y22.1158
X370.0787
Y22.7457
X371.6535
Y22.1158
X373.2283
Y22.7457
X374.8031
Y22.1158
X376.3779
Y22.7457
X377.9527
Y22.1158
X379.5275
Y22.7457
X381.1023
Y22.1158
X382.6771
Y22.7457
X384.2519
Y22.1158
X385.8267
Y22.7457
X387.4015
Y22.1158
X388.9763
Y22.7457
X390.5511
Y22.1158
X392.1259
Y22.7457
X393.7007
Y22.1158
X395.2755
Y22.7457
X396.8503
Y22.1158
X398.4251
Y22.7457
X399.9999
Y22.1158
X401.5747
Y22.7457
X403.1495
Y22.1158
X404.7243
Y22.7457
X406.2992
Y22.1158
X407.874
Y22.7457
X409.4488
Y22.1158
X411.0236
Y22.7457
X412.5984
Y22.1158
X414.1732
Y22.7457
X415.748
Y22.1158
X417.3228
Y22.7457
X418.8976
Y22.1158
X420.4724
Y22.7457
X422.0472
Y22.1158
X423.622
Y22.7457
X425.1968
Y22.1158
X426.7716
Y22.7457
X428.3464
Y22.1158
X429.9212
Y22.7457
X431.496
Y22.1158
X433.0708
Y22.7457
X434.6456
Y22.1158
X436.2204
Y22.7457
X437.7952
Y22.1158
X439.37
Y22.7457
X440.9448
Y22.1158
X442.5196
Y22.7457
X444.0944
Y22.1158
X445.6692
Y22.7457
X447.244
Y22.1158
X448.8188
Y23.3363
G0Z19.685
X370.0787Y99.2026
G1Z-9.8425F196.85
Y104.1235F393.7
X371.6535Y103.8873
Y97.0374
X371.6827Y97.011
X371.712Y96.9847
X371.7413Y96.9584
X371.7705Y96.932
X371.7998Y96.9057
X371.8291Y96.8794
X371.8876Y96.8267
X371.9169Y96.8004
X371.9461Y96.774
X371.9754Y96.7477
X372.0046Y96.7213
X372.0339Y96.695
X372.0924Y96.6423
X372.1217Y96.616
X372.151Y96.5897
X372.1803Y96.5633
X372.2095Y96.537
X372.2388Y96.5107
X372.2973Y96.458
X372.3266Y96.4316
X372.3558Y96.4053
X372.3851Y96.379
X372.4436Y96.3263
X372.4729Y96.3
X372.5021Y96.2736
X372.5314Y96.2473
X372.5607Y96.221
X372.59Y96.1946
X372.6485Y96.142
X372.6777Y96.1156
X372.707Y96.0893
X372.7363Y96.0629
X372.7655Y96.0366
X372.7948Y96.0103
X372.8533Y95.9576
X372.8826Y95.9313
X372.9118Y95.9049
X372.9411Y95.8786
X372.9704Y95.8523
X372.9997Y95.8259
X373.0582Y95.7732
X373.0874Y95.7469
X373.1167Y95.7206
X373.146Y95.6942
X373.1752Y95.6679
X373.2045Y95.6416
X373.2283Y95.6202
Y103.6511
X373.2754Y103.5428
X373.2911Y103.5067
X373.3068Y103.4706
Z0.3937
X373.401Y103.2539
X373.4167Y103.2178
X373.5265Y102.9651
X373.5423Y102.929
X373.6521Y102.6763
X373.6679Y102.6401
X373.7777Y102.3874
X373.7935Y102.3513
X373.8876Y102.1347
X373.9034Y102.0986
X374.0132Y101.8458
X374.029Y101.8097
X374.1388Y101.557
X374.1545Y101.5209
X374.2644Y101.2682
X374.2801Y101.2321
X374.39Y100.9793
X374.4057Y100.9432
X374.4999Y100.7266
X374.5156Y100.6905
X374.6255Y100.4378
X374.6412Y100.4017
X374.7511Y100.1489
X374.7825Y100.0767
Z-9.8425F196.85
X374.8031Y100.0293F393.7
Y94.5572
X374.8721Y94.5193
X374.9066Y94.5003
X375.0446Y94.4244
X375.0791Y94.4055
X375.1826Y94.3485
X375.2171Y94.3296
X375.3551Y94.2537
X375.3896Y94.2347
X375.5276Y94.1588
X375.5965Y94.1209
X375.7001Y94.064
X375.769Y94.026
X375.838Y93.9881
X375.907Y93.9501
X376.0105Y93.8932
X376.045Y93.8742
X376.183Y93.7983
X376.2175Y93.7794
X376.3555Y93.7035
X376.3779Y93.6912
Y98.179
X376.4094Y98.1554
Z0.3937
X376.5039Y98.0845
X376.5669Y98.0373
X376.7874Y97.872
X376.8188Y97.8483
X377.0708Y97.6594
X377.1023Y97.6358
X377.3543Y97.4468
X377.3858Y97.4232
X377.6378Y97.2342
X377.6692Y97.2106
X377.9527Y96.998
Z-9.8425F196.85
Y93.0219F393.7
X378.0276Y92.9976
X378.1025Y92.9733
X378.1774Y92.9489
X378.2148Y92.9368
X378.4769Y92.8516
X378.5144Y92.8394
X378.6641Y92.7907
X378.739Y92.7664
X378.8139Y92.7421
X378.8514Y92.7299
X379.1134Y92.6447
X379.1883Y92.6204
X379.4504Y92.5352
X379.5275Y92.5102
Y96.1319
X379.6372Y96.0881
Z0.3937
X380.0758Y95.9126
X380.1123Y95.898
X380.2586Y95.8395
X380.2951Y95.8249
X380.4414Y95.7664
X380.4779Y95.7518
X380.6241Y95.6933
X380.6607Y95.6787
X380.8069Y95.6202
X380.8434Y95.6056
X380.88Y95.591
X380.9165Y95.5764
X381.0628Y95.5179
Z-9.8425F196.85
X381.0993Y95.5033F393.7
X381.1023Y95.5021
Y92.0771
X381.6452Y91.9821
X382.6771Y91.8015
Y95.0297
X383.1018Y94.9447
X383.1404Y94.937
X383.6423Y94.8366
X383.6809Y94.8289
X384.2519Y94.7147
Y91.5653
X385.8267Y91.4472
Y94.5179
X387.4015Y94.4391
Y91.3685
X388.9763
Y94.4391
X389.2125Y94.445
Z0.3937
X389.5667Y94.4539
Z-9.8425F196.85
X390.157Y94.4687F393.7
X390.5511Y94.4785
Y91.4079
X392.1259Y91.526
Y94.636
X392.6689Y94.731
X393.7007Y94.9116
Y91.7228
X394.2437Y91.8178
X395.2755Y91.9984
Y95.2659
X395.5728Y95.3699
X395.61Y95.3829
X395.7215Y95.4219
X395.7586Y95.4349
X396.0931Y95.552
X396.1302Y95.565
X396.2417Y95.604
X396.2788Y95.617
X396.6133Y95.734
X396.6504Y95.747
X396.762Y95.7861
X396.7991Y95.7991
X396.8503Y95.817
Y92.392
X396.9635Y92.426
X397.0012Y92.4373
X397.2275Y92.5052
X397.3028Y92.5278
X397.4914Y92.5844
X397.5291Y92.5957
X397.7554Y92.6635
X397.8308Y92.6862
X397.9816Y92.7314
X398.0193Y92.7427
X398.4251Y92.8645
Y96.5256
X398.4919Y96.5673
X398.5587Y96.6091
X398.6588Y96.6717
X398.6922Y96.6925
X398.7924Y96.7551
X398.8258Y96.776
X398.9593Y96.8595
X398.9927Y96.8803
X399.0261Y96.9012
Z0.3937
X399.1262Y96.9638
X399.1597Y96.9846
X399.2932Y97.0681
X399.3266Y97.089
X399.4601Y97.1724
Z-9.8425F196.85
X399.5269Y97.2141F393.7
X399.5937Y97.2559
X399.6271Y97.2767
X399.7606Y97.3602
X399.794Y97.3811
X399.9275Y97.4645
X399.9609Y97.4854
X399.9999Y97.5098
Y93.4943
X400.0711Y93.5281
X400.1067Y93.545
X400.2844Y93.6295
X400.32Y93.6463
X400.4978Y93.7308
X400.5334Y93.7477
X400.7112Y93.8322
X400.7468Y93.849
X400.9246Y93.9335
X400.9602Y93.9504
X401.1379Y94.0348
X401.1735Y94.0517
X401.3513Y94.1362
X401.3869Y94.1531
X401.5647Y94.2375
X401.5747Y94.2423
Y98.8483
X401.6009Y98.8777
X401.627Y98.9071
X401.6794Y98.966
X401.7055Y98.9954
X401.7317Y99.0248
Z0.3937
X401.8363Y99.1425
X401.8625Y99.1719
X401.9148Y99.2308
X401.9409Y99.2602
X401.9933Y99.3191
X402.0194Y99.3485
X402.0717Y99.4073
X402.0979Y99.4368
X402.1502Y99.4956
X402.1763Y99.525
X402.2287Y99.5839
X402.2548Y99.6133
X402.3072Y99.6722
X402.3333Y99.7016
X402.3856Y99.7604
X402.4118Y99.7899
X402.4641Y99.8487
X402.4902Y99.8781
X402.5426Y99.937
X402.5687Y99.9664
X402.621Y100.0253
X402.6472Y100.0547
X402.6995Y100.1135
X402.7257Y100.143
X402.778Y100.2018
X402.8041Y100.2312
X402.8565Y100.2901
X402.9088Y100.3489
Z-9.8425F196.85
X402.9349Y100.3784F393.7
X402.9611Y100.4078
X403.0134Y100.4666
X403.0395Y100.4961
X403.0919Y100.5549
X403.118Y100.5843
X403.1495Y100.6198
Y95.2265
X403.5321Y95.5038
X403.6914Y95.6193
X404.2971Y96.0584
X404.3289Y96.0815
X404.7243Y96.3681
Y103.2574
G0Z19.685
X406.2992Y97.8641
G1Z-9.8425F196.85
Y109.2019F393.7
G0Z19.685
X366.9291Y134.7906
G1Z-9.8425F196.85
Y146.3645F393.7
G0Z19.685
X368.5039Y152.6239
G1Z-9.8425F196.85
Y128.7674F393.7
X368.5371Y128.696
X368.5537Y128.6603
X368.6035Y128.5532
X368.6201Y128.5175
X368.6699Y128.4104
X368.6865Y128.3747
X368.7363Y128.2676
X368.753Y128.2319
X368.8027Y128.1248
X368.8194Y128.0891
X368.8692Y127.982
X368.8858Y127.9463
X368.9356Y127.8392
X368.9522Y127.8035
X369.002Y127.6965
X369.0186Y127.6608
X369.085Y127.518
X369.1016Y127.4823
X369.1514Y127.3752
X369.1681Y127.3395
X369.2179Y127.2324
X369.2345Y127.1967
X369.2843Y127.0896
X369.3009Y127.0539
X369.3507Y126.9468
X369.3673Y126.9111
X369.4171Y126.804
X369.4337Y126.7683
X369.4835Y126.6612
X369.5002Y126.6255
X369.5499Y126.5184
X369.5666Y126.4827
X369.6164Y126.3757
X369.633Y126.34
X369.6994Y126.1972
X369.716Y126.1615
X369.7658Y126.0544
X369.7824Y126.0187
X369.8322Y125.9116
X369.8489Y125.8759
X369.8986Y125.7688
X369.9153Y125.7331
X369.9651Y125.626
X369.9817Y125.5903
X370.0315Y125.4832
X370.0481Y125.4475
X370.0787Y125.3818
Y156.2851
X370.0991Y156.3187
X370.1195Y156.3524
X370.1399Y156.3861
X370.1603Y156.4197
X370.1807Y156.4534
X370.2011Y156.4871
X370.2215Y156.5207
X370.2419Y156.5544
X370.2624Y156.5881
X370.2827Y156.6217
X370.3032Y156.6554
X370.3236Y156.6891
X370.344Y156.7228
X370.3644Y156.7564
X370.3848Y156.7901
X370.4052Y156.8238
X370.4256Y156.8574
X370.446Y156.8911
X370.4664Y156.9248
X370.4868Y156.9584
X370.5072Y156.9921
X370.5276Y157.0258
X370.548Y157.0594
X370.5684Y157.0931
X370.5889Y157.1268
X370.6092Y157.1604
X370.6297Y157.1941
X370.6501Y157.2278
X370.6705Y157.2614
X370.6909Y157.2951
X370.7113Y157.3288
X370.7317Y157.3625
X370.7521Y157.3961
X370.7725Y157.4298
X370.7929Y157.4635
X370.8133Y157.4971
X370.8337Y157.5308
X370.8541Y157.5645
X370.8745Y157.5981
X370.8949Y157.6318
X370.9154Y157.6655
X370.9357Y157.6991
X370.9562Y157.7328
X370.9766Y157.7665
X370.997Y157.8001
X371.0174Y157.8338
X371.0378Y157.8675
X371.0582Y157.9011
X371.0786Y157.9348
X371.099Y157.9685
X371.1194Y158.0022
X371.1398Y158.0358
X371.1602Y158.0695
X371.1806Y158.1032
X371.201Y158.1368
X371.2214Y158.1705
X371.2419Y158.2042
X371.2622Y158.2378
X371.2827Y158.2715
X371.3031Y158.3052
X371.3235Y158.3388
X371.3439Y158.3725
X371.3643Y158.4062
X371.3847Y158.4399
X371.4051Y158.4735
X371.4255Y158.5072
X371.4459Y158.5409
X371.4663Y158.5745
X371.5072Y158.6419
X371.5275Y158.6755
X371.548Y158.7092
X371.5684Y158.7429
X371.5888Y158.7765
X371.6092Y158.8102
X371.6296Y158.8439
X371.6535Y158.8833
Y144.8686
G0Z19.685
Y137.2313
G1Z-9.8425F196.85
Y122.8229F393.7
X371.6775Y122.7917
X371.7015Y122.7605
X371.7495Y122.6981
X371.7735Y122.6669
X371.8215Y122.6045
X371.8455Y122.5733
X371.8695Y122.5421
X371.8935Y122.5109
X371.9415Y122.4485
X371.9656Y122.4173
X372.0135Y122.3548
X372.0376Y122.3236
X372.0856Y122.2612
X372.1096Y122.23
X372.1576Y122.1676
X372.1816Y122.1364
X372.2056Y122.1052
X372.2296Y122.074
X372.2776Y122.0116
X372.3016Y121.9804
X372.3496Y121.918
X372.3737Y121.8868
X372.4216Y121.8244
X372.4457Y121.7932
X372.4936Y121.7307
X372.5177Y121.6995
X372.5417Y121.6683
X372.5657Y121.6371
X372.6137Y121.5747
X372.6377Y121.5435
X372.6857Y121.4811
X372.7097Y121.4499
X372.7577Y121.3875
X372.7817Y121.3563
X372.8297Y121.2939
X372.8538Y121.2627
X372.8777Y121.2315
X372.9018Y121.2003
X372.9498Y121.1378
X372.9738Y121.1066
X373.0218Y121.0442
X373.0458Y121.013
X373.0938Y120.9506
X373.1178Y120.9194
X373.1658Y120.857
X373.1898Y120.8258
X373.2283Y120.7758
Y129.2004
X373.2609Y129.1287
Z0.3937
X373.3586Y128.9137
X373.3749Y128.8778
X373.6193Y128.3402
X373.6356Y128.3044
X373.88Y127.7668
X373.8963Y127.7309
X374.1407Y127.1933
X374.1569Y127.1575
X374.4014Y126.6199
X374.4176Y126.584
X374.6621Y126.0464
X374.6783Y126.0106
X374.7272Y125.9031
Z-9.8425F196.85
X374.8031Y125.7361F393.7
Y119.1618
X374.8942Y119.0866
X374.9246Y119.0616
X375.1068Y118.9112
X375.1372Y118.8862
X375.3194Y118.7358
X375.3498Y118.7108
X375.532Y118.5605
X375.5623Y118.5354
X375.7446Y118.3851
X375.7749Y118.36
X375.9876Y118.1847
X376.0179Y118.1596
X376.2001Y118.0093
X376.2305Y117.9842
X376.3779Y117.8626
Y123.4922
X376.4322Y123.4351
X376.4594Y123.4066
X376.5679Y123.2926
Z0.3937
X376.6223Y123.2356
X376.7309Y123.1215
X376.758Y123.093
X376.8666Y122.979
X376.8938Y122.9505
X377.0024Y122.8365
X377.0296Y122.808
X377.1382Y122.6939
X377.1653Y122.6654
X377.2739Y122.5514
X377.3011Y122.5229
X377.4368Y122.3803
X377.464Y122.3518
X377.5726Y122.2378
X377.5998Y122.2093
X377.6812Y122.1238
Z-9.8425F196.85
X377.7084Y122.0953F393.7
X377.7356Y122.0668
X377.8441Y121.9527
X377.8713Y121.9242
X377.9527Y121.8387
Y116.8391
X378.0936Y116.7687
X378.1992Y116.7159
X378.3753Y116.6278
X378.4105Y116.6102
X378.6922Y116.4694
X378.7274Y116.4518
X379.0092Y116.3109
X379.0443Y116.2933
X379.2909Y116.1701
X379.3965Y116.1172
X379.5275Y116.0518
Y120.5396
X379.5935Y120.4967
X379.6265Y120.4753
X379.7585Y120.3894
X379.7916Y120.368
Z0.3936
X379.9236Y120.2822Z0.3937
X379.9566Y120.2607
X380.0887Y120.1749
X380.1217Y120.1534
X380.2537Y120.0676
X380.2867Y120.0462
X380.4188Y119.9603
X380.4518Y119.9389
X380.6168Y119.8316
X380.6829Y119.7887
X380.8149Y119.7029
Z-9.8425F196.85
X380.9469Y119.6171F393.7
X381.013Y119.5742
X381.079Y119.5312
X381.1023Y119.5161
Y115.4612
X381.2155Y115.4273
X381.2531Y115.416
X381.4794Y115.3481
X381.5548Y115.3255
X381.7434Y115.2689
X381.7811Y115.2576
X382.0074Y115.1898
X382.0828Y115.1671
X382.2336Y115.1219
X382.2713Y115.1106
X382.6771Y114.9888
Y118.7287
X382.7509Y118.7011
X382.8246Y118.6734
X382.9721Y118.6181
X383.0089Y118.6043
X383.1195Y118.5628
Z0.3937
X383.3776Y118.4661
X383.4144Y118.4523
X383.7093Y118.3417
Z-9.8425F196.85
X384.2519Y118.1382F393.7
Y114.6739
X384.7207Y114.6153
X385.1114Y114.5665
X385.8267Y114.4771
Y117.7445
X386.2161Y117.6861
Z0.3936
X386.294Y117.6745Z0.3937
X387.2673Y117.5285
Z-9.8425F196.85
X387.4015Y117.5083F393.7
Y114.359
X388.5822Y114.3294
X388.9763Y114.3196
Y117.3902
X389.3305Y117.3991
Z0.3937
X389.9603Y117.4148
X390.039Y117.4168Z0.3936
Z-9.8425F196.85
X390.5511Y117.4296F393.7
Y114.4377
X392.1259Y114.6739
Y117.5871
X392.5506Y117.672
Z0.3937
X393.0911Y117.7801
X393.1297Y117.7878
X393.4385Y117.8496
Z-9.8425F196.85
X393.7007Y117.902F393.7
Y115.0282
X393.998Y115.1322
X394.0352Y115.1453
X394.1467Y115.1843
X394.1838Y115.1973
X394.5183Y115.3143
X394.5554Y115.3273
X394.6669Y115.3663
X394.704Y115.3793
X395.0385Y115.4964
X395.0756Y115.5094
X395.1872Y115.5484
X395.2243Y115.5614
X395.2755Y115.5793
Y118.3744
X395.4205Y118.436
Z0.3937
X395.6379Y118.5284
X395.6741Y118.5438
X396.3988Y118.8518
X396.6887Y118.975
Z-9.8425F196.85
X396.8503Y119.0437F393.7
Y116.3273
X396.9516Y116.3881
X396.9854Y116.4083
X397.1542Y116.5096
X397.188Y116.5299
X397.3567Y116.6311
X397.3905Y116.6514
X397.5593Y116.7527
X397.5931Y116.7729
X397.7619Y116.8742
X397.7956Y116.8944
X397.9644Y116.9957
X398.032Y117.0362
X398.167Y117.1173
X398.2345Y117.1578
X398.3695Y117.2388
X398.4033Y117.259
X398.4251Y117.2721
Y119.9097
X398.7439Y120.1408
Z0.3937
X398.8077Y120.187
X398.967Y120.3026
X399.5727Y120.7416
X399.6045Y120.7647
X399.7958Y120.9034
Z-9.8425F196.85
X399.9999Y121.0514F393.7
Y118.5319
X400.057Y118.5861
X400.0856Y118.6132
X400.1712Y118.6946
X400.1998Y118.7217
X400.2854Y118.803
X400.3139Y118.8302
X400.3995Y118.9115
X400.4281Y118.9386
X400.5137Y119.02
X400.5423Y119.0471
X400.6279Y119.1284
X400.6565Y119.1555
X400.7421Y119.2369
X400.7707Y119.264
X400.8563Y119.3453
X400.8848Y119.3725
X400.999Y119.4809
X401.0275Y119.508
X401.1132Y119.5894
X401.1417Y119.6165
X401.2273Y119.6978
X401.2559Y119.725
X401.3415Y119.8063
X401.3701Y119.8334
X401.4557Y119.9148
X401.4843Y119.9419
X401.5747Y120.0278
Y122.4686
X401.6415Y122.4269
X401.7083Y122.3852
X401.8084Y122.3226
X401.8419Y122.3017
X401.942Y122.2391
X401.9754Y122.2182
X402.1089Y122.1348
X402.1423Y122.1139
X402.2758Y122.0304
X402.3093Y122.0096
X402.4428Y121.9261
X402.4762Y121.9053
X402.6097Y121.8218
X402.6765Y121.7801
X402.7433Y121.7383
X402.7767Y121.7175
X402.9102Y121.634
X402.9436Y121.6131
X403.0771Y121.5297
X403.1105Y121.5088
X403.1495Y121.4844
Y124.3189
Z0.3937
X403.1908Y124.3859
X403.2115Y124.4195
X403.2321Y124.453
X403.2734Y124.52
X403.294Y124.5536
X403.3146Y124.5871
X403.3353Y124.6206
X403.3559Y124.6542
X403.3765Y124.6877
X403.4178Y124.7548
X403.4384Y124.7883
X403.4591Y124.8218
X403.4797Y124.8553
X403.521Y124.9224
X403.5416Y124.9559
X403.5623Y124.9895
X403.5829Y125.023
X403.6035Y125.0565
X403.6241Y125.09
X403.6654Y125.1571
X403.686Y125.1906
X403.7067Y125.2242
X403.7273Y125.2577
X403.7686Y125.3247
X403.7892Y125.3583
X403.8099Y125.3918
X403.8305Y125.4253
X403.8511Y125.4589
X403.8717Y125.4924
X403.9131Y125.5595
X403.9337Y125.593
X403.9543Y125.6265
X403.9749Y125.66
X404.0162Y125.7271
X404.0368Y125.7606
X404.0575Y125.7942
X404.0781Y125.8277
X404.0988Y125.8612
X404.1194Y125.8947
X404.1607Y125.9618
X404.1813Y125.9953
X404.2019Y126.0289
X404.2225Y126.0624
X404.2638Y126.1294
X404.2845Y126.163
X404.3051Y126.1965
X404.3257Y126.23
X404.3464Y126.2636
X404.367Y126.2971
X404.4083Y126.3642
X404.4289Y126.3977
X404.4495Y126.4312
X404.4702Y126.4647
X404.5115Y126.5318
X404.5321Y126.5653
X404.5527Y126.5989
X404.5733Y126.6324
X404.594Y126.6659
X404.6146Y126.6994
X404.6765Y126.8
Z-9.8425F196.85
X404.6972Y126.8336F393.7
X404.7178Y126.8671
X404.7243Y126.8777
Y121.6813
X404.7559Y121.6576
Z0.3936
X404.8189Y121.6104Z0.3937
X404.9133Y121.5395
X405.1023Y121.3978
X405.1653Y121.3506
X405.3858Y121.1852
X405.4488Y121.138
X405.6378Y120.9963
X405.6692Y120.9726
X405.9212Y120.7837
X405.9842Y120.7364
X406.1732Y120.5947
X406.2047Y120.5711
X406.2992Y120.5002
Z-9.8425F196.85
Y131.1294F393.7
G0Z19.685
X373.2283Y152.3877
G1Z-9.8425F196.85
Y160.8517F393.7
X373.2561Y160.8795
X373.284Y160.9073
X373.3118Y160.9352
X373.3396Y160.963
X373.3675Y160.9908
X373.3953Y161.0187
X373.4231Y161.0465
X373.451Y161.0744
X373.4788Y161.1022
X373.5067Y161.13
X373.5345Y161.1579
X373.5624Y161.1857
X373.5902Y161.2135
X373.618Y161.2414
X373.6459Y161.2692
X373.6737Y161.297
X373.7015Y161.3249
X373.7294Y161.3527
X373.7572Y161.3806
X373.7851Y161.4084
X373.8129Y161.4362
X373.8408Y161.4641
X373.8686Y161.4919
X373.8965Y161.5198
X373.9243Y161.5476
X373.9521Y161.5754
X373.98Y161.6033
X374.0635Y161.6868
X374.0913Y161.7146
X374.1192Y161.7425
X374.147Y161.7703
X374.2305Y161.8538
X374.2584Y161.8816
X374.2862Y161.9095
X374.314Y161.9373
X374.3976Y162.0208
X374.4254Y162.0487
X374.4533Y162.0765
X374.4811Y162.1043
X374.5646Y162.1878
X374.5924Y162.2157
X374.6203Y162.2435
X374.6481Y162.2714
X374.676Y162.2992
X374.7316Y162.3549
X374.7595Y162.3827
X374.7873Y162.4106
X374.8031Y162.4263
Y155.7339
X374.8257Y155.7661
Z0.3937
X374.871Y155.8306
X374.8936Y155.8628
X374.9162Y155.895
X374.9614Y155.9595
X374.9841Y155.9917
X375.0293Y156.0562
X375.0519Y156.0884
X375.0745Y156.1206
X375.0971Y156.1529
X375.1423Y156.2173
X375.165Y156.2495
X375.2102Y156.314
X375.2328Y156.3462
X375.278Y156.4107
X375.3007Y156.4429
X375.3459Y156.5073
X375.3685Y156.5396
X375.4137Y156.604
X375.4364Y156.6362
X375.4816Y156.7007
X375.5042Y156.7329
X375.5494Y156.7974
X375.5721Y156.8296
X375.5947Y156.8618
X375.6173Y156.8941
X375.6625Y156.9585
X375.6852Y156.9907
X375.7304Y157.0552
X375.753Y157.0874
X375.7982Y157.1519
X375.8208Y157.1841
X375.8661Y157.2485
X375.8887Y157.2808
X375.9339Y157.3452
X375.9565Y157.3774
X376.0017Y157.4419
X376.0244Y157.4741
X376.047Y157.5064
X376.0696Y157.5386
X376.1148Y157.603
X376.1375Y157.6353
X376.1827Y157.6997
X376.2053Y157.7319
X376.2505Y157.7964
X376.2958Y157.8608
Z-9.8425F196.85
X376.3184Y157.8931F393.7
X376.341Y157.9253
X376.3779Y157.9778
Y163.6467
X376.4439Y163.6896
X376.5099Y163.7325
X376.6089Y163.7969
X376.642Y163.8184
X376.774Y163.9042
X376.807Y163.9256
X376.906Y163.99
X376.9721Y164.0329
X377.1041Y164.1187
X377.1371Y164.1402
X377.2692Y164.226
X377.3022Y164.2475
X377.4672Y164.3547
X377.5003Y164.3762
X377.6323Y164.462
X377.6653Y164.4835
X377.7643Y164.5478
X377.8304Y164.5907
X377.9294Y164.6551
X377.9527Y164.6703
Y159.6706
X378.0127Y159.7216
X378.1627Y159.8491
Z0.3937
X378.3427Y160.0021
X378.4027Y160.0531
X378.4327Y160.0786
X378.5227Y160.1551
X378.7027Y160.3081
X378.8527Y160.4355
X379.0327Y160.5885
X379.1827Y160.716
X379.3027Y160.818
X379.3326Y160.8435
X379.3926Y160.8945Z0.3936
Z-9.8425F196.85
X379.5275Y161.0091F393.7
Y165.497
X379.6006Y165.5262
X379.6372Y165.5408
X379.7834Y165.5993
X379.8199Y165.6139
X379.9661Y165.6724
X380.0027Y165.687
X380.1489Y165.7455
X380.1855Y165.7601
X380.3317Y165.8186
X380.3683Y165.8333
X380.5145Y165.8917
X380.551Y165.9064
X380.6972Y165.9649
X380.7338Y165.9795
X380.88Y166.038
X380.9897Y166.0818
X381.1023Y166.1269
Y162.072
X381.1728Y162.1073
X381.208Y162.1248
X381.2432Y162.1425
X381.2784Y162.1601
X381.384Y162.2129
Z0.3937
X381.7714Y162.4066
X381.8066Y162.4241
X381.8771Y162.4594
X381.9122Y162.477
X381.9827Y162.5122
X382.0179Y162.5298
X382.1588Y162.6002
X382.194Y162.6178
X382.2292Y162.6354
X382.37Y162.7059
X382.4053Y162.7234
X382.5109Y162.7763
X382.5461Y162.7939
X382.5813Y162.8115
X382.6771Y162.8594
Z-9.8425F196.85
Y166.5993F393.7
X382.7155Y166.6079
X382.7539Y166.6166
X382.8308Y166.6338
X382.8692Y166.6425
X382.946Y166.6598
X382.9844Y166.6684
X383.0612Y166.6857
X383.0996Y166.6943
X383.2149Y166.7202
X383.2533Y166.7289
X383.3301Y166.7462
X383.3685Y166.7548
X383.4453Y166.7721
X383.4837Y166.7807
X383.5606Y166.798
X383.599Y166.8067
X383.6758Y166.8239
X383.7142Y166.8326
X383.791Y166.8499
X383.8294Y166.8585
X383.9062Y166.8758
X383.9446Y166.8845
X384.0599Y166.9104
X384.0983Y166.919
X384.1751Y166.9363
X384.2135Y166.9449
X384.2519Y166.9536
Y163.4893
X384.2901Y163.4988
X384.3283Y163.5084
X384.3665Y163.5179
X384.4047Y163.5274
X384.4811Y163.5466
X384.5193Y163.5561
X384.5575Y163.5656
X384.6339Y163.5847
Z0.3937
X384.7867Y163.6229
X384.863Y163.642
X384.9013Y163.6516
X384.9394Y163.6611
X384.9776Y163.6707
X385.054Y163.6898
X385.0922Y163.6993
X385.1304Y163.7089
X385.1686Y163.7184
X385.245Y163.7375
X385.3596Y163.7661
X385.4359Y163.7853
X385.4742Y163.7948
X385.5124Y163.8043
X385.5888Y163.8234
X385.6269Y163.833
X385.6651Y163.8425
X385.7033Y163.8521
X385.7415Y163.8616
X385.8179Y163.8807
Z-9.8425F196.85
X385.8267Y163.8829F393.7
Y167.1504
X385.9445Y167.1593
X385.9838Y167.1622
X386.1801Y167.1769
X386.2193Y167.1798
X386.4156Y167.1946
X386.4549Y167.1975
X386.6512Y167.2122
X386.6904Y167.2152
X386.8867Y167.2299
X386.926Y167.2328
X387.1223Y167.2476
X387.1616Y167.2505
X387.3579Y167.2652
X387.3971Y167.2682
X387.4015Y167.2685
Y164.1585
X387.4408Y164.1605
X387.4802Y164.1624
X387.5981Y164.1683
X387.6375Y164.1703
X387.7161Y164.1742
X387.7554Y164.1762
X387.8734Y164.1821
X387.9127Y164.1841
X387.9913Y164.188
Z0.3937
X388.1486Y164.1959
X388.1879Y164.1978
X388.2666Y164.2018Z0.3936
Z-9.8425F196.85
X388.3059Y164.2037F393.7
X388.3452Y164.2057
X388.4239Y164.2096
X388.4632Y164.2116
X388.5812Y164.2175
X388.6205Y164.2194
X388.6991Y164.2234
X388.7384Y164.2253
X388.8564Y164.2312
X388.8957Y164.2332
X388.9763Y164.2372
Y167.3079
X389.0941Y167.299
X389.1334Y167.2961
X389.3297Y167.2814
X389.3689Y167.2784
X389.5652Y167.2637
X389.6045Y167.2608
X389.8008Y167.246
X389.84Y167.2431
X390.0363Y167.2284
X390.0756Y167.2254
X390.2719Y167.2107
X390.3112Y167.2078
X390.5075Y167.193
X390.5467Y167.1901
X390.5511Y167.1898
Y164.1979
X390.7074Y164.1783
X390.7465Y164.1734
X390.9809Y164.1442
Z0.3937
X391.0981Y164.1295
X391.1371Y164.1246
X391.4887Y164.0807
X391.5278Y164.0758
X391.8794Y164.0319
X391.9966Y164.0172
Z-9.8425F196.85
X392.1259Y164.001F393.7
Y166.9929
X392.1643Y166.9843
X392.2028Y166.9757
X392.2796Y166.9584
X392.318Y166.9497
X392.3948Y166.9325
X392.4332Y166.9238
X392.51Y166.9065
X392.5484Y166.8979
X392.6637Y166.872
X392.7021Y166.8633
X392.7789Y166.846
X392.8173Y166.8374
X392.8941Y166.8201
X392.9325Y166.8115
X393.0094Y166.7942
X393.0478Y166.7855
X393.1246Y166.7683
X393.163Y166.7596
X393.2398Y166.7423
X393.2782Y166.7337
X393.355Y166.7164
X393.3935Y166.7078
X393.5087Y166.6819
X393.5471Y166.6732
X393.6239Y166.6559
X393.6623Y166.6473
X393.7007Y166.6386
Y163.6861
X393.8131Y163.6496
X393.8505Y163.6374
X394.0377Y163.5766
X394.0751Y163.5644
X394.2624Y163.5036
X394.2998Y163.4914
X394.5245Y163.4184
X394.5619Y163.4062
X394.7491Y163.3454
X394.7866Y163.3332
X394.9738Y163.2724
X395.0112Y163.2602
X395.1985Y163.1994
X395.2359Y163.1872
X395.2755Y163.1743
Y166.1269
X395.3114Y166.1107
X395.4192Y166.0622
X395.455Y166.0461
X395.5628Y165.9976
X395.5987Y165.9815
X395.6705Y165.9492
X395.7064Y165.933
X395.7423Y165.9168
X395.7782Y165.9007
X395.8859Y165.8522
X395.9218Y165.8361
X396.0295Y165.7876
X396.1013Y165.7553
X396.1372Y165.7391
X396.1731Y165.723
X396.209Y165.7068
X396.2449Y165.6907
X396.3526Y165.6422
X396.3885Y165.6261
X396.4603Y165.5937
X396.4962Y165.5776
X396.5321Y165.5614
X396.568Y165.5453
X396.604Y165.5291
X396.6399Y165.513
X396.6758Y165.4968
X396.7116Y165.4807
X396.8194Y165.4322
X396.8503Y165.4183
Y162.4263
X396.8845Y162.4067
X396.9186Y162.3871
X396.9869Y162.3479
X397.021Y162.3282
Z0.3937
X397.0892Y162.289
X397.1234Y162.2693
X397.2258Y162.2105
X397.2599Y162.1909
X397.4306Y162.0927
X397.4647Y162.0731
X397.533Y162.0339
X397.5671Y162.0142
X397.6354Y161.975
X397.6695Y161.9554
X397.7719Y161.8965
X397.806Y161.8769
X397.8743Y161.8376
Z-9.8425F196.85
X397.9084Y161.818F393.7
X397.9767Y161.7788
X398.0108Y161.7591
X398.079Y161.7199
X398.1132Y161.7003
X398.1814Y161.661
X398.2156Y161.6414
X398.3179Y161.5825
X398.3521Y161.5629
X398.3862Y161.5433
X398.4204Y161.5237
X398.4251Y161.5209
Y164.5128
X398.5845Y164.3973
X398.8077Y164.2355
X398.8395Y164.2124
X398.9033Y164.1662
X399.222Y163.9351
X399.5408Y163.704
X399.5727Y163.6809
X399.6045Y163.6578
X399.8914Y163.4498
X399.9999Y163.3712
Y160.3005
X400.0289Y160.2738
Z0.3937
X400.0866Y160.2203
X400.1734Y160.1401
X400.2022Y160.1134
X400.3179Y160.0065
X400.3468Y159.9797
X400.4624Y159.8728
X400.4913Y159.8461
X400.578Y159.7659
X400.6069Y159.7391
X400.7225Y159.6322
X400.7514Y159.6055
X400.867Y159.4985
X400.8959Y159.4718
X400.9826Y159.3916
X401.0115Y159.3649
X401.1272Y159.2579
X401.156Y159.2312
X401.2717Y159.1243
X401.3005Y159.0975
X401.3873Y159.0173
Z-9.8425F196.85
X401.4162Y158.9906F393.7
X401.5318Y158.8837
X401.5607Y158.8569
X401.5747Y158.8439
Y161.9146
X401.6012Y161.8854
X401.6277Y161.8563
X401.6542Y161.8272
X401.6807Y161.798
X401.7336Y161.7398
X401.7601Y161.7107
X401.8131Y161.6524
X401.8396Y161.6233
X401.8661Y161.5941
X401.919Y161.5359
X401.9455Y161.5067
X401.9985Y161.4485
X402.025Y161.4194
X402.0515Y161.3902
X402.0779Y161.3611
X402.1044Y161.332
X402.1574Y161.2737
X402.1839Y161.2446
X402.2368Y161.1863
X402.3163Y161.0989
X402.3693Y161.0407
X402.3958Y161.0115
X402.4487Y160.9533
X402.4752Y160.9241
X402.5017Y160.895
X402.5282Y160.8659
X402.5811Y160.8076
X402.6076Y160.7785
X402.6606Y160.7202
X402.6871Y160.6911
X402.7136Y160.662
X402.7665Y160.6037
X402.793Y160.5746
X402.846Y160.5163
X402.8725Y160.4872
X402.899Y160.458
X402.9254Y160.4289
X402.9519Y160.3998
X403.0049Y160.3415
X403.0314Y160.3124
X403.0843Y160.2541
X403.1495Y160.1824
Y156.9543
X403.1719Y156.9867
X403.1943Y157.0191
X403.2389Y157.0839
X403.2613Y157.1163
X403.306Y157.1812
X403.3284Y157.2136
X403.3731Y157.2784
X403.3954Y157.3108
X403.4401Y157.3756
X403.4625Y157.408
X403.5072Y157.4729
X403.5296Y157.5053
X403.5742Y157.5701
X403.5966Y157.6025
X403.6413Y157.6673
X403.6637Y157.6997
X403.686Y157.7321
X403.7084Y157.7645
X403.7531Y157.8294
X403.7754Y157.8618
X403.8201Y157.9266
X403.8425Y157.959
X403.8872Y158.0238
X403.9096Y158.0562
X403.9542Y158.121
X403.9766Y158.1534
X404.0213Y158.2183
X404.0437Y158.2507
X404.0884Y158.3155
X404.1107Y158.3479
X404.1554Y158.4127
X404.1778Y158.4451
X404.2225Y158.5099
X404.2448Y158.5424
X404.2895Y158.6072
X404.3119Y158.6396
X404.3566Y158.7044
X404.379Y158.7368
X404.4236Y158.8016
X404.446Y158.834
X404.4907Y158.8989
X404.5131Y158.9313
X404.5578Y158.9961
X404.5801Y159.0285
X404.6248Y159.0933
X404.6472Y159.1257
X404.6919Y159.1905
X404.7142Y159.2229
X404.7243Y159.2376
Y154.3561
X404.7521Y154.2824
Z0.3937
X404.78Y154.2087
X404.8077Y154.1351
X404.8217Y154.0982
X404.8633Y153.9877
X404.8773Y153.9509
X404.9328Y153.8036
X404.9468Y153.7667
X404.9884Y153.6562
X405.0024Y153.6194
X405.0441Y153.5089
X405.058Y153.472
X405.1136Y153.3247
X405.1275Y153.2879
X405.1692Y153.1774
X405.1831Y153.1405
X405.2248Y153.03
X405.2387Y152.9932
X405.2943Y152.8458
X405.3082Y152.809
X405.3499Y152.6985
X405.3638Y152.6617
X405.4055Y152.5512
X405.4194Y152.5143
X405.475Y152.367
X405.4889Y152.3302
X405.5306Y152.2197
X405.5445Y152.1828
X405.5862Y152.0723
X405.6001Y152.0355
X405.6557Y151.8882
X405.6696Y151.8513
X405.7113Y151.7408
X405.7252Y151.704
X405.7669Y151.5935
X405.7808Y151.5567
X405.8364Y151.4093
X405.8503Y151.3725
X405.892Y151.262
X405.9059Y151.2251
X405.9476Y151.1146
X405.9615Y151.0778
X406.0171Y150.9305
X406.031Y150.8936
X406.0727Y150.7831
X406.0866Y150.7463
X406.1283Y150.6358
X406.1422Y150.599
X406.1978Y150.4516
X406.2117Y150.4148
X406.2534Y150.3043
X406.2812Y150.2306
Z-9.8425F196.85
X406.2992Y150.1831F393.7
Y159.5132
G0Z19.685
X407.874Y166.0481
G1Z-9.8425F196.85
Y99.8325F393.7
X407.8927Y99.8671
X407.9114Y99.9017
X407.9489Y99.971
X407.9676Y100.0056
X407.9863Y100.0403
X408.005Y100.0749
X408.0425Y100.1442
X408.0612Y100.1788
X408.0987Y100.2481
X408.1174Y100.2827
X408.1548Y100.352
X408.1735Y100.3866
X408.1923Y100.4212
X408.211Y100.4559
X408.2484Y100.5251
X408.2671Y100.5598
X408.3046Y100.629
X408.3233Y100.6637
X408.342Y100.6983
X408.3607Y100.7329
X408.3982Y100.8022
X408.4169Y100.8368
X408.4544Y100.9061
X408.4731Y100.9407
X408.5105Y101.01
X408.5292Y101.0446
X408.548Y101.0793
X408.5667Y101.1139
X408.6042Y101.1832
X408.6228Y101.2178
X408.6603Y101.2871
X408.679Y101.3217
X408.7165Y101.391
X408.7352Y101.4256
X408.7539Y101.4602
X408.7726Y101.4949
X408.8101Y101.5641
X408.8288Y101.5988
X408.8663Y101.668
X408.885Y101.7027
X408.9224Y101.7719
X408.9411Y101.8066
X408.9599Y101.8412
X408.9786Y101.8758
X409.016Y101.9451
X409.0347Y101.9797
X409.0722Y102.049
X409.0909Y102.0837
X409.1096Y102.1183
X409.1283Y102.1529
X409.1658Y102.2222
X409.1845Y102.2568
X409.222Y102.3261
X409.2407Y102.3607
X409.2781Y102.43
X409.2968Y102.4646
X409.3156Y102.4993
X409.3343Y102.5339
X409.3717Y102.6032
X409.3904Y102.6378
X409.4279Y102.7071
X409.4466Y102.7417
X409.4488Y102.7456
Y166.0481
X411.0236
Y109.7924
G0Z19.685
X310.2362Y114.3196
G1Z-9.8425F196.85
Y166.0481F393.7
X311.811
Y114.3196
X313.3858
Y159.6313
Z0.3937
X313.8086Y159.219
X313.8368Y159.1915
X314.7953Y158.2571
X314.9362Y158.1197
Z-9.8425F196.85
X314.9606Y158.0959F393.7
Y150.7736
G0Z19.685
X316.5354Y155.4583
G1Z-9.8425F196.85
Y158.1353F393.7
X316.6916Y158.1158
X316.7307Y158.1109
X317.0823Y158.067
X317.1214Y158.0621
X317.473Y158.0181
X317.512Y158.0132
X317.8636Y157.9693
X318.1102Y157.9385
Y159.6313
X318.1495Y159.6293
X318.1888Y159.6273
X318.3068Y159.6214
X318.3461Y159.6195
X318.4247Y159.6155
X318.4641Y159.6136
X318.582Y159.6077
X318.6213Y159.6057
X318.7393Y159.5998
X318.7787Y159.5979
X318.8573Y159.5939
X318.8966Y159.592
X319.0146Y159.586
X319.0539Y159.5841
X319.1325Y159.5802
X319.1718Y159.5782
X319.2898Y159.5723
X319.3291Y159.5703
X319.4078Y159.5664
X319.4471Y159.5644
X319.5651Y159.5585
X319.6044Y159.5566
X319.685Y159.5525
Y161.5996
X319.7198Y161.5813
X319.8244Y161.5264
X319.8593Y161.5081
X319.929Y161.4715
X319.9638Y161.4532
X319.9987Y161.4349
X320.0336Y161.4166
X320.0684Y161.3983
X320.1381Y161.3617
X320.173Y161.3434
X320.2079Y161.3251
X320.2427Y161.3068
X320.2776Y161.2885
X320.3125Y161.2702
X320.3473Y161.2519
X320.417Y161.2153
X320.4519Y161.197
X320.4867Y161.1787
X320.5216Y161.1604
X320.5565Y161.1421
X320.6262Y161.1055
X320.7308Y161.0506
X320.8004Y161.014
X320.8353Y160.9958
X320.8702Y160.9775
X320.9051Y160.9591
X320.9399Y160.9408
X321.0096Y160.9043
X321.0445Y160.886
X321.0793Y160.8676
X321.1142Y160.8493
X321.1491Y160.8311
X321.1839Y160.8128
X321.2188Y160.7945
X321.2598Y160.7729
Y163.0956
X321.322Y163.1438
X321.3531Y163.1679
X321.5088Y163.2885
X321.6021Y163.3609
X321.6955Y163.4332
X321.7266Y163.4573
X321.8822Y163.5779
X321.9133Y163.602
X322.0689Y163.7226
X322.1311Y163.7708
X322.2556Y163.8673
X322.2867Y163.8914
X322.4423Y164.012
X322.5357Y164.0843
X322.6291Y164.1567
X322.6601Y164.1808
X322.8158Y164.3014
X322.8346Y164.316
Y161.7177
X322.8701Y161.7346
X322.9413Y161.7684
X323.0124Y161.8022
X323.048Y161.8191
Z0.3937
X323.1191Y161.8529
X323.1902Y161.8866
X323.2969Y161.9373
X323.368Y161.9711
X323.4392Y162.0049
X323.4747Y162.0218
X323.5458Y162.0556
X323.617Y162.0893
X323.7236Y162.14
X323.7948Y162.1738
X323.8659Y162.2076
X323.9015Y162.2245
X323.9726Y162.2582
X324.0437Y162.292
X324.1504Y162.3427
X324.2571Y162.3934
Z-9.8425F196.85
X324.2927Y162.4103F393.7
X324.3282Y162.4272
X324.3993Y162.4609
X324.4094Y162.4657
Y165.2608
X324.4453Y165.2769
X324.553Y165.3254
X324.5889Y165.3416
X324.6966Y165.39
X324.7325Y165.4062
X324.8043Y165.4385
X324.8402Y165.4547
X324.8761Y165.4708
X324.912Y165.487
X325.0197Y165.5354
X325.0556Y165.5516
X325.1634Y165.6
X325.2351Y165.6324
X325.2711Y165.6485
X325.307Y165.6647
X325.3429Y165.6808
X325.3788Y165.697
X325.4865Y165.7454
X325.5224Y165.7616
X325.5942Y165.7939
X325.6301Y165.8101
X325.666Y165.8262
X325.7019Y165.8424
X325.7378Y165.8585
X325.7737Y165.8747
X325.8096Y165.8908
X325.8455Y165.907
X325.9532Y165.9554
X325.9842Y165.9694
Y163.0562
X326.0224Y163.0658
X326.0606Y163.0753
X326.0988Y163.0849
X326.137Y163.0944
X326.2134Y163.1135
X326.2516Y163.1231
X326.2897Y163.1326
X326.3661Y163.1517
X326.4043Y163.1613
X326.5189Y163.1899
X326.5953Y163.209
X326.6335Y163.2185
X326.6717Y163.2281
X326.7099Y163.2376
X326.7863Y163.2567
X326.8245Y163.2663
X326.8627Y163.2758
X326.9009Y163.2854
X326.9773Y163.3045
X327.0154Y163.314
Z0.3937
X327.0918Y163.3331
X327.1682Y163.3522
X327.2064Y163.3618
X327.2828Y163.3808
Z-9.8425F196.85
X327.3592Y163.4F393.7
X327.3974Y163.4095
X327.4356Y163.419
X327.4738Y163.4286
X327.5502Y163.4477
X327.559Y163.4499
Y166.4812
X327.5972Y166.4907
X327.6354Y166.5003
X327.6736Y166.5098
X327.7118Y166.5194
X327.7882Y166.5385
X327.8264Y166.548
X327.8645Y166.5576
X327.941Y166.5766
X327.9791Y166.5862
X328.0937Y166.6148
X328.1701Y166.6339
X328.2083Y166.6435
X328.2465Y166.653
X328.2847Y166.6626
X328.3611Y166.6817
X328.3993Y166.6912
X328.4375Y166.7008
X328.4757Y166.7103
X328.5521Y166.7294
X328.6666Y166.7581
X328.743Y166.7772
X328.7812Y166.7867
X328.8194Y166.7963
X328.8958Y166.8153
X328.934Y166.8249
X328.9722Y166.8344
X329.0104Y166.844
X329.0486Y166.8535
X329.125Y166.8726
X329.1338Y166.8748
Y163.7255
X329.2516Y163.7343
X329.2909Y163.7372
X329.4871Y163.752
X329.5264Y163.7549
X329.7227Y163.7696
X329.7619Y163.7726
X329.9582Y163.7873
X329.9975Y163.7902
X330.1938Y163.805
X330.2331Y163.8079
Z0.3936
X330.4294Y163.8226Z0.3937
X330.4686Y163.8256
X330.5864Y163.8344
Z-9.8425F196.85
X330.6649Y163.8403F393.7
X330.7042Y163.8432
X330.7086Y163.8436
Y167.111
X330.7478Y167.115
X330.787Y167.1189
X330.8653Y167.1267
X330.9045Y167.1306
X330.9828Y167.1385
X331.022Y167.1424
X331.1004Y167.1502
X331.1395Y167.1541
X331.2179Y167.162
X331.3354Y167.1737
X331.4138Y167.1816
X331.4529Y167.1855
X331.5313Y167.1933
X331.6488Y167.2051
X331.7663Y167.2168
X331.8838Y167.2286
X331.923Y167.2325
X332.0014Y167.2403
X332.0405Y167.2442
X332.1189Y167.2521
X332.1581Y167.256
X332.2364Y167.2638
X332.2834Y167.2685
Y163.8829
X332.4012Y163.8741
X332.4405Y163.8712
X332.6368Y163.8564
X332.676Y163.8535
X332.8723Y163.8388
X332.9116Y163.8358
X333.1079Y163.8211
X333.1471Y163.8182
X333.3434Y163.8034
X333.3827Y163.8005
X333.6183Y163.7828
X333.6575Y163.7799
X333.8582Y163.7648
Y167.3079
X333.8975Y167.3069
X333.9369Y167.3059
X333.9763Y167.3049
X334.0156Y167.3039
X334.0943Y167.302
X334.1337Y167.301
X334.1731Y167.3
X334.2124Y167.299
X334.2911Y167.2971
X334.3305Y167.2961
X334.3698Y167.2951
X334.4092Y167.2941
X334.4486Y167.2931
X334.4879Y167.2921
X334.5666Y167.2902
X334.606Y167.2892
X334.6454Y167.2882
X334.6847Y167.2872
X334.7634Y167.2853
X334.8028Y167.2843
X334.8421Y167.2833
X334.8815Y167.2823
X334.9602Y167.2803
X334.9996Y167.2793
X335.0389Y167.2784
X335.0783Y167.2774
X335.157Y167.2754
X335.1963Y167.2744
X335.2357Y167.2734
X335.2751Y167.2725
X335.3538Y167.2705
X335.3932Y167.2695
X335.433Y167.2685
Y163.4893
X335.4707Y163.4779
X335.5085Y163.4666
X335.5462Y163.4553
X335.6216Y163.4327
X335.6593Y163.4214
X335.697Y163.4101
X335.7347Y163.3988
X335.8479Y163.3648
X335.9233Y163.3422
X335.961Y163.3309
X335.9987Y163.3196
X336.0364Y163.3083
X336.1118Y163.2856
X336.1495Y163.2743
X336.1872Y163.263
X336.225Y163.2517
X336.2627Y163.2404
X336.3381Y163.2178
X336.3758Y163.2064
X336.4135Y163.1951
Z0.3937
X336.4889Y163.1725
X336.5643Y163.1499
Z-9.8425F196.85
X336.602Y163.1386F393.7
X336.6397Y163.1273
X336.6775Y163.116
X336.7529Y163.0933
X336.7906Y163.082
X336.8283Y163.0707
X336.866Y163.0594
X336.9037Y163.0481
X337.0078Y163.0169
Y167.0717
X337.0466Y167.0649
X337.0854Y167.0581
X337.1242Y167.0513
X337.2405Y167.031
X337.2793Y167.0242
X337.318Y167.0174
X337.3568Y167.0106
X337.3956Y167.0038
X337.4344Y166.997
X337.5507Y166.9767
X337.5895Y166.9699
X337.6283Y166.9631
X337.6671Y166.9563
X337.7059Y166.9495
X337.7834Y166.936
X337.8998Y166.9156
X337.9385Y166.9088
X337.9773Y166.902
X338.0161Y166.8952
X338.0549Y166.8885
X338.0937Y166.8817
X338.21Y166.8613
X338.2488Y166.8545
X338.2876Y166.8477
X338.3264Y166.841
X338.3651Y166.8342
X338.4039Y166.8274
X338.4427Y166.8206
X338.5202Y166.807
X338.5826Y166.7961
Y162.3476
X338.6168Y162.328
X338.6509Y162.3084
X338.685Y162.2887
Z0.3937
X338.8215Y162.2102
X338.8557Y162.1906
X338.9239Y162.1514
X338.9581Y162.1317
X339.0263Y162.0925
X339.0605Y162.0729
X339.1287Y162.0336
X339.1628Y162.014
X339.197Y161.9944
X339.2311Y161.9748
X339.2653Y161.9551
X339.3335Y161.9159
X339.3677Y161.8962
X339.4359Y161.857
X339.47Y161.8374
X339.5383Y161.7981
X339.5724Y161.7785
X339.6407Y161.7393
X339.6748Y161.7196
X339.7431Y161.6804
X339.7772Y161.6608
X339.8455Y161.6215
X339.8796Y161.6019
X339.9479Y161.5626
Z-9.8425F196.85
X339.982Y161.543F393.7
X340.0502Y161.5038
X340.0844Y161.4841
X340.1574Y161.4422
Y166.4024
X340.4547Y166.2984
X340.4918Y166.2854
X340.529Y166.2724
X340.6033Y166.2464
X340.6405Y166.2334
X340.6776Y166.2204
X340.7891Y166.1813
X340.8263Y166.1684
X340.9006Y166.1423
X340.9378Y166.1293
X341.0121Y166.1033
X341.0492Y166.0903
X341.0864Y166.0773
X341.1979Y166.0383
X341.2351Y166.0253
X341.3465Y165.9863
X341.3837Y165.9733
X341.4952Y165.9343
X341.5323Y165.9213
X341.6067Y165.8952
X341.6438Y165.8822
X341.7322Y165.8513
Y160.1824
X341.7581Y160.1527
Z0.3937
X341.8872Y160.0042
X341.9131Y159.9745
X342.1973Y159.6477
X342.2231Y159.618
X342.5073Y159.2912
X342.5331Y159.2615
X342.8431Y158.905
X342.869Y158.8753
X343.1531Y158.5485
X343.179Y158.5188
X343.2307Y158.4594
Z-9.8425F196.85
X343.307Y158.3715F393.7
Y165.1033
X343.3412Y165.0837
X343.3753Y165.0641
X343.4436Y165.0248
X343.4777Y165.0052
X343.546Y164.966
X343.5801Y164.9463
X343.6825Y164.8875
X343.7166Y164.8678
X343.7849Y164.8286
X343.819Y164.809
X343.8532Y164.7893
X343.8873Y164.7697
X343.9214Y164.7501
X343.9897Y164.7108
X344.0238Y164.6912
X344.0921Y164.652
X344.1262Y164.6323
X344.2286Y164.5735
X344.2627Y164.5538
X344.331Y164.5146
X344.3651Y164.495
X344.4334Y164.4557
X344.4675Y164.4361
X344.5357Y164.3969
X344.5699Y164.3772
X344.6381Y164.338
X344.6723Y164.3184
X344.7747Y164.2595
X344.8088Y164.2399
X344.843Y164.2202
X344.8771Y164.2006
X344.8818Y164.1979
Y155.0647
G0Z19.685
X346.4567Y162.9381
G1Z-9.8425F196.85
Y114.3196F393.7
X348.0315
Y160.9304
X348.1455Y160.6795
X348.1618Y160.6437
X348.3736Y160.1777
X348.3899Y160.1419
X348.6017Y159.676
X348.618Y159.6401
X348.8298Y159.1742
X348.8461Y159.1383
X349.0579Y158.6724
X349.0741Y158.6366
X349.3023Y158.1348
X349.3185Y158.099
X349.5304Y157.633
X349.5466Y157.5972
X349.6063Y157.4661
Y114.3196
G0Z19.685
X286.6141
G1Z-9.8425F196.85
Y166.0481F393.7
X288.1889
Y114.3196
X289.7637
Y166.0481
G0Z19.685
X286.6141Y181.4013
G1Z-9.8425F196.85
Y187.582F393.7
X288.1889
Y181.4013
X289.7637
Y187.582
G0Z19.685
X283.4645Y229.1144
G1Z-9.8425F196.85
Y280.8036F393.7
X285.0393
Y229.1144
X286.6141
Y273.56
Z0.3937
X286.8254Y273.4544
X286.8958Y273.4192
X286.931Y273.4016
X287.0719Y273.3311
X287.1071Y273.3135
X287.2832Y273.2255
X287.3184Y273.2079
X287.4945Y273.1199
X287.5297Y273.1023
X287.6705Y273.0318
X287.7058Y273.0142
X287.8818Y272.9262
X287.917Y272.9086
X288.0579Y272.8382
X288.1283Y272.803
Z-9.8425F196.85
X288.1889Y272.7727F393.7
Y267.5368
Z0.3937
X288.22Y267.6092
X288.2511Y267.6815
X288.2823Y267.7538
X288.2978Y267.79
X288.3134Y267.8262
X288.3445Y267.8985
X288.3756Y267.9708
X288.3912Y268.007
X288.4067Y268.0432
X288.4378Y268.1155
X288.4689Y268.1878
X288.4845Y268.224
X288.5Y268.2602
X288.5312Y268.3325
X288.5623Y268.4048
X288.5778Y268.441
X288.5934Y268.4772
X288.6245Y268.5495
X288.6556Y268.6218
X288.6712Y268.658
X288.6867Y268.6942
X288.7178Y268.7665
X288.749Y268.8388
X288.7645Y268.875
X288.7801Y268.9112
X288.8112Y268.9835
X288.8423Y269.0558
X288.8579Y269.092
X288.8734Y269.1282
X288.9045Y269.2005
X288.9201Y269.2366
X288.9512Y269.309
X288.9823Y269.3813
X288.9979Y269.4175
X289.0134Y269.4536
X289.0445Y269.526
X289.0756Y269.5983
X289.0912Y269.6345
X289.1068Y269.6706
X289.1379Y269.743
X289.169Y269.8153
X289.1845Y269.8515
X289.2001Y269.8876
X289.2312Y269.96
X289.2623Y270.0323
X289.2779Y270.0685
X289.2934Y270.1046
X289.3246Y270.177
X289.3557Y270.2493
X289.3712Y270.2855
X289.3868Y270.3216
X289.4179Y270.394
X289.449Y270.4663
X289.4646Y270.5025
X289.4801Y270.5386
X289.5112Y270.611
X289.5423Y270.6833
X289.5579Y270.7195
X289.589Y270.7918
X289.6046Y270.8279
X289.6201Y270.8641
X289.6512Y270.9365
X289.6824Y271.0088
X289.6979Y271.0449
X289.729Y271.1173
Z-9.8425F196.85
X289.7637Y271.198F393.7
Y273.2057
X289.8815Y273.2146
X289.9208Y273.2175
X290.1171Y273.2322
X290.1563Y273.2352
X290.3526Y273.2499
X290.3919Y273.2528
X290.5882Y273.2676
X290.6274Y273.2705
X290.8238Y273.2852
X290.863Y273.2881
X291.0593Y273.3029
X291.0986Y273.3058
X291.2949Y273.3206
X291.3385Y273.3238
Y275.1347
X291.3769Y275.1261
X291.4154Y275.1174
X291.4922Y275.1001
X291.5306Y275.0915
X291.6074Y275.0742
X291.6458Y275.0656
X291.7226Y275.0483
X291.761Y275.0396
X291.8763Y275.0137
X291.9147Y275.0051
X291.9915Y274.9878
X292.0299Y274.9792
X292.1067Y274.9619
X292.1451Y274.9532
X292.222Y274.936
X292.2604Y274.9273
X292.3372Y274.91
X292.3756Y274.9014
X292.4524Y274.8841
X292.4908Y274.8755
X292.5677Y274.8582
X292.6061Y274.8495
X292.7213Y274.8236
X292.7597Y274.815
X292.8365Y274.7977
X292.8749Y274.789
X292.9133Y274.7804
Y276.9062
X293.0124Y276.8419
X293.0454Y276.8204
X293.2764Y276.6702
X293.3095Y276.6488
X293.5075Y276.52
X293.5736Y276.4771
X293.7716Y276.3484
X293.8376Y276.3055
X294.0027Y276.1982
X294.2668Y276.0266
X294.4881Y275.8827
Y278.3235
X294.6494Y278.4363
X294.6817Y278.4589
X294.7462Y278.5041
X294.9719Y278.6621
X295.0042Y278.6847
X295.1332Y278.775
X295.3913Y278.9556
X295.5203Y279.0459
X295.7138Y279.1813
X295.9073Y279.3168
X296.0629Y279.4257
Y276.7881
X296.1354Y276.8189
X296.1716Y276.8343
X296.2804Y276.8805
X296.3166Y276.8959
X296.4253Y276.9421
X296.4615Y276.9575
X296.6064Y277.0191
X296.6789Y277.0499
Z0.3937
X296.7514Y277.0807
X296.7876Y277.0961
X296.8963Y277.1423
X296.9326Y277.1577
X297.0775Y277.2193
X297.1137Y277.2347
X297.1862Y277.2655
Z-9.8425F196.85
X297.2224Y277.2809F393.7
X297.2587Y277.2963
X297.5485Y277.4195
X297.5848Y277.4349
X297.6377Y277.4574
Y280.2524
X297.7102Y280.2832
X297.7464Y280.2986
X297.8552Y280.3448
X297.8914Y280.3602
X298.0001Y280.4064
X298.0363Y280.4218
X298.1812Y280.4834
X298.3262Y280.545
X298.3624Y280.5604
X298.4711Y280.6066
X298.5074Y280.622
X298.6523Y280.6836
X298.6885Y280.699
X298.7972Y280.7452
X298.8335Y280.7606
X299.1233Y280.8838
X299.1596Y280.8992
X299.2125Y280.9217
Y277.9691
X299.4035Y278.0169
X299.4417Y278.0264
X299.4799Y278.036
X299.5181Y278.0455
X299.5563Y278.0551
X299.6327Y278.0742
Z0.3936
X299.7091Y278.0933Z0.3937
X299.7473Y278.1028
X299.8237Y278.1219
X300.0146Y278.1697
Z-9.8425F196.85
X300.0528Y278.1792F393.7
X300.2056Y278.2174
X300.2438Y278.2269
X300.282Y278.2365
X300.3202Y278.246
X300.3966Y278.2651
X300.5112Y278.2938
X300.5876Y278.3129
X300.7403Y278.3511
X300.7785Y278.3606
X300.7873Y278.3628
Y281.3941
X300.8258Y281.4027
X300.8642Y281.4114
X300.941Y281.4287
X300.9794Y281.4373
X301.0562Y281.4546
X301.0946Y281.4632
X301.1714Y281.4805
X301.2099Y281.4892
X301.3251Y281.5151
X301.3635Y281.5237
X301.4403Y281.541
X301.4787Y281.5497
X301.5555Y281.5669
X301.594Y281.5756
X301.6708Y281.5928
X301.7092Y281.6015
X301.786Y281.6188
X301.8244Y281.6274
X301.9012Y281.6447
X301.9396Y281.6534
X302.0165Y281.6706
X302.0549Y281.6793
X302.1701Y281.7052
X302.2085Y281.7138
X302.2853Y281.7311
X302.3237Y281.7398
X302.3621Y281.7484
Y278.5597
X302.4015Y278.5616
X302.4408Y278.5636
X302.5588Y278.5695
X302.5981Y278.5714
X302.6767Y278.5754
X302.716Y278.5773
X302.7947Y278.5813
Z0.3937
X302.9913Y278.5911
X303.0306Y278.5931
X303.1092Y278.597
X303.1486Y278.599
X303.2665Y278.6049
X303.3059Y278.6068
X303.3845Y278.6108
X303.4238Y278.6127
X303.5418Y278.6186
X303.5811Y278.6206
X303.6597Y278.6245
X303.6991Y278.6265
X303.8563Y278.6344
Z-9.8425F196.85
X303.937Y278.6384F393.7
Y281.9452
X304.0155Y281.9511
X304.0547Y281.9541
X304.251Y281.9688
X304.2903Y281.9717
X304.4866Y281.9865
X304.5258Y281.9894
X304.7222Y282.0041
X304.7614Y282.0071
X304.9577Y282.0218
X304.997Y282.0247
X305.1933Y282.0395
X305.2325Y282.0424
X305.4288Y282.0571
X305.4681Y282.0601
X305.5118Y282.0633
Y278.6384
X305.551Y278.6345
X305.5901Y278.6306
X305.6685Y278.6227
X305.7076Y278.6188
X305.786Y278.611
X305.8252Y278.6071
X305.9035Y278.5992
X305.9427Y278.5953
X306.021Y278.5875
X306.0602Y278.5836
X306.1386Y278.5757
X306.1777Y278.5718
X306.2561Y278.564
X306.2953Y278.5601
X306.3736Y278.5522
X306.4128Y278.5483
X306.452Y278.5444
X306.4911Y278.5405
X306.5695Y278.5326
X306.6087Y278.5287
X306.687Y278.5209
X306.7262Y278.517
X306.8045Y278.5091
X306.8437Y278.5052
X306.9221Y278.4974
X306.9612Y278.4935
X307.0396Y278.4856
X307.0788Y278.4817
X307.0866Y278.4809
Y282.1027
X307.2044Y282.0939
X307.2436Y282.0909
X307.4399Y282.0762
X307.4792Y282.0733
X307.6755Y282.0585
X307.7147Y282.0556
X307.911Y282.0409
X307.9503Y282.0379
X308.1466Y282.0232
X308.1859Y282.0203
X308.3821Y282.0055
X308.4214Y282.0026
X308.6177Y281.9879
X308.6614Y281.9846
Y278.1266
X308.7737Y278.0901
X308.8486Y278.0658
X308.9609Y278.0293
Z0.3937
X309.223Y277.9441
X309.2979Y277.9198
X309.4851Y277.8589
X309.56Y277.8346
X309.7098Y277.7859
X309.7846Y277.7616
X309.9344Y277.7129
Z-9.8425F196.85
X310.0093Y277.6886F393.7
X310.1591Y277.6399
X310.2362Y277.6148
Y281.7878
X310.4292Y281.7492
X310.5836Y281.7183
X310.6222Y281.7106
X310.7381Y281.6874
X310.7767Y281.6797
X310.8925Y281.6565
X311.0469Y281.6256
X311.2013Y281.5948
X311.2399Y281.587
X311.3557Y281.5639
X311.3943Y281.5561
X311.5102Y281.533
X311.626Y281.5098
X311.6646Y281.5021
X311.811Y281.4728
Y276.8669
X311.9445Y276.7834
Z0.3937
X312.2116Y276.6165
X312.245Y276.5956
X312.4453Y276.4704
X312.4787Y276.4496
X312.6123Y276.3661
X312.6456Y276.3452
X312.679Y276.3244
X312.7124Y276.3035
X312.7458Y276.2826
X312.7792Y276.2618
X312.846Y276.2201
X312.8793Y276.1992
X312.9127Y276.1783
X312.9461Y276.1574
X313.0129Y276.1157
Z-9.8425F196.85
X313.0797Y276.074F393.7
X313.113Y276.0531
X313.1464Y276.0323
X313.1798Y276.0114
X313.2132Y275.9905
X313.2466Y275.9697
X313.3134Y275.9279
X313.3467Y275.9071
X313.3801Y275.8862
X313.3858Y275.8827
Y281.0004
X313.4226Y280.9866
X313.4595Y280.9728
X313.5332Y280.9451
X313.5701Y280.9313
X313.6438Y280.9037
X313.6807Y280.8898
X313.7913Y280.8484
X313.865Y280.8207
X313.9019Y280.8069
X313.9756Y280.7793
X314.0125Y280.7654
X314.0862Y280.7378
X314.1231Y280.724
X314.1599Y280.7101
X314.2336Y280.6825
X314.2705Y280.6687
X314.3811Y280.6272
X314.418Y280.6134
X314.4917Y280.5857
X314.5286Y280.5719
X314.6023Y280.5443
X314.676Y280.5166
X314.7129Y280.5028
X314.7866Y280.4752
X314.8235Y280.4613
X314.8972Y280.4337
X314.9606Y280.4099
Y274.4655
X315.0074Y274.4022
X315.0309Y274.3706
Z0.3937
X315.148Y274.2124
X315.1715Y274.1808
X315.2887Y274.0226
X315.3121Y273.9909
X315.3824Y273.896
X315.4293Y273.8328
X315.4527Y273.8011
X315.5465Y273.6746
X315.5699Y273.6429
X315.5933Y273.6113
X315.7105Y273.4531
X315.734Y273.4215
X315.8511Y273.2633
X315.8746Y273.2317
X315.9917Y273.0735
X316.0152Y273.0419
X316.1089Y272.9153
X316.1324Y272.8837
X316.2026Y272.7888
X316.2495Y272.7255
X316.273Y272.6939
X316.3901Y272.5357
X316.4136Y272.5041
X316.5073Y272.3775
Z-9.8425F196.85
X316.5354Y272.3396F393.7
Y279.6226
X316.6014Y279.5797
X316.6674Y279.5368
X316.7664Y279.4724
X316.7995Y279.4509
X316.8985Y279.3866
X316.9645Y279.3437
X316.9975Y279.3222
X317.1296Y279.2364
X317.1626Y279.2149
X317.2946Y279.1291
X317.3276Y279.1076
X317.3937Y279.0647
X317.4597Y279.0218
X317.4927Y279.0004
X317.6247Y278.9145
X317.6908Y278.8716
X317.8228Y278.7858
X317.8558Y278.7644
X317.9878Y278.6785
X318.0209Y278.6571
X318.1102Y278.599
Y267.6549
G0Z19.685
X319.685Y277.1818
G1Z-9.8425F196.85
Y229.1144F393.7
X321.2598
Y274.8198
G0Z19.685
X322.8346Y270.3319
G1Z-9.8425F196.85
Y229.1144F393.7
G0Z19.685
X343.307
G1Z-9.8425F196.85
Y302.3375F393.7
X344.8818
Y229.1144
X346.4567
Y302.3375
G0Z19.685
X348.0315Y275.489
G1Z-9.8425F196.85
Y265.2535F393.7
X348.0602Y265.3268
Z0.3937
X348.1033Y265.4368
X348.1608Y265.5834
X348.1752Y265.6201
X348.2615Y265.84
X348.2758Y265.8766
X348.3477Y266.0599
X348.362Y266.0965
X348.4483Y266.3165
X348.4627Y266.3531
X348.5346Y266.5364
X348.5489Y266.573
X348.6352Y266.7929
X348.6495Y266.8296
X348.7214Y267.0128
X348.7358Y267.0495
X348.8221Y267.2694
X348.8364Y267.3061
X348.9083Y267.4893
X348.9226Y267.526
X349.0089Y267.7459
X349.0233Y267.7825
X349.0952Y267.9658
X349.1095Y268.0024
X349.1958Y268.2224
X349.2101Y268.259
X349.282Y268.4423
X349.2964Y268.4789
X349.3827Y268.6988
X349.397Y268.7355
X349.4689Y268.9187
X349.4833Y268.9554
X349.5264Y269.0654
Z-9.8425F196.85
X349.5552Y269.1387F393.7
X349.5695Y269.1753
X349.6063Y269.269
Y274.5048
X349.645Y274.5116
Z0.3937
X349.8389Y274.5456
X349.8777Y274.5523
X349.9165Y274.5591
X349.9553Y274.5659
X349.9941Y274.5727
X350.0329Y274.5795
X350.1492Y274.5998
X350.188Y274.6066
X350.2267Y274.6134
X350.2655Y274.6202
X350.3043Y274.627
X350.3431Y274.6338
X350.3819Y274.6406
X350.4207Y274.6473
X350.4594Y274.6541
X350.4982Y274.6609
X350.537Y274.6677
X350.5758Y274.6745
X350.6146Y274.6813
X350.6533Y274.6881
X350.6921Y274.6949
X350.7697Y274.7084
X350.8084Y274.7152
X350.8472Y274.722
X350.886Y274.7288
X350.9248Y274.7356
X350.9636Y274.7424
X351.0024Y274.7491
X351.1187Y274.7695
Z-9.8425F196.85
X351.1811Y274.7804F393.7
Y271.8279
X351.2062Y271.8581
X351.2315Y271.8883
X351.2819Y271.9488
X351.3071Y271.9791
X351.3827Y272.0698
X351.4079Y272.1001
X351.4583Y272.1605
X351.4835Y272.1908
X351.5339Y272.2513
X351.5591Y272.2815
X351.6095Y272.342
Z0.3937
X351.66Y272.4025
X351.6852Y272.4328
X351.7104Y272.463
X351.786Y272.5537
X351.8112Y272.584
X351.8616Y272.6445
X351.8868Y272.6747
X351.9372Y272.7352
X351.9624Y272.7654
X352.0128Y272.8259
X352.038Y272.8562
X352.1136Y272.9469
X352.1389Y272.9771
X352.1892Y273.0376
X352.2145Y273.0679
X352.2901Y273.1586
Z-9.8425F196.85
X352.3405Y273.2191F393.7
X352.3657Y273.2493
X352.4161Y273.3098
X352.4413Y273.3401
X352.5169Y273.4308
X352.5421Y273.461
X352.5925Y273.5215
X352.6178Y273.5518
X352.6681Y273.6123
X352.6934Y273.6425
X352.7438Y273.703
X352.7559Y273.7175
Y276.3945
X352.8189Y276.3472
X352.8819Y276.3
X352.9133Y276.2764
X353.0708Y276.1583
X353.1338Y276.111
X353.1653Y276.0874
X353.3543Y275.9457
X353.4173Y275.8984
X353.4488Y275.8748
X353.6063Y275.7567
X353.6693Y275.7094
X353.7007Y275.6858
X353.7637Y275.6386
X353.8898Y275.5441
X353.9528Y275.4969
X353.9842Y275.4732
X354.1417Y275.3551
X354.2047Y275.3079
X354.2362Y275.2843
X354.3307Y275.2134
Y277.9691
X354.3922Y278.0183
X354.4229Y278.0429
X354.5766Y278.1659
X354.6073Y278.1905
X354.7611Y278.3134
X354.7918Y278.338
X354.9148Y278.4364
X354.9455Y278.461
X355.0993Y278.584
X355.13Y278.6086
X355.2837Y278.7315
X355.3144Y278.7561
X355.4374Y278.8545
X355.4682Y278.8791
X355.6219Y279.0021
X355.6526Y279.0267
X355.8064Y279.1496
X355.8371Y279.1742
X355.9055Y279.2289
Y276.3945
X356.0067Y276.4552
X356.0405Y276.4755
X356.0743Y276.4957
Z0.3937
X356.2093Y276.5767
X356.2431Y276.597
X356.4118Y276.6983
X356.4456Y276.7185
X356.5131Y276.7591
X356.5469Y276.7793
X356.6144Y276.8198
X356.6482Y276.8401
X356.817Y276.9413
X356.8508Y276.9616
X356.9183Y277.0021
X356.952Y277.0223
X357.0195Y277.0629
X357.0533Y277.0831
X357.2221Y277.1844
X357.2896Y277.2249
Z-9.8425F196.85
X357.3571Y277.2654F393.7
X357.3909Y277.2857
X357.4247Y277.3059
X357.4584Y277.3262
X357.4803Y277.3393
Y280.1737
X357.5158Y280.1906
X357.587Y280.2244
X357.6581Y280.2582
X357.6936Y280.2751
X357.7648Y280.3088
X357.8359Y280.3426
X357.9426Y280.3933
X358.0137Y280.4271
X358.0848Y280.4609
X358.1204Y280.4777
X358.1915Y280.5115
X358.2627Y280.5453
X358.3693Y280.596
X358.4405Y280.6298
X358.5116Y280.6636
X358.5471Y280.6804
X358.6183Y280.7142
X358.6894Y280.748
X358.7961Y280.7987
X358.8672Y280.8325
X358.9383Y280.8663
X358.9739Y280.8831
X359.045Y280.9169
X359.0551Y280.9217
Y278.0479
X359.1674Y278.0844
Z0.3937
X359.2797Y278.1209
X359.392Y278.1574
X359.4295Y278.1696
X359.6167Y278.2304
X359.6542Y278.2426
X359.8788Y278.3156
X359.9162Y278.3278
X360.1035Y278.3886
X360.1409Y278.4008
X360.3281Y278.4616
X360.3655Y278.4738
X360.4779Y278.5103
Z-9.8425F196.85
X360.5528Y278.5346F393.7
X360.5902Y278.5468
X360.6299Y278.5597
Y281.4335
X360.6683Y281.4421
X360.7067Y281.4508
X360.7835Y281.468
X360.8219Y281.4767
X360.8987Y281.494
X360.9371Y281.5026
X361.014Y281.5199
X361.0524Y281.5285
X361.1676Y281.5544
X361.206Y281.5631
X361.2828Y281.5804
X361.3212Y281.589
X361.3981Y281.6063
X361.4365Y281.6149
X361.5133Y281.6322
X361.5517Y281.6409
X361.6285Y281.6581
X361.6669Y281.6668
X361.7437Y281.6841
X361.7822Y281.6927
X361.859Y281.71
X361.8974Y281.7186
X362.0126Y281.7446
X362.051Y281.7532
X362.1278Y281.7705
X362.1663Y281.7791
X362.2047Y281.7878
Y278.914
X362.2438Y278.9179
X362.283Y278.9218
X362.3613Y278.9296
X362.4005Y278.9335
X362.4789Y278.9414
X362.5181Y278.9453
X362.5964Y278.9531
X362.6356Y278.957
X362.7139Y278.9649
X362.8315Y278.9766
X362.949Y278.9884
X363.0665Y279.0002
X363.1057Y279.0041
X363.1449Y279.008
X363.2624Y279.0197
X363.3799Y279.0315
X363.4191Y279.0354
X363.4974Y279.0432
X363.5366Y279.0471
X363.6149Y279.055
X363.6541Y279.0589
X363.7325Y279.0667
X363.7717Y279.0706
X363.7795Y279.0714
Y282.024
X363.8188Y282.0259
X363.8581Y282.0279
X363.9761Y282.0338
X364.0154Y282.0358
X364.094Y282.0397
X364.1333Y282.0417
X364.2513Y282.0476
X364.2906Y282.0495
X364.4086Y282.0554
X364.4479Y282.0574
X364.5266Y282.0613
X364.5659Y282.0633
X364.6838Y282.0692
X364.7232Y282.0712
X364.8018Y282.0751
X364.8411Y282.077
X364.9591Y282.083
X364.9984Y282.0849
X365.0771Y282.0889
X365.1164Y282.0908
X365.2343Y282.0967
X365.2737Y282.0987
X365.3543Y282.1027
Y279.0714
X365.3934Y279.0675
X365.4326Y279.0636
X365.511Y279.0558
X365.5501Y279.0519
X365.6285Y279.044
X365.6677Y279.0401
Z0.3937
X365.746Y279.0323
X365.7852Y279.0283
X365.8635Y279.0205
X365.9811Y279.0087
X366.0986Y278.997
X366.2161Y278.9852
X366.2553Y278.9813
X366.2945Y278.9774
X366.412Y278.9657
X366.5295Y278.9539
X366.5687Y278.95
X366.647Y278.9422
X366.6862Y278.9383
X366.7645Y278.9304
X366.8037Y278.9265
X366.9213Y278.9148
Z-9.8425F196.85
X366.9291Y278.914F393.7
Y282.0633
X366.9682Y282.0594
X367.0074Y282.0555
X367.0858Y282.0477
X367.125Y282.0438
X367.2033Y282.0359
X367.2425Y282.032
X367.3208Y282.0242
X367.36Y282.0203
X367.4383Y282.0124
X367.5559Y282.0007
X367.6734Y281.9889
X367.7909Y281.9772
X367.8301Y281.9732
X367.8693Y281.9693
X367.9868Y281.9576
X368.1043Y281.9458
X368.1435Y281.9419
X368.2218Y281.9341
X368.261Y281.9302
X368.3393Y281.9223
X368.3785Y281.9184
X368.4569Y281.9106
X368.4961Y281.9067
X368.5039Y281.9059
Y278.6384
X368.6162Y278.6019
X368.6536Y278.5897
X368.8409Y278.5289
X368.8783Y278.5167
X369.0655Y278.4559
X369.103Y278.4437
X369.1778Y278.4194
Z0.3937
X369.3276Y278.3707
X369.365Y278.3585
X369.5897Y278.2855
Z-9.8425F196.85
X369.7769Y278.2247F393.7
X369.8144Y278.2125
X370.0016Y278.1517
X370.039Y278.1395
X370.0787Y278.1266
Y281.6303
X370.1169Y281.6207
X370.1551Y281.6112
X370.1933Y281.6017
X370.2315Y281.5921
X370.3079Y281.573
X370.346Y281.5635
X370.3842Y281.5539
X370.4606Y281.5348
X370.4988Y281.5253
X370.6134Y281.4966
X370.6898Y281.4775
X370.728Y281.468
X370.7662Y281.4584
X370.8044Y281.4489
X370.8808Y281.4298
X370.919Y281.4202
X370.9571Y281.4107
X370.9954Y281.4012
X371.0717Y281.382
X371.1863Y281.3534
X371.2627Y281.3343
X371.3009Y281.3248
X371.3391Y281.3152
X371.4155Y281.2961
X371.4537Y281.2866
X371.4919Y281.277
X371.5301Y281.2675
X371.5683Y281.2579
X371.6447Y281.2388
X371.6535Y281.2366
Y277.4574
X371.7547Y277.3966
X371.7885Y277.3764
X371.856Y277.3358
X371.8898Y277.3156
X371.9573Y277.2751
X371.9911Y277.2548
X372.1599Y277.1536
X372.1937Y277.1333
X372.2612Y277.0928
X372.2949Y277.0725
Z0.3937
X372.3624Y277.032
X372.3962Y277.0118
X372.565Y276.9105
X372.5988Y276.8902
X372.6663Y276.8497
X372.7Y276.8295
X372.7675Y276.789
X372.8351Y276.7485
Z-9.8425F196.85
X372.9701Y276.6674F393.7
X373.0039Y276.6472
X373.1052Y276.5864
X373.1389Y276.5662
X373.1727Y276.5459
X373.2065Y276.5257
X373.2283Y276.5126
Y280.6855
X373.3007Y280.6547
X373.337Y280.6393
X373.4457Y280.5931
X373.4819Y280.5777
X373.5544Y280.5469
X373.6269Y280.5161
X373.6631Y280.5007
X373.808Y280.4391
X373.8443Y280.4237
X373.953Y280.3775
X373.9892Y280.3621
X374.1341Y280.3005
X374.1704Y280.2851
X374.279Y280.239
X374.3153Y280.2236
X374.3515Y280.2081
X374.4602Y280.162
X374.4965Y280.1465
X374.6414Y280.085
X374.6776Y280.0696
X374.8031Y280.0162
Y275.3315
X374.8595Y275.2766
X374.8877Y275.2491
X375.0005Y275.1392
X375.0286Y275.1117
X375.1132Y275.0292
Z0.3937
X375.1696Y274.9743
X375.2824Y274.8643
X375.3105Y274.8368
X375.4233Y274.7269
X375.4515Y274.6994
X375.5643Y274.5895
X375.5924Y274.562
X375.7052Y274.4521
X375.7334Y274.4246
X375.8462Y274.3146
X375.9871Y274.1772
X376.0153Y274.1498
X376.128Y274.0398
X376.1562Y274.0123
X376.2408Y273.9299
X376.269Y273.9024
X376.3254Y273.8474
X376.3779Y273.7962Z0.3936
Z-9.8425F196.85
Y279.1895F393.7
X376.4431Y279.1455
X376.4758Y279.1235
X376.5084Y279.1014
X376.5737Y279.0574
X376.7042Y278.9693
X376.7369Y278.9473
X376.8674Y278.8592
X376.9653Y278.7931
X376.9979Y278.7711
X377.1611Y278.6609
X377.1937Y278.6389
X377.2264Y278.6169
X377.3242Y278.5508
X377.4221Y278.4847
X377.4548Y278.4627
X377.6179Y278.3526
X377.6832Y278.3085
X377.7158Y278.2865
X377.9527Y278.1266
Y271.9066
X377.9722Y271.8724
X377.9918Y271.8382
X378.0504Y271.7357
X378.0699Y271.7015
X378.109Y271.6331
Z0.3937
X378.1481Y271.5648
X378.2066Y271.4622
X378.2262Y271.4281
X378.2848Y271.3255
X378.3043Y271.2913
X378.3629Y271.1888
X378.3825Y271.1546
X378.441Y271.052
X378.4606Y271.0179
X378.5192Y270.9153
X378.5387Y270.8811
X378.5778Y270.8128
X378.5974Y270.7786
X378.6559Y270.676
X378.6755Y270.6419
X378.7341Y270.5393
X378.7536Y270.5051
X378.8122Y270.4026
X378.8318Y270.3684
X378.8903Y270.2658
X378.9099Y270.2317
X378.9685Y270.1291
X378.988Y270.0949
X379.0466Y269.9924
X379.0662Y269.9582
X379.1247Y269.8557
X379.1443Y269.8215
X379.1833Y269.7531
X379.2029Y269.7189
X379.2615Y269.6164
X379.281Y269.5822
X379.3396Y269.4796
X379.3592Y269.4455
X379.4177Y269.3429
X379.4568Y269.2745
Z-9.8425F196.85
X379.4959Y269.2062F393.7
X379.5154Y269.172
X379.5275Y269.1509
Y276.7881
X379.554Y276.759
X379.5805Y276.7299
X379.6069Y276.7007
X379.6599Y276.6425
X379.6864Y276.6134
X379.7129Y276.5842
X379.7658Y276.526
X379.7923Y276.4968
X379.8188Y276.4677
X379.8453Y276.4386
X379.8983Y276.3803
X379.9248Y276.3512
X379.9512Y276.3221
X379.9777Y276.2929
X380.0307Y276.2347
X380.0572Y276.2055
X380.1101Y276.1473
X380.1366Y276.1181
X380.1631Y276.089
X380.1896Y276.0599
X380.2426Y276.0016
X380.322Y275.9142
X380.375Y275.856
X380.4015Y275.8268
X380.4544Y275.7686
X380.4809Y275.7394
X380.5074Y275.7103
X380.5604Y275.6521
X380.5869Y275.6229
X380.6663Y275.5355
X380.7193Y275.4773
X380.7458Y275.4481
X380.7987Y275.3899
X380.8252Y275.3608
X380.8517Y275.3316
X380.9047Y275.2734
X380.9312Y275.2442
X381.0106Y275.1568
X381.0636Y275.0986
X381.0901Y275.0695
X381.1023Y275.056
Y264.5449
G0Z19.685
X348.0315Y243.9165
G1Z-9.8425F196.85
Y235.8462F393.7
X348.0701Y235.8539
X348.1086Y235.8617
Z0.3937
X348.2245Y235.8848
X348.2631Y235.8926
X348.3789Y235.9157
X348.4175Y235.9234
X348.5333Y235.9466
X348.5719Y235.9543
X348.6878Y235.9775
X348.7264Y235.9852
X348.8422Y236.0083
X348.8808Y236.0161
X348.9966Y236.0392
X349.151Y236.0701
X349.1896Y236.0778
X349.3054Y236.101
X349.344Y236.1087
X349.4213Y236.1242
X349.4599Y236.1319
X349.6063Y236.1612
Z-9.8425F196.85
Y239.9404F393.7
Z0.3937
X350.0596Y239.249
X350.0813Y239.2161
X351.0312Y237.7675
X351.0528Y237.7346
X351.1176Y237.6358
Z-9.8425F196.85
X351.1607Y237.57F393.7
X351.1811Y237.539
Y235.2951
X351.2192Y235.3046
X351.2575Y235.3142
X351.2956Y235.3237
X351.3338Y235.3333
X351.4102Y235.3524
X351.4484Y235.3619
X351.4866Y235.3715
X351.563Y235.3906
X351.6012Y235.4001
X351.7158Y235.4287
X351.7922Y235.4479
X351.8304Y235.4574
X351.8686Y235.4669
X351.9067Y235.4765
X351.9832Y235.4956
X352.0213Y235.5051
X352.0595Y235.5147
X352.0977Y235.5242
X352.1741Y235.5433
X352.2887Y235.572
X352.3651Y235.5911
X352.4033Y235.6006
X352.4415Y235.6102
X352.5179Y235.6293
X352.5561Y235.6388
X352.5943Y235.6483
X352.6324Y235.6579
X352.6707Y235.6674
X352.747Y235.6866
X352.7559Y235.6887
Y233.2873
X352.8571Y233.3481
X352.8909Y233.3684
X352.9584Y233.4089
X352.9922Y233.4291
X353.0597Y233.4696
X353.0935Y233.4899
X353.2622Y233.5912
X353.296Y233.6114
X353.3635Y233.6519
X353.3973Y233.6722
X353.4648Y233.7127
X353.4986Y233.7329
X353.6674Y233.8342
X353.7012Y233.8545
X353.7687Y233.895
X353.8024Y233.9152
X353.8699Y233.9557
X353.9037Y233.976
X354.0725Y234.0773
X354.1063Y234.0975
X354.2075Y234.1583
X354.2413Y234.1785
X354.2751Y234.1988
X354.3088Y234.2191
X354.3307Y234.2322
Y231.6733
X354.3929Y231.6251
X354.424Y231.6009
X354.5796Y231.4804
X354.673Y231.408
X354.7663Y231.3357
X354.7974Y231.3116
X354.9531Y231.191
X354.9842Y231.1669
X355.1398Y231.0463
X355.202Y230.998
X355.3265Y230.9016
X355.3576Y230.8775
X355.5132Y230.7569
X355.6066Y230.6845
X355.6999Y230.6122
X355.731Y230.5881
X355.8867Y230.4675
X355.9055Y230.4529
Y233.1299
X355.94Y233.1109
X355.9745Y233.0919
X356.0089Y233.073
Z0.3937
X356.1125Y233.016
X356.147Y232.9971
X356.1814Y232.9781
X356.2159Y232.9591
X356.2849Y232.9212
X356.3194Y232.9022
X356.3539Y232.8832
X356.3884Y232.8643
X356.4919Y232.8074Z0.3936
Z-9.8425F196.85
X356.5264Y232.7884F393.7
X356.5609Y232.7694
X356.6989Y232.6935
X356.7334Y232.6746
X356.8714Y232.5987
X356.9059Y232.5797
X357.0439Y232.5038
X357.0784Y232.4848
X357.2163Y232.4089
X357.2509Y232.39
X357.3888Y232.3141
X357.4233Y232.2951
X357.4803Y232.2638
Y229.5081
X357.5527Y229.4773
X357.589Y229.4619
X357.6977Y229.4157
X357.7339Y229.4003
X358.0238Y229.2771
X358.06Y229.2617
X358.1687Y229.2155
X358.2049Y229.2001
X358.3136Y229.1539
X358.3499Y229.1385
X358.4948Y229.077
X358.531Y229.0615
X358.6035Y229.0308
X358.6398Y229.0154
X358.676Y228.9999
X358.7847Y228.9538
X358.8209Y228.9383
X358.9296Y228.8922
X358.9659Y228.8768
X359.0551Y228.8389
Y231.6733
Z0.3937
X359.4347Y231.5689
X359.5486Y231.5376
X359.5865Y231.5271
X360.2318Y231.3497
X360.6115Y231.2453
Z-9.8425F196.85
X360.6299Y231.2403F393.7
Y228.3271
X360.6685Y228.3194
X360.7071Y228.3116
X360.8229Y228.2885
X360.8615Y228.2807
X360.9773Y228.2576
X361.0159Y228.2499
X361.1317Y228.2267
X361.1703Y228.219
X361.2862Y228.1958
X361.3248Y228.1881
X361.4406Y228.165
X361.4792Y228.1572
X361.595Y228.1341
X361.7494Y228.1032
X361.788Y228.0955
X361.9038Y228.0723
X361.9424Y228.0646
X362.0197Y228.0491
X362.0583Y228.0414
X362.1741Y228.0183
X362.2047Y228.0121
Y230.9647
X362.3224Y230.9558
X362.3617Y230.9529
X362.4795Y230.9441
Z0.3937
X362.558Y230.9382
X362.5973Y230.9352
X362.7936Y230.9205
X362.8328Y230.9176
X363.0291Y230.9028
X363.0684Y230.8999
X363.1862Y230.8911
Z-9.8425F196.85
X363.2647Y230.8852F393.7
X363.3039Y230.8822
X363.5002Y230.8675
X363.5395Y230.8646
X363.7358Y230.8498
X363.7751Y230.8469
X363.7795Y230.8466
Y227.8547
X365.3543
Y230.8859
X365.4324Y230.8957
Z0.3937
X365.5105Y230.9055
X365.5496Y230.9104
X365.9012Y230.9543
X365.9403Y230.9592
X366.2919Y231.0031
X366.3309Y231.008
X366.6825Y231.052
X366.9169Y231.0813
Z-9.8425F196.85
X366.9291Y231.0828F393.7
Y227.9334
X367.0853Y227.9529
X367.1244Y227.9578
X367.476Y228.0018
X367.5151Y228.0067
X367.8667Y228.0506
X367.9057Y228.0555
X368.2573Y228.0994
X368.5039Y228.1302
Y231.4371
X368.6162Y231.4736
X368.6536Y231.4858
Z0.3937
X368.8409Y231.5466
X368.8783Y231.5588
X369.0655Y231.6196
X369.103Y231.6318
X369.365Y231.717
Z-9.8425F196.85
X369.5523Y231.7778F393.7
X369.5897Y231.79
X369.7769Y231.8508
X369.8144Y231.863
X370.0016Y231.9238
X370.039Y231.936
X370.0787Y231.9489
Y228.4452
X370.1164Y228.4565
X370.1541Y228.4678
X370.1918Y228.4791
X370.3427Y228.5244
X370.3804Y228.5357
X370.4935Y228.5696
X370.5312Y228.5809
X370.5689Y228.5922
X370.6443Y228.6149
X370.682Y228.6262
X370.7197Y228.6375
X370.8706Y228.6827
X370.9083Y228.6941
X371.0214Y228.728
X371.0591Y228.7393
X371.0969Y228.7506
X371.1722Y228.7732
X371.21Y228.7845
X371.2477Y228.7959
X371.2854Y228.8072
X371.3231Y228.8185
X371.3985Y228.8411
X371.4362Y228.8524
X371.5494Y228.8863
X371.5871Y228.8977
X371.6248Y228.909
X371.6535Y228.9176
Y232.7362
Z0.3936
X371.7547Y232.797Z0.3937
X371.7885Y232.8172
X371.856Y232.8577
X371.8898Y232.878
X371.9573Y232.9185
X371.9911Y232.9388
X372.1599Y233.04
X372.1937Y233.0603
X372.2612Y233.1008
X372.2949Y233.121
X372.3624Y233.1616
X372.3962Y233.1818
X372.565Y233.2831
X372.5988Y233.3033
X372.6663Y233.3439
X372.7338Y233.3843
Z-9.8425F196.85
X372.7675Y233.4046F393.7
X372.8013Y233.4249
X372.9701Y233.5261
X373.0039Y233.5464
X373.1052Y233.6072
X373.1389Y233.6274
X373.1727Y233.6477
X373.2065Y233.6679
X373.2283Y233.681
Y229.5475
X373.2987Y229.5827
X373.3339Y229.6003
X373.3692Y229.6179
X373.4043Y229.6355
X373.4748Y229.6707
X373.51Y229.6883
X373.6509Y229.7587
X373.6861Y229.7763
X373.7213Y229.7939
X373.8269Y229.8468
X373.8621Y229.8644
X374.003Y229.9348
X374.0382Y229.9524
X374.0734Y229.97
X374.1791Y230.0228
X374.2143Y230.0404
X374.3552Y230.1108
X374.3903Y230.1285
X374.4256Y230.146
X374.5664Y230.2165
X374.6016Y230.2341
X374.7073Y230.2869
X374.7425Y230.3045
X374.8031Y230.3348
Y234.9408
X374.8309Y234.9686
X374.8588Y234.9965
X374.8866Y235.0243
X374.9702Y235.1078
X374.998Y235.1356
X375.0258Y235.1635
Z0.3937
X375.0815Y235.2192
X375.1093Y235.247
X375.1929Y235.3305
X375.2207Y235.3583
X375.2486Y235.3862
X375.2764Y235.414
X375.3042Y235.4419
X375.3599Y235.4975
X375.3878Y235.5254
X375.4156Y235.5532
X375.4434Y235.581
X375.4713Y235.6089
X375.4991Y235.6367
X375.5269Y235.6646
X375.5548Y235.6924
X375.5826Y235.7203
X375.6105Y235.7481
X375.6383Y235.7759
X375.6662Y235.8038
X375.694Y235.8316
X375.7218Y235.8594
X375.7497Y235.8873
X375.7775Y235.9151
X375.8332Y235.9708
X375.861Y235.9986
X375.8888Y236.0265
X375.9167Y236.0543
X375.9445Y236.0821
X375.9724Y236.11
X376.0002Y236.1378
X376.0837Y236.2213
X376.1116Y236.2492
X376.1394Y236.277
X376.1672Y236.3048
X376.1951Y236.3327
X376.2508Y236.3884
Z-9.8425F196.85
X376.3065Y236.444F393.7
X376.3621Y236.4997
X376.3779Y236.5155
Y231.319
X376.4713Y231.3913
X376.5335Y231.4396
X376.658Y231.536
X376.6891Y231.5601
X376.8447Y231.6807
X376.9069Y231.729
X377.0314Y231.8254
X377.0625Y231.8495
X377.2493Y231.9942
X377.2803Y232.0183
X377.436Y232.1389
X377.4982Y232.1872
X377.6227Y232.2836
X377.6538Y232.3077
X377.8094Y232.4283
X377.8716Y232.4765
X377.9527Y232.5394
Y238.4838
X377.9721Y238.5181
X377.9914Y238.5524
X378.0494Y238.6553
Z0.3937
X378.088Y238.7239
X378.1073Y238.7582
X378.1266Y238.7925
X378.1653Y238.8611
X378.1846Y238.8954
X378.2426Y238.9983
X378.2619Y239.0326
X378.3006Y239.1012
X378.3199Y239.1355
X378.3779Y239.2384
X378.3972Y239.2727
X378.4359Y239.3413
X378.4552Y239.3756
X378.4938Y239.4442
X378.5131Y239.4785
X378.5711Y239.5814
X378.5904Y239.6157
X378.6291Y239.6843
X378.6484Y239.7186
X378.7064Y239.8216
X378.7257Y239.8559
X378.7644Y239.9245
X378.7837Y239.9588
X378.8224Y240.0273
X378.8417Y240.0616
X378.8997Y240.1646
X378.919Y240.1989
X378.9576Y240.2675
X378.9769Y240.3018
X379.035Y240.4047
X379.0543Y240.439
X379.0929Y240.5076
X379.1122Y240.5419
X379.1509Y240.6105
X379.1702Y240.6448
X379.2282Y240.7477
X379.2475Y240.782
X379.2862Y240.8506
X379.3055Y240.8849
X379.3635Y240.9878
X379.3828Y241.0221
X379.4215Y241.0907
X379.4408Y241.125
X379.4794Y241.1936
X379.4987Y241.2279
X379.5275Y241.2789
Z-9.8425F196.85
Y233.9566F393.7
X379.554Y233.9857
X379.5805Y234.0148
X379.6069Y234.044
X379.6599Y234.1022
X379.6864Y234.1314
X379.7129Y234.1605
X379.7658Y234.2188
X379.7923Y234.2479
X379.8188Y234.277
X379.8453Y234.3061
X379.8983Y234.3644
X379.9248Y234.3935
X379.9512Y234.4227
X379.9777Y234.4518
X380.0307Y234.5101
X380.0572Y234.5392
X380.1101Y234.5974
X380.1366Y234.6266
X380.1631Y234.6557
X380.1896Y234.6848
X380.2426Y234.7431
X380.322Y234.8305
X380.375Y234.8888
X380.4015Y234.9179
X380.4544Y234.9761
X380.4809Y235.0053
X380.5074Y235.0344
X380.5604Y235.0927
X380.5869Y235.1218
X380.6663Y235.2092
X380.7193Y235.2674
X380.7458Y235.2966
X380.7987Y235.3549
X380.8252Y235.384
X380.8517Y235.4131
X380.9047Y235.4714
X380.9312Y235.5005
X381.0106Y235.5879
X381.0636Y235.6462
X381.0901Y235.6753
X381.1023Y235.6887
Y245.8061
G0Z19.685
X382.6771Y237.8539
G1Z-9.8425F196.85
Y272.812F393.7
X382.6954Y272.7772
X382.7138Y272.7424
X382.7321Y272.7075
X382.7505Y272.6727
X382.7871Y272.603
X382.8055Y272.5682
X382.8238Y272.5333
X382.8422Y272.4985
X382.8788Y272.4288
X382.8972Y272.394
X382.9155Y272.3591
X382.9339Y272.3243
X382.9705Y272.2546
X382.9889Y272.2198
X383.0072Y272.1849
X383.0256Y272.1501
X383.0622Y272.0804
X383.0806Y272.0456
X383.0989Y272.0107
X383.1172Y271.9759
X383.1539Y271.9062
X383.1722Y271.8714
X383.1906Y271.8366
X383.2089Y271.8017
X383.2456Y271.732
X383.2639Y271.6972
X383.2823Y271.6624
X383.3006Y271.6275
X383.3373Y271.5578
X383.3556Y271.523
X383.3739Y271.4882
X383.3923Y271.4533
X383.429Y271.3837
X383.4473Y271.3488
X383.4656Y271.314
X383.484Y271.2791
X383.5206Y271.2095
X383.539Y271.1746
X383.5756Y271.1049
X383.594Y271.0701
X383.6123Y271.0353
X383.6307Y271.0004
X383.6673Y270.9308
X383.6857Y270.8959
X383.704Y270.8611
X383.7224Y270.8262
X383.759Y270.7566
X383.7774Y270.7217
X383.7957Y270.6869
X383.8141Y270.652
X383.8507Y270.5824
X383.8691Y270.5475
X383.8874Y270.5127
X383.9058Y270.4778
X383.9424Y270.4082
X383.9608Y270.3733
X383.9791Y270.3385
X383.9974Y270.3037
X384.0341Y270.234
X384.0524Y270.1991
X384.0708Y270.1643
X384.0891Y270.1295
X384.1258Y270.0598
X384.1441Y270.0249
X384.1625Y269.9901
X384.1808Y269.9553
X384.2175Y269.8856
X384.2358Y269.8508
X384.2519Y269.8201
Y240.7671
G0Z19.685
X385.8267Y245.255
G1Z-9.8425F196.85
Y265.3716F393.7
G0Z19.685
X222.0472Y229.1144
G1Z-9.8425F196.85
Y302.3375F393.7
X223.622
Y229.1144
X225.1968
Y302.3375
G0Z19.685
X226.7716Y275.2922
G1Z-9.8425F196.85
Y265.6866F393.7
X226.7866Y265.723
X226.8016Y265.7594
X226.8166Y265.7958
Z0.3937
X226.8617Y265.905
X226.8767Y265.9413
X226.8917Y265.9777
X226.9067Y266.0141
X226.9217Y266.0505
X226.9517Y266.1233
X226.9667Y266.1597
X227.0118Y266.2689
X227.0268Y266.3053
X227.0718Y266.4145
X227.0868Y266.4509
X227.1169Y266.5237
X227.1319Y266.5601
X227.1469Y266.5965
X227.1619Y266.6329
X227.1769Y266.6693
X227.1919Y266.7057
X227.2069Y266.7421
X227.2219Y266.7785
X227.2369Y266.8149
X227.2519Y266.8513
X227.312Y266.9968
X227.327Y267.0332
X227.372Y267.1424
X227.387Y267.1788
X227.402Y267.2152
X227.417Y267.2516
X227.4321Y267.288
X227.4471Y267.3244
X227.5071Y267.47
X227.5221Y267.5064
X227.5671Y267.6156
X227.5821Y267.652
X227.6422Y267.7976
X227.6572Y267.834
X227.6722Y267.8704
X227.6872Y267.9068
X227.7022Y267.9432
X227.7172Y267.9796
X227.7323Y268.0159
X227.7473Y268.0523
X227.7623Y268.0887
X227.7773Y268.1251
X227.8073Y268.1979
X227.8223Y268.2343
X227.8673Y268.3435
X227.8823Y268.3799
X227.9274Y268.4891
X227.9424Y268.5255
X228.0024Y268.6711
X228.0174Y268.7075
X228.0625Y268.8167
X228.0775Y268.8531
X228.1375Y268.9987
X228.1525Y269.0351
X228.1675Y269.0714
X228.1825Y269.1078
X228.1976Y269.1442
X228.2126Y269.1806
X228.2276Y269.217
X228.2426Y269.2534
X228.2576Y269.2898
X228.2726Y269.3262
X228.3176Y269.4354
Z-9.8425F196.85
X228.3464Y269.5052F393.7
Y274.5048
Z0.3937
X228.5001Y274.5394
X228.5385Y274.548
X228.6153Y274.5653
X228.6537Y274.574
X228.7305Y274.5912
X228.7689Y274.5999
X228.8842Y274.6258
X228.9226Y274.6345
X228.9994Y274.6517
X229.0378Y274.6604
X229.1146Y274.6777
X229.153Y274.6863
X229.2298Y274.7036
X229.2682Y274.7122
X229.3451Y274.7295
X229.3835Y274.7382
X229.4603Y274.7554
X229.4987Y274.7641
X229.5755Y274.7814
X229.6139Y274.79
X229.7292Y274.8159
X229.7676Y274.8246
X229.8828Y274.8505
Z-9.8425F196.85
X229.9212Y274.8591F393.7
Y271.9853
X230.0488Y272.1352
X230.0743Y272.1652
Z0.3937
X230.1509Y272.2552
X230.2529Y272.3751
X230.355Y272.495
X230.4571Y272.6149
X230.5591Y272.7348
X230.7123Y272.9147
X230.7378Y272.9447
X230.8398Y273.0647
X230.9419Y273.1846
X231.044Y273.3045
X231.146Y273.4244
X231.3247Y273.6343
X231.4267Y273.7542
Z-9.8425F196.85
X231.496Y273.8356F393.7
Y276.5519
X231.5894Y276.4796
X231.6205Y276.4555
X231.6827Y276.4072
X231.7139Y276.3831
X231.745Y276.359
X231.8072Y276.3108
X231.8383Y276.2866
X232.0562Y276.1178
X232.0873Y276.0937
X232.1495Y276.0455
X232.1807Y276.0214
X232.2118Y275.9973
X232.274Y275.949
X232.3051Y275.9249
X232.523Y275.7561
X232.5541Y275.732
X232.6163Y275.6837
X232.6474Y275.6596
X232.6786Y275.6355
X232.7408Y275.5873
X232.7719Y275.5632
X232.9898Y275.3944
X233.0209Y275.3703
X233.0708Y275.3315
Y278.0873
X233.1642Y278.1596
X233.1953Y278.1837
X233.2575Y278.232
X233.2887Y278.2561
X233.3198Y278.2802
X233.382Y278.3284
X233.4131Y278.3525
X233.631Y278.5213
X233.6621Y278.5454
X233.7243Y278.5937
X233.7555Y278.6178
X233.7866Y278.6419
X233.8488Y278.6901
X233.8799Y278.7143
X234.0978Y278.8831
X234.1289Y278.9072
X234.1911Y278.9554
X234.2222Y278.9795
X234.2534Y279.0037
X234.3156Y279.0519
X234.3467Y279.076
X234.5646Y279.2448
X234.5957Y279.2689
X234.6456Y279.3076
Y276.5126
X234.6798Y276.5322
X234.7139Y276.5518
X234.7821Y276.5911
X234.8163Y276.6107
X235.0211Y276.7284
X235.0552Y276.7481
X235.1235Y276.7873
Z0.3937
X235.2258Y276.8462
X235.26Y276.8658
X235.3282Y276.905
X235.3624Y276.9247
X235.4306Y276.9639
X235.4648Y276.9835
X235.5672Y277.0424
X235.6013Y277.062
X235.6695Y277.1013
Z-9.8425F196.85
X235.7037Y277.1209F393.7
X235.7719Y277.1601
X235.8061Y277.1798
X235.8743Y277.219
X235.9085Y277.2386
X235.9767Y277.2779
X236.0109Y277.2975
X236.1132Y277.3564
X236.1474Y277.376
X236.2204Y277.418
Y280.2524
X236.2563Y280.2686
X236.2922Y280.2848
X236.3281Y280.3009
X236.364Y280.3171
X236.3999Y280.3332
X236.4358Y280.3494
X236.4717Y280.3655
X236.5077Y280.3817
X236.5435Y280.3978
X236.5795Y280.414
X236.6513Y280.4463
X236.6872Y280.4625
X236.7231Y280.4786
X236.759Y280.4948
X236.7949Y280.5109
X236.8308Y280.5271
X236.8667Y280.5432
X236.9026Y280.5594
X236.9385Y280.5756
X236.9744Y280.5917
X237.0462Y280.624
X237.1539Y280.6725
X237.1898Y280.6886
X237.2257Y280.7048
X237.2616Y280.721
X237.2975Y280.7371
X237.3334Y280.7533
X237.3693Y280.7694
X237.4411Y280.8017
X237.6206Y280.8825
X237.6565Y280.8987
X237.6924Y280.9148
X237.7283Y280.931
X237.7642Y280.9471
X237.7952Y280.9611
Y278.1266
X237.9084Y278.1606
X237.9461Y278.1719
X238.1723Y278.2397
X238.21Y278.251
X238.3232Y278.285
Z0.3937
X238.3986Y278.3076
X238.4363Y278.3189
X238.474Y278.3302
X238.6248Y278.3755
X238.6626Y278.3868
X238.7003Y278.3981
X238.738Y278.4094
X238.8888Y278.4547
X238.9642Y278.4773
Z-9.8425F196.85
X239.0019Y278.4886F393.7
X239.1528Y278.5339
X239.1905Y278.5452
X239.2282Y278.5565
X239.2659Y278.5678
X239.37Y278.599
Y281.4728
X239.4084Y281.4815
X239.4468Y281.4901
X239.5237Y281.5074
X239.5621Y281.516
X239.6389Y281.5333
X239.6773Y281.542
X239.7541Y281.5592
X239.7925Y281.5679
X239.9078Y281.5938
X239.9462Y281.6025
X240.023Y281.6197
X240.0614Y281.6284
X240.1382Y281.6457
X240.1766Y281.6543
X240.2535Y281.6716
X240.2919Y281.6802
X240.3687Y281.6975
X240.4071Y281.7062
X240.4839Y281.7234
X240.5223Y281.7321
X240.5991Y281.7494
X240.6375Y281.758
X240.7528Y281.7839
X240.7912Y281.7926
X240.868Y281.8098
X240.9064Y281.8185
X240.9448Y281.8271
Y278.914
X240.984Y278.9179
X241.0232Y278.9218
X241.1015Y278.9296
X241.1407Y278.9335
X241.219Y278.9414
X241.2582Y278.9453
X241.3366Y278.9531
X241.3757Y278.957
X241.4541Y278.9649
Z0.3937
X241.5716Y278.9766
X241.6108Y278.9806
X241.6891Y278.9884
X241.7283Y278.9923
X241.8067Y279.0002
X241.8458Y279.0041
X241.885Y279.008
X241.9242Y279.0119
X242.0025Y279.0197
X242.0417Y279.0236
X242.1592Y279.0354
Z-9.8425F196.85
X242.2376Y279.0432F393.7
X242.2768Y279.0471
X242.3551Y279.055
X242.3943Y279.0589
X242.4726Y279.0667
X242.5118Y279.0706
X242.5196Y279.0714
Y282.024
X242.559Y282.0259
X242.5983Y282.0279
X242.7162Y282.0338
X242.7556Y282.0358
X242.8342Y282.0397
X242.8735Y282.0417
X242.9915Y282.0476
X243.0308Y282.0495
X243.1488Y282.0554
X243.1881Y282.0574
X243.2667Y282.0613
X243.3061Y282.0633
X243.424Y282.0692
X243.4633Y282.0712
X243.542Y282.0751
X243.5813Y282.077
X243.6993Y282.083
X243.7386Y282.0849
X243.8172Y282.0889
X243.8565Y282.0908
X243.9745Y282.0967
X244.0138Y282.0987
X244.0944Y282.1027
Y279.0714
X244.1336Y279.0675
X244.1728Y279.0636
X244.2511Y279.0558
X244.2903Y279.0519
X244.3687Y279.044
X244.4078Y279.0401
X244.4862Y279.0323
X244.5253Y279.0283
X244.6037Y279.0205
X244.6429Y279.0166
X244.7212Y279.0087
X244.7604Y279.0048
X244.8387Y278.997
X244.8779Y278.9931
X244.9563Y278.9852
X244.9954Y278.9813
X245.0346Y278.9774
X245.0738Y278.9735
X245.1521Y278.9657
X245.1913Y278.9618
X245.2697Y278.9539
X245.3088Y278.95
X245.3872Y278.9422
X245.4264Y278.9383
X245.5047Y278.9304
X245.5439Y278.9265
X245.6222Y278.9187
X245.6614Y278.9148
X245.6692Y278.914
Y282.0633
X245.8646Y282.0389
X245.9036Y282.034
X246.2552Y281.9901
X246.2943Y281.9852
X246.6459Y281.9413
X246.685Y281.9364
X247.0366Y281.8924
X247.0756Y281.8875
X247.2441Y281.8665
Y278.599
X247.3564Y278.5625
X247.4313Y278.5382
X247.581Y278.4895
X247.6559Y278.4652
X247.8057Y278.4165
X247.8806Y278.3922
Z0.3937
X248.0303Y278.3435
Z-9.8425F196.85
X248.2924Y278.2583F393.7
X248.3673Y278.234
X248.5171Y278.1853
X248.592Y278.161
X248.7418Y278.1123
X248.8189Y278.0873
Y281.5909
X249.0098Y281.5432
X249.048Y281.5336
X249.0862Y281.5241
X249.1244Y281.5145
X249.1626Y281.505
X249.239Y281.4859
X249.2772Y281.4764
X249.3154Y281.4668
X249.3536Y281.4573
X249.43Y281.4382
X249.5828Y281.4
X249.6209Y281.3904
X249.6591Y281.3809
X249.8119Y281.3427
X249.8501Y281.3331
X249.8883Y281.3236
X249.9265Y281.314
X250.0029Y281.2949
X250.1175Y281.2663
X250.1939Y281.2472
X250.3466Y281.209
X250.3848Y281.1995
X250.3937Y281.1973
Y277.3786
X250.5962Y277.2571
X250.6637Y277.2166
X250.9338Y277.0546
Z0.3936
X251.0013Y277.014Z0.3937
X251.0689Y276.9736
X251.3727Y276.7912
Z-9.8425F196.85
X251.4402Y276.7508F393.7
X251.8453Y276.5077
X251.9129Y276.4672
X251.9685Y276.4338
Y280.6461
X252.0044Y280.63
X252.0403Y280.6138
X252.0762Y280.5976
X252.1121Y280.5815
X252.148Y280.5653
X252.1839Y280.5492
X252.2198Y280.533
X252.2557Y280.5169
X252.2916Y280.5007
X252.3275Y280.4846
X252.3993Y280.4523
X252.4352Y280.4361
X252.4711Y280.4199
X252.507Y280.4038
X252.5429Y280.3876
X252.5788Y280.3715
X252.6147Y280.3553
X252.6506Y280.3392
X252.6865Y280.323
X252.7224Y280.3069
X252.7942Y280.2745
X252.9019Y280.2261
X252.9378Y280.2099
X252.9737Y280.1938
X253.0096Y280.1776
X253.0455Y280.1615
X253.0814Y280.1453
X253.1174Y280.1292
X253.1892Y280.0968
X253.3687Y280.0161
X253.4046Y279.9999
X253.4405Y279.9838
X253.4764Y279.9676
X253.5123Y279.9515
X253.5433Y279.9375
Y275.2134
X253.6268Y275.1299
X253.8217Y274.9351
Z0.3937
X253.9052Y274.8516
X254.0165Y274.7402
X254.2114Y274.5453
X254.4063Y274.3505
X254.6012Y274.1556
X254.6847Y274.0721
X254.796Y273.9607
X254.9909Y273.7659
X255.1181Y273.6388
Z-9.8425F196.85
Y279.0714F393.7
X255.1833Y279.0274
X255.2812Y278.9613
X255.3139Y278.9393
X255.4117Y278.8732
X255.4444Y278.8512
X255.5423Y278.7851
X255.5749Y278.7631
X255.6728Y278.697
X255.7055Y278.675
X255.8033Y278.6089
X255.836Y278.5869
X255.9012Y278.5428
X255.9665Y278.4988
X256.0318Y278.4547
X256.097Y278.4107
X256.1623Y278.3666
X256.2602Y278.3006
X256.2928Y278.2785
X256.3907Y278.2124
X256.4234Y278.1904
X256.5213Y278.1243
X256.5539Y278.1023
X256.6929Y278.0085
Y271.6704
X256.712Y271.636
X256.7311Y271.6016
Z0.3937
X256.7693Y271.5327
X256.7885Y271.4983
X256.8076Y271.4639
X256.8267Y271.4295
X256.8458Y271.3951
X256.865Y271.3607
X256.8841Y271.3262
X256.9032Y271.2918
X256.9223Y271.2574
X256.9414Y271.223
X256.9605Y271.1886
X256.9797Y271.1542
X257.037Y271.0509
X257.0562Y271.0165
X257.0753Y270.9821
X257.0944Y270.9477
X257.1135Y270.9133
X257.1518Y270.8444
X257.1709Y270.81
X257.19Y270.7756
X257.2091Y270.7412
X257.2283Y270.7068
X257.2474Y270.6724
X257.2665Y270.6379
X257.2856Y270.6035
X257.3047Y270.5691
X257.3238Y270.5347
X257.343Y270.5003
X257.4003Y270.397
X257.4195Y270.3626
X257.4386Y270.3282
X257.4577Y270.2938
X257.4768Y270.2594
X257.4959Y270.225
X257.5151Y270.1905
X257.5533Y270.1217
X257.5724Y270.0873
X257.5916Y270.0529
X257.6107Y270.0185
X257.6298Y269.9841
X257.6871Y269.8808
X257.7063Y269.8464
X257.7636Y269.7431
X257.7828Y269.7087
X257.8019Y269.6743
X257.821Y269.6399
X257.8401Y269.6055
X257.8592Y269.5711
X257.8783Y269.5367
X257.8975Y269.5022
X257.9357Y269.4334
X257.9548Y269.399
X257.974Y269.3646
X257.9931Y269.3302
X258.0504Y269.2269
X258.0696Y269.1925
X258.1269Y269.0893
X258.1461Y269.0548
X258.1652Y269.0204
X258.1843Y268.986
X258.2225Y268.9172
Z-9.8425F196.85
X258.2416Y268.8828F393.7
X258.2677Y268.836
Y276.67
X258.3461Y276.5818
X258.3723Y276.5523
X258.4246Y276.4935
X258.4508Y276.4641
X258.5031Y276.4052
X258.5292Y276.3758
X258.5554Y276.3464
X258.6077Y276.2875
X258.6339Y276.2581
X258.6862Y276.1992
X258.7123Y276.1698
X258.8954Y275.9638
X258.9216Y275.9344
X258.9739Y275.8756
X259.0001Y275.8461
X259.0524Y275.7873
X259.3139Y275.4931
X259.3401Y275.4636
X259.3924Y275.4048
X259.4186Y275.3753
X259.4447Y275.3459
X259.497Y275.2871
X259.5232Y275.2577
X259.5755Y275.1988
X259.6017Y275.1694
X259.7848Y274.9634
X259.8109Y274.934
X259.8425Y274.8985
Y263.9544
G0Z19.685
X226.7716Y243.4441
G1Z-9.8425F196.85
Y235.925F393.7
X226.8495Y235.9366
Z0.3937
X227.0442Y235.9658
X227.0831Y235.9717
X227.5892Y236.0476
X227.6282Y236.0534
X228.1343Y236.1293
X228.1733Y236.1352
X228.2901Y236.1527
Z-9.8425F196.85
X228.3464Y236.1612F393.7
Y239.6648
X228.4348Y239.5345
Z0.3937
X228.5011Y239.4367
X228.6336Y239.2412
X228.6999Y239.1435
X228.8546Y238.9154
X228.9209Y238.8176
X229.0534Y238.6221
X229.1197Y238.5243
X229.2523Y238.3288
X229.3406Y238.1985
X229.5616Y237.8726
X229.6721Y237.7097
X229.6941Y237.6771
X229.7383Y237.6119Z0.3936
Z-9.8425F196.85
X229.9212Y237.3422F393.7
Y235.1376
X230.1122Y235.1853
X230.1504Y235.1949
X230.1886Y235.2044
X230.2268Y235.214
X230.265Y235.2235
X230.3414Y235.2426
X230.3796Y235.2522
X230.4177Y235.2617
X230.4559Y235.2713
X230.5323Y235.2904
X230.6851Y235.3286
X230.7233Y235.3381
X230.7615Y235.3477
X230.9143Y235.3859
X230.9525Y235.3954
X230.9907Y235.405
X231.0289Y235.4145
X231.1053Y235.4336
X231.2198Y235.4622
X231.2962Y235.4813
X231.449Y235.5195
X231.4872Y235.5291
X231.496Y235.5313
Y233.0905
X231.5613Y233.1346
X231.6592Y233.2006
X231.6918Y233.2227
X231.7897Y233.2887
X231.8224Y233.3108
X231.9202Y233.3768
X231.9529Y233.3989
X232.0508Y233.4649
X232.0834Y233.487
X232.1813Y233.553
X232.2139Y233.5751
X232.2792Y233.6191
X232.3445Y233.6632
X232.4097Y233.7072
X232.475Y233.7513
X232.5403Y233.7953
X232.6382Y233.8614
X232.6708Y233.8834
X232.7687Y233.9495
X232.8013Y233.9715
X232.8992Y234.0376
X232.9318Y234.0596
X233.0708Y234.1534
Y231.5552
X233.1642Y231.4828
X233.1953Y231.4587
X233.2575Y231.4105
X233.2887Y231.3864
X233.3198Y231.3623
X233.382Y231.314
X233.4131Y231.2899
X233.631Y231.1211
X233.6621Y231.097
X233.7243Y231.0487
X233.7555Y231.0246
X233.7866Y231.0005
X233.8488Y230.9523
X233.8799Y230.9282
X234.0978Y230.7594
X234.1289Y230.7353
X234.1911Y230.687
X234.2222Y230.6629
X234.2534Y230.6388
X234.3156Y230.5906
X234.3467Y230.5664
X234.5646Y230.3976
X234.5957Y230.3735
X234.6456Y230.3348
Y233.0511
X234.6805Y233.0328
Z0.3937
X234.7502Y232.9963
X234.8548Y232.9413
X234.8896Y232.9231
X234.9942Y232.8681
X235.0291Y232.8499
X235.3079Y232.7034
X235.3428Y232.6852
X235.4822Y232.6119
X235.5171Y232.5937
X235.7611Y232.4656
X235.796Y232.4473
X235.9354Y232.3741
X235.9703Y232.3558
X236.1097Y232.2826
Z-9.8425F196.85
X236.2204Y232.2244F393.7
Y229.4687
X236.2929Y229.4379
X236.3291Y229.4225
X236.4378Y229.3763
X236.4741Y229.3609
X236.5828Y229.3148
X236.619Y229.2993
X236.7639Y229.2378
X236.9089Y229.1762
X236.9451Y229.1608
X237.0538Y229.1146
X237.09Y229.0992
X237.235Y229.0376
X237.2712Y229.0222
X237.3799Y228.976
X237.4161Y228.9606
X237.706Y228.8374
X237.7422Y228.822
X237.7952Y228.7995
Y231.5946
X237.9862Y231.5468
X238.0244Y231.5373
X238.0626Y231.5277
X238.1008Y231.5182
X238.139Y231.5086
X238.2154Y231.4895
X238.2536Y231.48
X238.2918Y231.4704
X238.33Y231.4609
Z0.3937
X238.4063Y231.4418
X238.5591Y231.4036
X238.5973Y231.394
X238.6355Y231.3845
X238.7883Y231.3463
X238.8265Y231.3368
X238.8647Y231.3272
X238.9029Y231.3177
X239.0174Y231.289
Z-9.8425F196.85
X239.0557Y231.2795F393.7
X239.0939Y231.2699
X239.1702Y231.2508
X239.323Y231.2126
X239.3612Y231.2031
X239.37Y231.2009
Y228.3271
X239.5631Y228.2885
X239.7175Y228.2576
X239.7561Y228.2499
X239.8719Y228.2267
X239.9105Y228.219
X240.0263Y228.1958
X240.1807Y228.165
X240.3352Y228.1341
X240.3738Y228.1263
X240.4896Y228.1032
X240.5282Y228.0955
X240.644Y228.0723
X240.7598Y228.0491
X240.7984Y228.0414
X240.9448Y228.0121
Y230.9253
X240.9842Y230.9233
X241.0235Y230.9214
X241.1414Y230.9155
X241.1807Y230.9135
X241.2594Y230.9096
X241.2987Y230.9076
X241.4167Y230.9017
X241.456Y230.8998
X241.574Y230.8939
X241.6133Y230.8919
X241.6919Y230.888
X241.7313Y230.886
X241.8492Y230.8801
X241.8885Y230.8781
X241.9672Y230.8742
X242.0065Y230.8722
X242.1245Y230.8663
X242.1638Y230.8644
X242.2424Y230.8604
X242.2817Y230.8585
X242.3997Y230.8526
X242.439Y230.8506
X242.5196Y230.8466
Y227.8547
X244.0944
Y230.8859
X244.2507Y230.9055
X244.2898Y230.9104
X244.6413Y230.9543
X244.6804Y230.9592
X245.032Y231.0031
X245.0711Y231.008
X245.4227Y231.052
X245.4618Y231.0569
X245.6692Y231.0828
Y227.9334
X245.8646Y227.9578
X245.9036Y227.9627
X246.2552Y228.0066
X246.2943Y228.0115
X246.6459Y228.0555
X246.685Y228.0604
X247.0366Y228.1043
X247.0756Y228.1092
X247.2441Y228.1302
Y231.4765
X247.3184Y231.5025
Z0.3937
X247.3927Y231.5285
X247.467Y231.5545
X247.5042Y231.5675
X247.6156Y231.6065
X247.6528Y231.6195
X247.7643Y231.6585
X247.8386Y231.6845
X247.9129Y231.7106
X247.9873Y231.7366
X248.0616Y231.7626
X248.0987Y231.7756
X248.2102Y231.8146
X248.2474Y231.8276
X248.3589Y231.8666
X248.4332Y231.8926
X248.5075Y231.9186
X248.5447Y231.9316
X248.6561Y231.9707
X248.7305Y231.9967
Z-9.8425F196.85
X248.8048Y232.0227F393.7
X248.8189Y232.0276
Y228.4845
X248.932Y228.5185
X248.9697Y228.5298
X249.196Y228.5977
X249.2337Y228.609
X249.3845Y228.6542
X249.4222Y228.6655
X249.4599Y228.6769
X249.4976Y228.6882
X249.6485Y228.7334
X249.6862Y228.7447
X249.7239Y228.756
X249.7616Y228.7673
X249.9124Y228.8126
X249.9502Y228.8239
X249.9879Y228.8352
X250.0256Y228.8465
X250.1764Y228.8918
X250.2141Y228.9031
X250.2518Y228.9144
X250.2895Y228.9257
X250.3937Y228.957
Y232.7756
X250.4927Y232.8399
X250.5257Y232.8614
X250.7568Y233.0116
Z0.3937
X250.8228Y233.0545
X250.9878Y233.1618
X251.0539Y233.2047
X251.2519Y233.3334
X251.318Y233.3763
X251.483Y233.4836
X251.7471Y233.6552
X251.8791Y233.7411
Z-9.8425F196.85
X251.9685Y233.7991F393.7
Y229.5868
X252.0382Y229.6234
X252.073Y229.6417
X252.1776Y229.6966
X252.2125Y229.7149
X252.317Y229.7698
X252.3519Y229.7881
X252.6308Y229.9345
X252.6656Y229.9528
X252.8051Y230.026
X252.8399Y230.0443
X253.0839Y230.1724
X253.1188Y230.1907
X253.2582Y230.2639
X253.2931Y230.2822
X253.5433Y230.4135
Y235.0589
X253.7357Y235.2561
Z0.3937
X253.7907Y235.3125
X253.8182Y235.3407
X253.8732Y235.397
X254.3406Y235.8761
X254.3681Y235.9043
X254.4781Y236.017
X255.0004Y236.5524
Z-9.8425F196.85
X255.1181Y236.6729F393.7
Y231.4371
X255.2114Y231.5094
X255.2425Y231.5335
X255.3048Y231.5818
X255.3359Y231.6059
X255.367Y231.63
X255.4293Y231.6782
X255.4604Y231.7024
X255.6782Y231.8712
X255.7093Y231.8953
X255.7716Y231.9435
X255.8027Y231.9676
X255.8338Y231.9918
X255.8961Y232.04
X255.9272Y232.0641
X256.145Y232.2329
X256.1761Y232.257
X256.2384Y232.3053
X256.2695Y232.3294
X256.3006Y232.3535
X256.3629Y232.4017
X256.394Y232.4259
X256.6118Y232.5947
X256.6429Y232.6188
X256.6929Y232.6575
Y238.6807
X256.7307Y238.7497
X256.7496Y238.7842
X256.8064Y238.8878
Z0.3937
X256.9388Y239.1295
X256.9577Y239.164
X257.0334Y239.3021
X257.0523Y239.3366
X257.128Y239.4748
X257.1469Y239.5093
X257.2226Y239.6474
X257.2415Y239.6819
X257.3361Y239.8545
X257.355Y239.8891
X257.4307Y240.0272
X257.4496Y240.0617
X257.5253Y240.1998
X257.5632Y240.2689
X257.6199Y240.3724
X257.6388Y240.407
X257.7335Y240.5796
X257.7524Y240.6141
X257.8281Y240.7522
X257.8659Y240.8213
X257.9227Y240.9249
X257.9416Y240.9594
X258.0173Y241.0975
X258.0362Y241.132
X258.1308Y241.3046
X258.1497Y241.3392
X258.2064Y241.4427
Z-9.8425F196.85
X258.2254Y241.4773F393.7
X258.2443Y241.5118
X258.2677Y241.5545
Y234.1141
X258.3206Y234.1723
X258.4001Y234.2597
X258.4266Y234.2888
X258.4795Y234.3471
X258.5325Y234.4054
X258.5855Y234.4636
X258.6385Y234.5219
X258.6649Y234.551
X258.7444Y234.6384
X258.7709Y234.6675
X259.0357Y234.9589
X259.0622Y234.988
X259.1416Y235.0754
X259.1681Y235.1045
X259.2476Y235.1919
X259.2741Y235.221
X259.327Y235.2793
X259.38Y235.3375
X259.433Y235.3958
X259.4859Y235.4541
X259.5124Y235.4832
X259.5919Y235.5706
X259.6184Y235.5997
X259.8425Y235.8462
Y246.3573
G0Z19.685
X261.4173Y238.0902
G1Z-9.8425F196.85
Y272.6152F393.7
X261.435Y272.5801
X261.4528Y272.545
X261.4706Y272.5098
X261.4884Y272.4747
X261.524Y272.4045
X261.5418Y272.3693
X261.5595Y272.3342
X261.5773Y272.2991
X261.6129Y272.2288
X261.6307Y272.1937
X261.6663Y272.1235
X261.6841Y272.0884
X261.7018Y272.0532
X261.7196Y272.0181
X261.7552Y271.9479
X261.773Y271.9127
X261.7908Y271.8776
X261.8086Y271.8425
X261.8441Y271.7722
X261.8619Y271.7371
X261.8797Y271.702
X261.8975Y271.6669
X261.933Y271.5966
X261.9508Y271.5615
X261.9864Y271.4912
X262.0042Y271.4561
X262.022Y271.421
X262.0398Y271.3859
X262.0753Y271.3156
X262.0931Y271.2805
X262.1109Y271.2454
X262.1287Y271.2103
X262.1643Y271.14
X262.182Y271.1049
X262.1998Y271.0698
X262.2176Y271.0346
X262.2532Y270.9644
X262.271Y270.9293
X262.2888Y270.8941
X262.3066Y270.859
X262.3421Y270.7888
X262.3599Y270.7536
X262.3955Y270.6834
X262.4133Y270.6483
X262.431Y270.6131
X262.4488Y270.578
X262.4844Y270.5078
X262.5022Y270.4726
X262.52Y270.4375
X262.5378Y270.4024
X262.5733Y270.3322
X262.5911Y270.297
X262.6089Y270.2619
X262.6267Y270.2268
X262.6622Y270.1565
X262.68Y270.1214
X262.7156Y270.0512
X262.7334Y270.0161
X262.7512Y269.9809
X262.769Y269.9458
X262.8045Y269.8756
X262.8223Y269.8404
X262.8401Y269.8053
X262.8579Y269.7702
X262.8935Y269.6999
X262.9113Y269.6648
X262.929Y269.6297
X262.9468Y269.5946
X262.9824Y269.5243
X262.9921Y269.5052
Y241.0821
G0Z19.685
X264.5669Y245.8061
G1Z-9.8425F196.85
Y264.8599F393.7
G0Z19.685
X185.8267Y280.8036
G1Z-9.8425F196.85
Y229.1144F393.7
X187.4015
Y280.8036
G0Z19.685
X188.9763Y273.7962
G1Z-9.8425F196.85
Y229.1144F393.7
G0Z19.685
X162.2047
G1Z-9.8425F196.85
Y280.8036F393.7
X163.7795
Y229.1144
X165.3543
Y280.8036
G0Z19.685
X162.2047Y296.1962
G1Z-9.8425F196.85
Y302.3375F393.7
X163.7795
Y296.1962
X165.3543
Y302.3375
G0Z19.685
X190.5511Y272.3396
G1Z-9.8425F196.85
Y264.5056F393.7
G0Z19.685
X192.1259Y269.8989
G1Z-9.8425F196.85
Y272.4184F393.7
X192.1653Y272.4203
X192.2046Y272.4223
X192.3226Y272.4282
X192.3619Y272.4302
X192.4405Y272.4341
X192.4798Y272.4361
X192.5978Y272.442
X192.6371Y272.4439
X192.7551Y272.4498
X192.7944Y272.4518
X192.873Y272.4557
X192.9124Y272.4577
X193.0303Y272.4636
X193.0696Y272.4655
X193.1483Y272.4695
X193.1876Y272.4714
X193.3056Y272.4774
X193.3449Y272.4793
X193.4235Y272.4833
X193.4628Y272.4852
X193.5808Y272.4911
X193.6201Y272.4931
X193.7007Y272.4971
Y274.1112
X193.7401Y274.1121
X193.7795Y274.1131
X193.8188Y274.1141
X193.8582Y274.1151
X193.9369Y274.1171
X193.9762Y274.1181
X194.0156Y274.119
X194.055Y274.12
X194.1337Y274.122
X194.173Y274.123
X194.2124Y274.1239
X194.2518Y274.1249
X194.2911Y274.1259
X194.3305Y274.1269
X194.4092Y274.1289
X194.4485Y274.1299
X194.4879Y274.1308
X194.5272Y274.1318
X194.606Y274.1338
X194.6453Y274.1348
X194.6847Y274.1358
X194.724Y274.1367
X194.8028Y274.1387
X194.8421Y274.1397
X194.8815Y274.1407
X194.9208Y274.1417
X194.9995Y274.1436
X195.0389Y274.1446
X195.0783Y274.1456
X195.1176Y274.1466
X195.157Y274.1476
X195.1963Y274.1486
X195.2755Y274.1505
Y276.67
X195.3655Y276.5935
X195.5455Y276.4406
X195.6055Y276.3896
X195.7255Y276.2876
X195.9055Y276.1346
X196.1155Y275.9561
X196.2955Y275.8031
X196.4755Y275.6502
X196.6555Y275.4972
X196.8503Y275.3315
Y278.7959
X196.9339Y278.8794
X197.1287Y279.0742
X197.2123Y279.1578
X197.3236Y279.2691
X197.5185Y279.464
X197.7134Y279.6588
X197.9083Y279.8537
X197.9918Y279.9372
X198.1031Y280.0486
X198.298Y280.2434
X198.4251Y280.3706
Y276.1583
X198.5375Y276.1948
X198.6124Y276.2191
X198.7621Y276.2678
X198.7996Y276.2799
Z0.3937
X198.9868Y276.3408
X199.0617Y276.3651
