(Created with grbl post processor 2026/07/15 08:22)
G20
(G-code Generated with Fabex and NC library)
G17G90
(Tool: D = 0.123''  type END flutes 2)
S12000M03
G00 Z0.39

G0X0Y0Z0
X0.6Y0.5669Z0.3937
G1Z-0.115F5
Y0.5748F10
X0.64Y0.5669
X0.68
X0.72
X0.76
X0.8
X0.84
X0.88
X0.92
X0.96
X1
X1.04
X1.08
X1.12
X1.16
X1.2
X1.24
X1.28
X1.32
X1.36
X1.4
X1.44
X1.48
X1.52
X1.56
X1.6
X1.64
X1.68
X1.72
X1.76
X1.8
X1.84
X1.88
X1.92
X1.96
X2
X2.04
X2.08
X2.12
X2.16
X2.2
X2.24
X2.28
X2.32
X2.36
X2.4
X2.44
X2.48
X2.52
X2.56
X2.6
X2.64
X2.68
X2.72
X2.76
X2.8
X2.84
X2.88
X2.92
X2.96
X3
X3.04
X3.08
X3.12
X3.16
X3.2
X3.24
X3.28
X3.32
X3.36
X3.4
X3.44
X3.48
X3.52
X3.56
X3.6
X3.64
X3.68
X3.72
X3.76
X3.8
X3.84
X3.88
X3.92
X3.96
X4
X4.04
X4.08
X4.12
X4.16
X4.2
X4.24
X4.28
X4.32
X4.36
X4.4
X4.44
X4.48
X4.52
X4.56
X4.6
X4.64
X4.68
X4.72
X4.76
X4.8
X4.84
X4.88
X4.92
X4.96
X5
X5.04
X5.08
X5.12
X5.16
X5.2
X5.24
X5.28
X5.32
X5.36
X5.4
X5.44
X5.48
X5.52
X5.56
X5.6
X5.64
X5.68
X5.72
X5.76
X5.8
X5.84
X5.88
X5.92
X5.96
X6
X6.04
X6.08
X6.12
X6.16
X6.2
X6.24
X6.28
X6.32
X6.36
X6.4
X6.44
X6.48
X6.52
X6.56
X6.6
X6.64
X6.68
X6.72
X6.76
X6.8
X6.84
X6.88
X6.92
X6.96
X7
X7.04
X7.08
X7.12
X7.16
X7.2
X7.24
X7.28
X7.32
X7.36
X7.4
X7.44
X7.48
X7.52
X7.56
X7.6
X7.64
X7.68
X7.72
X7.76
X7.8
X7.84
X7.88
X7.92
X7.96
X8
X8.04
X8.08
X8.12
X8.16
X8.2
X8.24
X8.28
X8.32
X8.36
X8.4
X8.44
X8.48
X8.52
X8.56
X8.6
X8.64
X8.68
X8.72
X8.76
X8.8
X8.84
X8.88
X8.92
X8.96
X9
X9.04
X9.08
X9.12
X9.16
X9.2
X9.24
X9.28
X9.32
X9.36
X9.4
X9.44
X9.48
X9.52
X9.56
X9.6
X9.64
X9.68
X9.72
X9.76
X9.8
X9.84
X9.88
X9.92
X9.96
X10
X10.04
X10.08
X10.12
X10.16
X10.2
X10.24
X10.28
X10.32
X10.36
X10.4
X10.44
X10.48
X10.52
X10.56
X10.6
X10.64
X10.68
X10.72
X10.76
X10.8
X10.84
X10.88
X10.92
X10.96
X11
X11.04
X11.08
X11.12
X11.16
X11.2
X11.24
X11.28
X11.32
X11.36
X11.4
Y0.5748
G0Z0.3937
X9.4Y2.5039
G1Z-0.125F5
Y2.6221F10
X9.44Y2.6142
Y2.4488
X9.48Y2.4173
Y2.6142
G0Z0.3937
X9.52Y2.5197
G1Z-0.125F5
Y2.3858F10
X9.56Y2.3622
Y2.4724
X9.6Y2.4409
Y2.3465
X9.64Y2.3386
Y2.4173
X9.68Y2.4016
Y2.3228
X9.72Y2.315
Y2.3937
X9.76Y2.3858
Y2.315
X9.8Y2.3071
Y2.378
X9.84
Y2.3071
X9.88
Y2.378
X9.92
Y2.3071
X9.96
Y2.3858
X10
Y2.315
X10.04Y2.3228
Y2.4016
X10.08Y2.4095
Y2.3307
X10.12Y2.3465
Y2.4331
X10.16Y2.4567
Y2.3622
X10.2Y2.378
Y2.4882
X10.24Y2.5354
Y2.4016
X10.28Y2.4331
Y2.5984
G0Z0.3937
X10.32Y2.4724
G1Z-0.125F5
Y2.7559F10
G0Z0.3937
X9.32Y3.4095
G1Z-0.125F5
Y3.6929F10
G0Z0.3937
X9.36Y3.8583
G1Z-0.125F5
Y3.2599F10
X9.4Y3.1732
Y3.9449
X9.44Y4.0158
Y3.6614
G0Z0.3937
Y3.4646
G1Z-0.125F5
Y3.1024F10
X9.48Y3.0551
Y3.2599
X9.52Y3.1732
Y3.0158
X9.56Y2.9764
Y3.1181
X9.6Y3.0709
Y2.9528
X9.64Y2.937
Y3.0394
X9.68Y3.0158
Y2.9213
X9.72Y2.9055
Y2.9921
X9.76Y2.9764
Y2.8976
X9.8Y2.8898
Y2.9685
X9.84Y2.9606
Y2.8898
X9.88
Y2.9606
X9.92
Y2.8898
X9.96Y2.8976
Y2.9685
X10Y2.9764
Y2.9055
X10.04Y2.9213
Y2.9843
X10.08Y3
Y2.937
X10.12Y2.9685
Y3.0236
X10.16Y3.0551
Y2.9921
X10.2Y3.0315
Y3.0866
X10.24Y3.0709
Y3.1339
X10.28Y3.0788
Y3.2047
G0Z0.3937
X10.32Y3.3071
G1Z-0.125F5
Y3.0473F10
G0Z0.3937
X9.48Y3.8583
G1Z-0.125F5
Y4.063F10
X9.52Y4.1024
Y3.9449
X9.56Y4
Y4.1339
X9.6Y4.1654
Y4.0394
X9.64Y4.0788
Y4.1811
X9.68Y4.1969
Y4.1024
X9.72Y4.126
Y4.2126
X9.76Y4.2205
Y4.1418
X9.8Y4.1496
Y4.2284
X9.84
Y4.1575
X9.88
Y4.2284
X9.92
Y4.1575
X9.96Y4.1496
Y4.2205
X10Y4.2126
Y4.1418
X10.04Y4.1339
Y4.1969
X10.08Y4.1811
Y4.1103
X10.12Y4.0866
Y4.1575
X10.16Y4.126
Y4.0551
X10.2Y4.0237
Y4.0945
X10.24Y4.0473
Y3.9764
X10.28Y4.0237
Y3.9055
G0Z0.3937
X10.32Y3.8032
G1Z-0.125F5
Y4.0315F10
G0Z0.3937
X10.36Y4.1969
G1Z-0.125F5
Y2.5197F10
X10.4Y2.5984
Y4.1969
X10.44
Y2.7717
G0Z0.3937
X7.88Y2.8898
G1Z-0.125F5
Y4.1969F10
X7.92
Y2.8898
X7.96
Y4.0315
X8Y3.9922
Y3.8189
G0Z0.3937
X8.04Y3.937
G1Z-0.125F5
Y3.9922F10
X8.08Y4
Y4.0315
X8.12Y4.0394
Y4.0866
X8.16Y4.0709
Y4.1181
X8.2Y4.0945
Y4.1496
X8.24Y4.1733
Y4.1103
X8.28Y4.126
Y4.1969
X8.32Y4.2048
Y4.1339
X8.36Y4.1418
Y4.2205
X8.4
Y4.1496
X8.44
Y4.2284
X8.48
Y4.1418
X8.52
Y4.2284
X8.56Y4.2205
Y4.126
X8.6Y4.1103
Y4.2126
X8.64Y4.2048
Y4.0866
X8.68Y4.0551
Y4.189
X8.72Y4.1733
Y4.0079
X8.76Y3.9213
Y4.1496
X8.8Y4.1181
Y2.8898
X8.84
Y4.063
X8.88Y3.9764
Y2.8898
G0Z0.3937
X7.28
G1Z-0.125F5
Y4.1969F10
X7.32
Y2.8898
X7.36
Y4.1969
G0Z0.3937
X7.28Y4.5906
G1Z-0.125F5
Y4.7402F10
X7.32
Y4.5906
X7.36
Y4.7402
G0Z0.3937
X7.72Y6.0631
G1Z-0.125F5
Y6.1182F10
X7.76Y6.126
Y5.9843
X7.8Y5.9292
Y6.1339
X7.84Y6.0709
Y5.8898
X7.88Y5.8583
Y6.0001
X7.92Y5.9528
Y5.8347
X7.96Y5.819
Y5.9213
X8Y5.8977
Y5.8032
X8.04Y5.7953
Y5.8741
X8.08Y5.8662
Y5.7875
X8.12Y5.7796
Y5.8505
X8.16
Y5.7796
X8.2Y5.7717
Y5.8426
X8.24
Y5.7717
X8.28
Y5.8426
X8.32Y5.8505
Y5.7796
X8.36
Y5.8505
X8.4Y5.8583
Y5.7875
X8.44Y5.8032
Y5.8741
X8.48Y5.8898
Y5.8111
X8.52Y5.8268
Y5.9213
X8.56Y5.9528
Y5.8505
X8.6Y5.8741
Y6.0079
G0Z0.3937
X7.76Y6.6615
G1Z-0.125F5
Y6.9292F10
X7.8Y6.9922
Y6.6064
X7.84Y6.567
Y7.0316
X7.88Y7.0631
Y6.945
X7.92Y6.9922
Y7.0867
X7.96Y7.1024
Y7.0237
X8Y7.0395
Y7.1182
X8.04Y7.1261
Y7.0552
X8.08Y7.0631
Y7.1339
X8.12Y7.1418
Y7.0709
X8.16
Y7.1418
X8.2
Y7.0788
X8.24
Y7.1418
X8.28
Y7.0709
X8.32Y7.0631
Y7.1418
X8.36Y7.1339
Y7.0552
X8.4Y7.0395
Y7.1261
X8.44Y7.1103
Y7.0237
X8.48Y6.9922
Y7.0946
X8.52Y7.0788
Y6.9528
X8.56Y6.8898
Y7.0552
X8.6Y7.0237
Y6.8505
X8.64Y6.8583
Y6.9765
X8.68Y6.8977
Y6.8583
G0Z0.3937
X9.04Y7.0552
G1Z-0.125F5
Y7.1103F10
X9.08
Y7.0552
X9.12
Y7.1103
X9.16
Y7.0552
X9.2Y7.0316
Y7.1339
G0Z0.3937
X9.24Y7.5119
G1Z-0.125F5
Y5.9056F10
X9.28Y5.8505
Y7.5355
X9.32Y7.5591
Y5.819
X9.36Y5.8032
Y5.9764
X9.4Y5.9213
Y5.7953
X9.44Y5.7875
Y5.8977
X9.48Y5.8898
Y5.7875
X9.52
Y5.882
X9.56
Y5.7875
X9.6Y5.7953
Y5.8347
G0Z0.3937
X9.36Y7.0395
G1Z-0.125F5
Y7.1261F10
X9.4Y7.1103
Y7.0552
X9.44
Y7.1103
X9.48
Y7.0552
X9.52
Y7.1103
X9.56
Y7.0552
G0Z0.3937
X7.88Y6.7009
G1Z-0.125F5
Y6.5434F10
X7.92Y6.5198
Y6.6615
X7.96Y6.6379
Y6.504
X8Y6.4883
Y6.6142
X8.04Y6.5985
Y6.4725
X8.08Y6.4646
Y6.5906
X8.12Y6.5749
Y6.4489
X8.16Y6.441
Y6.567
X8.2Y6.5591
Y6.4331
X8.24Y6.4174
Y6.5434
X8.28Y6.5355
Y6.4095
X8.32Y6.4016
Y6.5198
X8.36Y6.5119
Y6.3859
X8.4Y6.378
Y6.504
X8.44Y6.4883
Y6.3623
X8.48Y6.3465
Y6.4725
X8.52Y6.4646
Y6.3308
X8.56Y6.2993
Y6.4489
X8.6Y6.4253
Y6.252
G0Z0.3937
X8.64Y6.4016
G1Z-0.125F5
Y5.9056F10
X8.68Y5.9449
Y6.3701
X8.72Y6.3229
Y6.0079
G0Z0.3937
X6.2Y6.1812
G1Z-0.125F5
Y6.7245F10
G0Z0.3937
X6.24Y6.8268
G1Z-0.125F5
Y6.0788F10
X6.28Y6.0079
Y6.8977
X6.32Y6.9528
Y6.7087
G0Z0.3937
X6.36Y6.819
G1Z-0.125F5
Y6.9922F10
X6.4Y7.0237
Y6.8898
X6.44Y6.9371
Y7.0552
X6.48Y7.0788
Y6.9765
X6.52Y7.0001
Y7.0946
X6.56Y7.1103
Y7.0237
X6.6Y7.0473
Y7.1261
X6.64Y7.1339
Y7.0552
X6.68Y7.0709
Y7.1418
X6.72
Y7.0709
X6.76Y7.0788
Y7.1418
X6.8
Y7.0788
X6.84Y7.0709
Y7.1418
X6.88Y7.1339
Y7.0631
X6.92Y7.0552
Y7.1261
X6.96Y7.1182
Y7.0395
X7Y7.0158
Y7.1024
X7.04Y7.0867
Y6.9922
X7.08Y6.9607
Y7.0631
X7.12Y7.0395
Y6.9213
X7.16Y6.8583
Y7.008
X7.2Y6.9686
Y6.7717
G0Z0.3937
X6.32Y6.5513
G1Z-0.125F5
Y6.4568F10
X6.36Y6.4646
Y6.5355
X6.4
Y6.4646
X6.44
Y6.5355
X6.48
Y6.4646
X6.52
Y6.5355
X6.56
Y6.4646
X6.6
Y6.5355
X6.64
Y6.4646
X6.68
Y6.5355
X6.72
Y6.4646
X6.76
Y6.5355
X6.8
Y6.4646
X6.84
Y6.5355
X6.88
Y6.4646
X6.92
Y6.5355
X6.96
Y6.4646
X7
Y6.5355
X7.04
Y6.4646
X7.08
Y6.5355
X7.12
Y6.4646
X7.16
Y6.5355
X7.2Y6.5434
Y6.4646
X7.24
Y6.9213
X7.28Y6.8505
Y6.4646
X7.32
Y6.7639
G0Z0.3937
X7.36Y6.567
G1Z-0.125F5
Y6.4646F10
G0Z0.3937
X6.32Y6.2127
G1Z-0.125F5
Y5.9607F10
X6.36Y5.9213
Y6.1103
X6.4Y6.0394
Y5.8898
X6.44Y5.8583
Y5.9922
X6.48Y5.9528
Y5.8426
X6.52Y5.819
Y5.9213
X6.56Y5.8977
Y5.8032
X6.6Y5.7953
Y5.882
X6.64Y5.8662
Y5.7875
X6.68Y5.7796
Y5.8583
X6.72Y5.8505
Y5.7796
X6.76Y5.7717
Y5.8426
X6.8
Y5.7717
X6.84Y5.7796
Y5.8426
X6.88Y5.8505
Y5.7796
X6.92Y5.7875
Y5.8583
X6.96Y5.8741
Y5.7953
X7Y5.8032
Y5.8898
X7.04Y5.9134
Y5.819
X7.08Y5.8347
Y5.9449
X7.12Y5.9922
Y5.8583
X7.16Y5.882
Y6.0473
X7.2Y6.1182
Y5.9134
X7.24Y5.9607
Y6.126
X7.28
Y6.0079
X7.32Y6.0867
Y6.1182
G0Z0.3937
X5.88Y4.7402
G1Z-0.125F5
Y2.8898F10
X5.92
Y4.7402
X5.96
Y2.8898
G0Z0.3937
X6Y3.441
G1Z-0.125F5
Y3.6299F10
X6.04Y3.6142
Y3.4803
X6.08Y3.5197
Y3.6221
X6.12Y3.6614
Y3.5591
X6.16Y3.5984
Y3.7087
X6.2Y3.7481
Y3.6221
X6.24
Y3.7874
X6.28Y3.8268
Y3.5748
X6.32Y3.5118
Y3.8662
X6.36Y3.9055
Y3.7953
X6.4Y3.8347
Y3.9449
X6.44Y3.9922
Y3.874
X6.48Y3.9134
Y4.0315
X6.52Y4.0709
Y3.9528
X6.56Y3.9922
Y4.1103
X6.6Y4.1496
Y4.0237
X6.64Y4.063
Y4.189
X6.68Y4.1969
Y4.1024
X6.72Y4.1418
Y4.1969
X6.76
Y4.1811
G0Z0.3937
X6.36Y3.6536
G1Z-0.125F5
Y3.4488F10
X6.4Y3.3858
Y3.5906
X6.44Y3.5276
Y3.3229
X6.48Y3.2677
Y3.4725
X6.52Y3.4095
Y3.2047
X6.56Y3.1417
Y3.3543
X6.6Y3.2914
Y3.0788
X6.64Y3.0158
Y3.2284
X6.68Y3.1732
Y2.9528
X6.72Y2.8898
Y3.1103
X6.76Y3.0551
Y2.8898
X6.8
Y2.9921
X6.84Y2.9291
Y2.8898
G0Z0.3937
X4.96
G1Z-0.125F5
Y4.1969F10
X5
Y2.8898
X5.04
Y4.0079
X5.08Y3.9764
Y3.8189
G0Z0.3937
X5.12Y3.937
G1Z-0.125F5
Y3.9843F10
X5.16Y4
Y4.0394
X5.2
Y4.1024
X5.24Y4.0709
Y4.1496
X5.28Y4.189
Y4.0866
X5.32Y4.1024
Y4.2126
X5.36Y4.2284
Y4.1103
X5.4
Y4.2284
X5.44
Y4.1024
X5.48Y4.0945
Y4.2205
X5.52Y4.2048
Y4.0866
X5.56Y4.1496
Y4.189
G0Z0.3937
X4.72Y6.0394
G1Z-0.125F5
Y7.1103F10
X4.76
Y5.9449
X4.8Y5.8898
Y7.1103
G0Z0.3937
X4.84Y6.0867
G1Z-0.125F5
Y5.8583F10
X4.88Y5.8347
Y6.0001
X4.92Y5.9528
Y5.819
X4.96Y5.8032
Y5.9134
X5Y5.8898
Y5.7875
X5.04Y5.7796
Y5.8741
X5.08Y5.8662
Y5.7796
X5.12Y5.7717
Y5.8583
X5.16Y5.8505
Y5.7717
X5.2Y5.7796
Y5.8505
X5.24Y5.8583
Y5.7875
X5.28Y5.7953
Y5.8662
X5.32Y5.8741
Y5.8111
X5.36Y5.8268
Y5.8898
X5.4Y5.9134
Y5.8583
X5.44Y5.8898
Y5.9371
X5.48Y5.9213
Y5.9686
X5.52Y5.9764
Y6.0079
X5.56Y6.0158
Y6.0709
X5.6Y6.0158
Y6.189
G0Z0.3937
X5.64Y5.9764
G1Z-0.125F5
Y7.1103F10
X5.68
Y5.8032
X5.72
Y7.1103
G0Z0.3937
X3.52Y6.6851
G1Z-0.125F5
Y6.5828F10
X3.56
Y6.6851
X3.6
Y6.5828
X3.64
Y6.6851
X3.68
Y6.5828
X3.72
Y6.6851
X3.76
Y6.5828
X3.8
Y6.6851
X3.84
Y6.5828
X3.88
Y6.6851
X3.92
Y6.5828
X3.96
Y6.6851
X4
Y6.5828
X4.04
Y6.6851
X4.08
Y6.5591
G0Z0.3937
X2.52Y6.5749
G1Z-0.125F5
Y6.8662F10
G0Z0.3937
X2.56Y7.0631
G1Z-0.125F5
Y6.3859F10
G0Z0.3937
X2.6Y6.2835
G1Z-0.125F5
Y7.1733F10
X2.64Y7.2599
Y6.2048
X2.68Y6.1339
Y6.4961
G0Z0.3937
X2.72Y6.3465
G1Z-0.125F5
Y6.0867F10
X2.76Y6.0394
Y6.2599
X2.8Y6.189
Y6.0001
X2.84Y5.9686
Y6.1339
X2.88Y6.0946
Y5.9371
X2.92Y5.9134
Y6.0552
X2.96Y6.0237
Y5.8898
X3Y5.8741
Y6.0001
X3.04Y5.9764
Y5.8505
X3.08Y5.8347
Y5.9607
X3.12Y5.9371
Y5.8268
X3.16Y5.8111
Y5.9292
X3.2Y5.9134
Y5.8032
X3.24Y5.7953
Y5.9056
X3.28Y5.8977
Y5.7875
X3.32Y5.7796
Y5.8898
X3.36Y5.882
Y5.7796
X3.4Y5.7717
Y5.882
X3.44
Y5.7717
X3.48
Y5.882
X3.52
Y5.7717
X3.56Y5.7796
Y5.882
X3.6Y5.8898
Y5.7796
X3.64Y5.7875
Y5.8977
X3.68Y5.9056
Y5.7953
X3.72Y5.8032
Y5.9213
X3.76Y5.9292
Y5.8111
X3.8Y5.8268
Y5.9449
X3.84Y5.9607
Y5.8347
X3.88Y5.8505
Y5.9843
X3.92Y6.0001
Y5.8662
X3.96Y5.8898
Y6.0237
X4Y6.0473
Y5.9056
X4.04Y5.9292
Y6.0788
X4.08Y6.1103
Y5.9528
X4.12Y5.9764
Y6.6851
X4.16
Y6.0079
X4.2Y6.0316
Y6.6851
G0Z0.3937
X2.68Y6.9686
G1Z-0.125F5
Y7.3308F10
X2.72Y7.3859
Y7.1182
G0Z0.3937
X2.76Y7.2127
G1Z-0.125F5
Y7.4332F10
X2.8Y7.4725
Y7.2835
X2.84Y7.3387
Y7.504
X2.88Y7.5355
Y7.3859
X2.92Y7.4253
Y7.5591
X2.96Y7.5828
Y7.4568
X3Y7.4804
Y7.6064
X3.04Y7.6221
Y7.504
X3.08Y7.5276
Y7.6379
X3.12Y7.6458
Y7.5434
X3.16Y7.5591
Y7.6615
X3.2Y7.6694
Y7.567
X3.24Y7.5828
Y7.6773
X3.28Y7.6851
Y7.5906
X3.32
Y7.6851
X3.36Y7.693
Y7.5985
X3.4
Y7.693
X3.44
Y7.5985
X3.48
Y7.693
X3.52
Y7.5985
X3.56Y7.5906
Y7.6851
X3.6
Y7.5828
X3.64Y7.5749
Y7.6773
X3.68Y7.6694
Y7.567
X3.72Y7.5513
Y7.6615
X3.76Y7.6458
Y7.5355
X3.8Y7.5119
Y7.63
X3.84Y7.6143
Y7.4883
X3.88Y7.4647
Y7.5985
X3.92Y7.5749
Y7.4253
X3.96Y7.378
Y7.5434
X4Y7.5119
Y7.315
X4.04Y7.2363
Y7.4725
X4.08Y7.4253
Y7.1891
X4.12Y7.2048
Y7.3544
X4.16Y7.2678
Y7.2127
G0Z0.3937
X3.4Y3.9843
G1Z-0.125F5
Y3.9055F10
X3.44Y3.8977
Y4.0473
X3.48Y4.0945
Y3.8898
X3.52Y3.9685
Y4.126
X3.56Y4.1496
Y4.0315
X3.6Y4.0709
Y4.1654
X3.64Y4.1811
Y4.1024
X3.68Y4.1181
Y4.1969
X3.72Y4.2048
Y4.1339
X3.76Y4.1418
Y4.2126
X3.8Y4.2205
Y4.1496
X3.84Y4.1575
Y4.2205
X3.88Y4.2284
Y4.1575
X3.92
Y4.2284
X3.96
Y4.1575
X4Y4.1496
Y4.2284
X4.04
Y4.1418
X4.08Y4.1339
Y4.2205
X4.12Y4.2126
Y4.1181
X4.16Y4.1024
Y4.2048
X4.2Y4.1969
Y4.0788
X4.24Y4.0394
Y4.1811
X4.28Y4.1575
Y3.9843
G0Z0.3937
X3.32Y3.2835
G1Z-0.125F5
Y3.126F10
G0Z0.3937
X3.36Y3.0236
G1Z-0.125F5
Y3.378F10
X3.4Y3.4331
Y2.9764
X3.44Y2.937
Y3.4646
X3.48Y3.4961
Y3.3465
X3.52Y3.4016
Y3.5197
X3.56Y3.5355
Y3.4331
X3.6Y3.4567
Y3.5512
X3.64Y3.5591
Y3.4725
X3.68Y3.4882
Y3.567
X3.72Y3.5748
Y3.4961
X3.76Y3.504
Y3.5827
X3.8
Y3.5118
X3.84Y3.5197
Y3.5906
X3.88Y3.5984
Y3.5276
X3.92
Y3.5984
X3.96Y3.6063
Y3.5355
X4Y3.5433
Y3.6142
X4.04Y3.6221
Y3.5512
X4.08Y3.5591
Y3.6299
X4.12Y3.6378
Y3.5748
X4.16Y3.5827
Y3.6457
X4.2Y3.6536
Y3.5984
X4.24Y3.6063
Y3.6614
X4.28Y3.6772
Y3.6063
G0Z0.3937
X3.48Y3.0709
G1Z-0.125F5
Y2.9134F10
X3.52Y2.8976
Y3.0158
X3.56Y2.9843
Y2.8819
X3.6Y2.874
Y2.9606
X3.64Y2.9449
Y2.8662
X3.68Y2.8583
Y2.9291
X3.72Y2.9213
Y2.8583
X3.76
Y2.9213
X3.8Y2.9134
Y2.8583
X3.84Y2.8662
Y2.9213
X3.88
Y2.8662
X3.92Y2.8819
Y2.9291
X3.96Y2.937
Y2.8898
X4Y2.9055
Y2.9528
X4.04Y2.9685
Y2.9213
X4.08Y2.9449
Y2.9843
X4.12Y2.9685
Y3.0079
X4.16Y3
Y3.0394
X4.2Y3.0236
Y3.0788
X4.24Y3.0551
Y3.1339
X4.28Y3.063
Y3.2126
G0Z0.3937
X4.32Y3.0394
G1Z-0.125F5
Y4.1339F10
X4.36Y4.1024
Y2.8898
X4.4
Y4.0315
G0Z0.3937
X4.44Y3.1103
G1Z-0.125F5
Y2.8898F10
G0Z0.3937
X1.6
G1Z-0.125F5
Y4.7402F10
X1.64
Y2.8898
X1.68
Y4.7402
X1.72
Y4.5985
X1.76Y4.6378
Y4.7402
X1.8
Y4.6378
X1.84
Y4.7402
X1.88
Y4.6378
X1.92
Y4.7402
X1.96
Y4.6378
X2
Y4.7402
X2.04
Y4.6378
X2.08
Y4.7402
X2.12
Y4.6378
X2.16
Y4.7402
X2.2
Y4.6378
X2.24
Y4.7402
X2.28
Y4.6378
X2.32
Y4.7402
X2.36
Y4.6378
X2.4
Y4.7402
X2.44
Y4.6378
X2.48Y4.63
Y4.7323
X2.52
Y4.6221
X2.56Y4.6142
Y4.7245
X2.6Y4.7166
Y4.5985
X2.64Y4.5827
Y4.7087
X2.68Y4.693
Y4.5512
X2.72Y4.5118
Y4.6772
X2.76Y4.6536
Y4.4567
X2.8Y4.3701
Y4.6221
G0Z0.3937
X1.72Y3.8347
G1Z-0.125F5
Y3.6614F10
X1.76Y3.6929
Y3.8032
X1.8
Y3.6929
X1.84
Y3.8032
X1.88
Y3.6929
X1.92
Y3.8032
X1.96
Y3.6929
X2
Y3.8032
X2.04
Y3.6929
X2.08
Y3.8032
X2.12
Y3.6929
X2.16
Y3.8032
X2.2
Y3.6929
X2.24
Y3.8032
X2.28
Y3.6929
X2.32Y3.7008
Y3.8032
X2.36
Y3.7008
X2.4
Y3.8032
X2.44Y3.8111
Y3.7008
X2.48Y3.7087
Y3.8189
X2.52Y3.8268
Y3.7166
X2.56Y3.7244
Y3.8347
X2.6Y3.8504
Y3.7323
X2.64Y3.7402
Y3.874
X2.68Y3.8977
Y3.7559
X2.72Y3.7796
Y3.937
X2.76Y3.9922
Y3.8032
X2.8Y3.8268
Y4.0788
G0Z0.3937
X2.84Y3.874
G1Z-0.125F5
Y4.5827F10
X2.88Y4.5355
Y3.9292
X2.92Y4
Y4.4567
G0Z0.3937
X2.96Y4.3229
G1Z-0.125F5
Y4.1418F10
G0Z0.3937
X0.6Y9.4253
G1Z-0.115F5
Y9.4332F10
X0.64
X0.68
X0.72
X0.76
X0.8
X0.84
X0.88
X0.92
X0.96
X1
X1.04
X1.08
X1.12
X1.16
X1.2
X1.24
X1.28
X1.32
X1.36
X1.4
X1.44
X1.48
X1.52
X1.56
X1.6
X1.64
X1.68
X1.72
X1.76
X1.8
X1.84
X1.88
X1.92
X1.96
X2
X2.04
X2.08
X2.12
X2.16
X2.2
X2.24
X2.28
X2.32
X2.36
X2.4
X2.44
X2.48
X2.52
X2.56
X2.6
X2.64
X2.68
X2.72
X2.76
X2.8
X2.84
X2.88
X2.92
X2.96
X3
X3.04
X3.08
X3.12
X3.16
X3.2
X3.24
X3.28
X3.32
X3.36
X3.4
X3.44
X3.48
X3.52
X3.56
X3.6
X3.64
X3.68
X3.72
X3.76
X3.8
X3.84
X3.88
X3.92
X3.96
X4
X4.04
X4.08
X4.12
X4.16
X4.2
X4.24
X4.28
X4.32
X4.36
X4.4
X4.44
X4.48
X4.52
X4.56
X4.6
X4.64
X4.68
X4.72
X4.76
X4.8
X4.84
X4.88
X4.92
X4.96
X5
X5.04
X5.08
X5.12
X5.16
X5.2
X5.24
X5.28
X5.32
X5.36
X5.4
X5.44
X5.48
X5.52
X5.56
X5.6
X5.64
X5.68
X5.72
X5.76
X5.8
X5.84
X5.88
X5.92
X5.96
X6
X6.04
X6.08
X6.12
X6.16
X6.2
X6.24
X6.28
X6.32
X6.36
X6.4
X6.44
X6.48
X6.52
X6.56
X6.6
X6.64
X6.68
X6.72
X6.76
X6.8
X6.84
X6.88
X6.92
X6.96
X7
X7.04
X7.08
X7.12
X7.16
X7.2
X7.24
X7.28
X7.32
X7.36
X7.4
X7.44
X7.48
X7.52
X7.56
X7.6
X7.64
X7.68
X7.72
X7.76
X7.8
X7.84
X7.88
X7.92
X7.96
X8
X8.04
X8.08
X8.12
X8.16
X8.2
X8.24
X8.28
X8.32
X8.36
X8.4
X8.44
X8.48
X8.52
X8.56
X8.6
X8.64
X8.68
X8.72
X8.76
X8.8
X8.84
X8.88
X8.92
X8.96
X9
X9.04
X9.08
X9.12
X9.16
X9.2
X9.24
X9.28
X9.32
X9.36
X9.4
X9.44
X9.48
X9.52
X9.56
X9.6
X9.64
X9.68
X9.72
X9.76
X9.8
X9.84
X9.88
X9.92
X9.96
X10
X10.04
X10.08
X10.12
X10.16
X10.2
X10.24
X10.28
X10.32
X10.36
X10.4
X10.44
X10.48
X10.52
X10.56
X10.6
X10.64
X10.68
X10.72
X10.76
X10.8
X10.84
X10.88
X10.92
X10.96
X11
X11.04
X11.08
X11.12
X11.16
X11.2
X11.24
X11.28
X11.32
X11.36
X11.4
Y9.4253
G0Z0.3937
X9.04Y7.1103
G1Z-0.25F5
Y7.0552F10
X9.08
Y7.1103
X9.12
Y7.0552
X9.16
Y7.1103
X9.2Y7.1339
Y7.0316
G0Z0.3937
X9.24Y7.5119
G1Z-0.25F5
Y5.9056F10
X9.28Y5.8505
Y7.5355
X9.32Y7.5591
Y5.819
X9.36Y5.8032
Y5.9764
X9.4Y5.9213
Y5.7953
X9.44Y5.7875
Y5.8977
X9.48Y5.8898
Y5.7875
X9.52
Y5.882
X9.56
Y5.7875
X9.6Y5.7953
Y5.8347
G0Z0.3937
X9.36Y7.0395
G1Z-0.25F5
Y7.1261F10
X9.4Y7.1103
Y7.0552
X9.44
Y7.1103
X9.48
Y7.0552
X9.52
Y7.1103
X9.56
Y7.0552
G0Z0.3937
X7.76Y6.9292
G1Z-0.25F5
Y6.6615F10
X7.8Y6.6064
Y6.9922
X7.84Y7.0316
Y6.567
X7.88Y6.5434
Y6.7009
X7.92Y6.6615
Y6.5198
X7.96Y6.504
Y6.6379
X8Y6.6142
Y6.4883
X8.04Y6.4725
Y6.5985
X8.08Y6.5906
Y6.4646
X8.12Y6.4489
Y6.5749
X8.16Y6.567
Y6.441
X8.2Y6.4331
Y6.5591
X8.24Y6.5434
Y6.4174
X8.28Y6.4095
Y6.5355
X8.32Y6.5198
Y6.4016
X8.36Y6.3859
Y6.5119
X8.4Y6.504
Y6.378
X8.44Y6.3623
Y6.4883
X8.48Y6.4725
Y6.3465
X8.52Y6.3308
Y6.4646
X8.56Y6.4489
Y6.2993
X8.6Y6.252
Y6.4253
G0Z0.3937
X7.72Y6.1182
G1Z-0.25F5
Y6.0631F10
X7.76Y6.126
Y5.9843
X7.8Y5.9292
Y6.1339
X7.84Y6.0709
Y5.8898
X7.88Y5.8583
Y6.0001
X7.92Y5.9528
Y5.8347
X7.96Y5.819
Y5.9213
X8Y5.8977
Y5.8032
X8.04Y5.7953
Y5.8741
X8.08Y5.8662
Y5.7875
X8.12Y5.7796
Y5.8505
X8.16
Y5.7796
X8.2Y5.7717
Y5.8426
X8.24
Y5.7717
X8.28
Y5.8426
X8.32Y5.8505
Y5.7796
X8.36
Y5.8505
X8.4Y5.8583
Y5.7875
X8.44Y5.8032
Y5.8741
X8.48Y5.8898
Y5.8111
X8.52Y5.8268
Y5.9213
X8.56Y5.9528
Y5.8505
X8.6Y5.8741
Y6.0079
G0Z0.3937
X8.64Y5.9056
G1Z-0.25F5
Y6.4016F10
X8.68Y6.3701
Y5.9449
X8.72Y6.0079
Y6.3229
G0Z0.3937
X7.88Y6.945
G1Z-0.25F5
Y7.0631F10
X7.92Y7.0867
Y6.9922
X7.96Y7.0237
Y7.1024
X8Y7.1182
Y7.0395
X8.04Y7.0552
Y7.1261
X8.08Y7.1339
Y7.0631
X8.12Y7.0709
Y7.1418
X8.16
Y7.0709
X8.2Y7.0788
Y7.1418
X8.24
Y7.0788
X8.28Y7.0709
Y7.1418
X8.32
Y7.0631
X8.36Y7.0552
Y7.1339
X8.4Y7.1261
Y7.0395
X8.44Y7.0237
Y7.1103
X8.48Y7.0946
Y6.9922
X8.52Y6.9528
Y7.0788
X8.56Y7.0552
Y6.8898
X8.6Y6.8505
Y7.0237
X8.64Y6.9765
Y6.8583
X8.68
Y6.8977
G0Z0.3937
X6.2Y6.7245
G1Z-0.25F5
Y6.1812F10
G0Z0.3937
X6.24Y6.0788
G1Z-0.25F5
Y6.8268F10
X6.28Y6.8977
Y6.0079
X6.32Y5.9607
Y6.2127
G0Z0.3937
X6.36Y6.1103
G1Z-0.25F5
Y5.9213F10
X6.4Y5.8898
Y6.0394
X6.44Y5.9922
Y5.8583
X6.48Y5.8426
Y5.9528
X6.52Y5.9213
Y5.819
X6.56Y5.8032
Y5.8977
X6.6Y5.882
Y5.7953
X6.64Y5.7875
Y5.8662
X6.68Y5.8583
Y5.7796
X6.72
Y5.8505
X6.76Y5.8426
Y5.7717
X6.8
Y5.8426
X6.84
Y5.7796
X6.88
Y5.8505
X6.92Y5.8583
Y5.7875
X6.96Y5.7953
Y5.8741
X7Y5.8898
Y5.8032
X7.04Y5.819
Y5.9134
X7.08Y5.9449
Y5.8347
X7.12Y5.8583
Y5.9922
X7.16Y6.0473
Y5.882
X7.2Y5.9134
Y6.1182
X7.24Y6.126
Y5.9607
X7.28Y6.0079
Y6.126
X7.32Y6.1182
Y6.0867
G0Z0.3937
X6.32Y6.4568
G1Z-0.25F5
Y6.5513F10
X6.36Y6.5355
Y6.4646
X6.4
Y6.5355
X6.44
Y6.4646
X6.48
Y6.5355
X6.52
Y6.4646
X6.56
Y6.5355
X6.6
Y6.4646
X6.64
Y6.5355
X6.68
Y6.4646
X6.72
Y6.5355
X6.76
Y6.4646
X6.8
Y6.5355
X6.84
Y6.4646
X6.88
Y6.5355
X6.92
Y6.4646
X6.96
Y6.5355
X7
Y6.4646
X7.04
Y6.5355
X7.08
Y6.4646
X7.12
Y6.5355
X7.16
Y6.4646
X7.2
Y6.5434
G0Z0.3937
X6.32Y6.7087
G1Z-0.25F5
Y6.9528F10
X6.36Y6.9922
Y6.819
X6.4Y6.8898
Y7.0237
X6.44Y7.0552
Y6.9371
X6.48Y6.9765
Y7.0788
X6.52Y7.0946
Y7.0001
X6.56Y7.0237
Y7.1103
X6.6Y7.1261
Y7.0473
X6.64Y7.0552
Y7.1339
X6.68Y7.1418
Y7.0709
X6.72
Y7.1418
X6.76
Y7.0788
X6.8
Y7.1418
X6.84
Y7.0709
X6.88Y7.0631
Y7.1339
X6.92Y7.1261
Y7.0552
X6.96Y7.0395
Y7.1182
X7Y7.1024
Y7.0158
X7.04Y6.9922
Y7.0867
X7.08Y7.0631
Y6.9607
X7.12Y6.9213
Y7.0395
X7.16Y7.008
Y6.8583
X7.2Y6.7717
Y6.9686
X7.24Y6.9213
Y6.4646
X7.28
Y6.8505
X7.32Y6.7639
Y6.4646
X7.36
Y6.567
G0Z0.3937
X7.28Y4.7402
G1Z-0.25F5
Y4.5906F10
X7.32
Y4.7402
X7.36
Y4.5906
G0Z0.3937
X7.28Y4.1969
G1Z-0.25F5
Y2.8898F10
X7.32
Y4.1969
X7.36
Y2.8898
G0Z0.3937
X7.88
G1Z-0.25F5
Y4.1969F10
X7.92
Y2.8898
X7.96
Y4.0315
X8Y3.9922
Y3.8189
G0Z0.3937
X8.04Y3.937
G1Z-0.25F5
Y3.9922F10
X8.08Y4
Y4.0315
X8.12Y4.0394
Y4.0866
X8.16Y4.0709
Y4.1181
X8.2Y4.0945
Y4.1496
X8.24Y4.1733
Y4.1103
X8.28Y4.126
Y4.1969
X8.32Y4.2048
Y4.1339
X8.36Y4.1418
Y4.2205
X8.4
Y4.1496
X8.44
Y4.2284
X8.48
Y4.1418
X8.52
Y4.2284
X8.56Y4.2205
Y4.126
X8.6Y4.1103
Y4.2126
X8.64Y4.2048
Y4.0866
X8.68Y4.0551
Y4.189
X8.72Y4.1733
Y4.0079
X8.76Y3.9213
Y4.1496
X8.8Y4.1181
Y2.8898
X8.84
Y4.063
X8.88Y3.9764
Y2.8898
G0Z0.3937
X9.4Y2.6221
G1Z-0.25F5
Y2.5039F10
X9.44Y2.4488
Y2.6142
X9.48
Y2.4173
X9.52Y2.3858
Y2.5197
X9.56Y2.4724
Y2.3622
X9.6Y2.3465
Y2.4409
X9.64Y2.4173
Y2.3386
X9.68Y2.3228
Y2.4016
X9.72Y2.3937
Y2.315
X9.76
Y2.3858
X9.8Y2.378
Y2.3071
X9.84
Y2.378
X9.88
Y2.3071
X9.92
Y2.378
X9.96Y2.3858
Y2.3071
X10Y2.315
Y2.3858
X10.04Y2.4016
Y2.3228
X10.08Y2.3307
Y2.4095
X10.12Y2.4331
Y2.3465
X10.16Y2.3622
Y2.4567
X10.2Y2.4882
Y2.378
X10.24Y2.4016
Y2.5354
X10.28Y2.5984
Y2.4331
X10.32Y2.4724
Y2.7559
G0Z0.3937
X9.32Y3.4095
G1Z-0.25F5
Y3.6929F10
G0Z0.3937
X9.36Y3.8583
G1Z-0.25F5
Y3.2599F10
X9.4Y3.1732
Y3.9449
X9.44Y4.0158
Y3.6614
G0Z0.3937
Y3.4646
G1Z-0.25F5
Y3.1024F10
X9.48Y3.0551
Y3.2599
X9.52Y3.1732
Y3.0158
X9.56Y2.9764
Y3.1181
X9.6Y3.0709
Y2.9528
X9.64Y2.937
Y3.0394
X9.68Y3.0158
Y2.9213
X9.72Y2.9055
Y2.9921
X9.76Y2.9764
Y2.8976
X9.8Y2.8898
Y2.9685
X9.84Y2.9606
Y2.8898
X9.88
Y2.9606
X9.92
Y2.8898
X9.96Y2.8976
Y2.9685
X10Y2.9764
Y2.9055
X10.04Y2.9213
Y2.9843
X10.08Y3
Y2.937
X10.12Y2.9685
Y3.0236
X10.16Y3.0551
Y2.9921
X10.2Y3.0315
Y3.0866
X10.24Y3.0709
Y3.1339
X10.28Y3.0788
Y3.2047
G0Z0.3937
X10.32Y3.3071
G1Z-0.25F5
Y3.0473F10
G0Z0.3937
X9.48Y3.8583
G1Z-0.25F5
Y4.063F10
X9.52Y4.1024
Y3.9449
X9.56Y4
Y4.1339
X9.6Y4.1654
Y4.0394
X9.64Y4.0788
Y4.1811
X9.68Y4.1969
Y4.1024
X9.72Y4.126
Y4.2126
X9.76Y4.2205
Y4.1418
X9.8Y4.1496
Y4.2284
X9.84
Y4.1575
X9.88
Y4.2284
X9.92
Y4.1575
X9.96Y4.1496
Y4.2205
X10Y4.2126
Y4.1418
X10.04Y4.1339
Y4.1969
X10.08Y4.1811
Y4.1103
X10.12Y4.0866
Y4.1575
X10.16Y4.126
Y4.0551
X10.2Y4.0237
Y4.0945
X10.24Y4.0473
Y3.9764
X10.28Y4.0237
Y3.9055
G0Z0.3937
X10.32Y3.8032
G1Z-0.25F5
Y4.0315F10
G0Z0.3937
X10.36Y4.1969
G1Z-0.25F5
Y2.5197F10
X10.4Y2.5984
Y4.1969
X10.44
Y2.7717
G0Z0.3937
X5.88Y2.8898
G1Z-0.25F5
Y4.7402F10
X5.92
Y2.8898
X5.96
Y4.7402
G0Z0.3937
X6Y3.6299
G1Z-0.25F5
Y3.441F10
X6.04Y3.4803
Y3.6142
X6.08Y3.6221
Y3.5197
X6.12Y3.5591
Y3.6614
X6.16Y3.7087
Y3.5984
X6.2Y3.6221
Y3.7481
X6.24Y3.7874
Y3.6221
X6.28Y3.5748
Y3.8268
X6.32Y3.8662
Y3.5118
X6.36Y3.4488
Y3.6536
X6.4Y3.5906
Y3.3858
X6.44Y3.3229
Y3.5276
X6.48Y3.4725
Y3.2677
X6.52Y3.2047
Y3.4095
X6.56Y3.3543
Y3.1417
X6.6Y3.0788
Y3.2914
X6.64Y3.2284
Y3.0158
X6.68Y2.9528
Y3.1732
X6.72Y3.1103
Y2.8898
X6.76
Y3.0551
X6.8Y2.9921
Y2.8898
X6.84
Y2.9291
G0Z0.3937
X6.36Y3.7953
G1Z-0.25F5
Y3.9055F10
X6.4Y3.9449
Y3.8347
X6.44Y3.874
Y3.9922
X6.48Y4.0315
Y3.9134
X6.52Y3.9528
Y4.0709
X6.56Y4.1103
Y3.9922
X6.6Y4.0237
Y4.1496
X6.64Y4.189
Y4.063
X6.68Y4.1024
Y4.1969
X6.72
Y4.1418
X6.76Y4.1811
Y4.1969
G0Z0.3937
X4.96
G1Z-0.25F5
Y2.8898F10
X5
Y4.1969
G0Z0.3937
X5.04Y4.0079
G1Z-0.25F5
Y2.8898F10
G0Z0.3937
X5.08Y3.8189
G1Z-0.25F5
Y3.9764F10
X5.12Y3.9843
Y3.937
X5.16Y4
Y4.0394
X5.2
Y4.1024
X5.24Y4.0709
Y4.1496
X5.28Y4.189
Y4.0866
X5.32Y4.1024
Y4.2126
X5.36Y4.2284
Y4.1103
X5.4
Y4.2284
X5.44
Y4.1024
X5.48Y4.0945
Y4.2205
X5.52Y4.2048
Y4.0866
X5.56Y4.1496
Y4.189
G0Z0.3937
X4.72Y6.0394
G1Z-0.25F5
Y7.1103F10
X4.76
Y5.9449
X4.8Y5.8898
Y7.1103
G0Z0.3937
X4.84Y6.0867
G1Z-0.25F5
Y5.8583F10
X4.88Y5.8347
Y6.0001
X4.92Y5.9528
Y5.819
X4.96Y5.8032
Y5.9134
X5Y5.8898
Y5.7875
X5.04Y5.7796
Y5.8741
X5.08Y5.8662
Y5.7796
X5.12Y5.7717
Y5.8583
X5.16Y5.8505
Y5.7717
X5.2Y5.7796
Y5.8505
X5.24Y5.8583
Y5.7875
X5.28Y5.7953
Y5.8662
X5.32Y5.8741
Y5.8111
X5.36Y5.8268
Y5.8898
X5.4Y5.9134
Y5.8583
X5.44Y5.8898
Y5.9371
X5.48Y5.9213
Y5.9686
X5.52Y5.9764
Y6.0079
X5.56Y6.0158
Y6.0709
X5.6Y6.0158
Y6.189
G0Z0.3937
X5.64Y5.9764
G1Z-0.25F5
Y7.1103F10
X5.68
Y5.8032
X5.72
Y7.1103
G0Z0.3937
X3.52Y6.6851
G1Z-0.25F5
Y6.5828F10
X3.56
Y6.6851
X3.6
Y6.5828
X3.64
Y6.6851
X3.68
Y6.5828
X3.72
Y6.6851
X3.76
Y6.5828
X3.8
Y6.6851
X3.84
Y6.5828
X3.88
Y6.6851
X3.92
Y6.5828
X3.96
Y6.6851
X4
Y6.5828
X4.04
Y6.6851
X4.08
Y6.5591
G0Z0.3937
X2.52Y6.5749
G1Z-0.25F5
Y6.8662F10
G0Z0.3937
X2.56Y7.0631
G1Z-0.25F5
Y6.3859F10
G0Z0.3937
X2.6Y6.2835
G1Z-0.25F5
Y7.1733F10
X2.64Y7.2599
Y6.2048
X2.68Y6.1339
Y6.4961
G0Z0.3937
X2.72Y6.3465
G1Z-0.25F5
Y6.0867F10
X2.76Y6.0394
Y6.2599
X2.8Y6.189
Y6.0001
X2.84Y5.9686
Y6.1339
X2.88Y6.0946
Y5.9371
X2.92Y5.9134
Y6.0552
X2.96Y6.0237
Y5.8898
X3Y5.8741
Y6.0001
X3.04Y5.9764
Y5.8505
X3.08Y5.8347
Y5.9607
X3.12Y5.9371
Y5.8268
X3.16Y5.8111
Y5.9292
X3.2Y5.9134
Y5.8032
X3.24Y5.7953
Y5.9056
X3.28Y5.8977
Y5.7875
X3.32Y5.7796
Y5.8898
X3.36Y5.882
Y5.7796
X3.4Y5.7717
Y5.882
X3.44
Y5.7717
X3.48
Y5.882
X3.52
Y5.7717
X3.56Y5.7796
Y5.882
X3.6Y5.8898
Y5.7796
X3.64Y5.7875
Y5.8977
X3.68Y5.9056
Y5.7953
X3.72Y5.8032
Y5.9213
X3.76Y5.9292
Y5.8111
X3.8Y5.8268
Y5.9449
X3.84Y5.9607
Y5.8347
X3.88Y5.8505
Y5.9843
X3.92Y6.0001
Y5.8662
X3.96Y5.8898
Y6.0237
X4Y6.0473
Y5.9056
X4.04Y5.9292
Y6.0788
X4.08Y6.1103
Y5.9528
X4.12Y5.9764
Y6.6851
X4.16
Y6.0079
X4.2Y6.0316
Y6.6851
G0Z0.3937
X2.68Y6.9686
G1Z-0.25F5
Y7.3308F10
X2.72Y7.3859
Y7.1182
G0Z0.3937
X2.76Y7.2127
G1Z-0.25F5
Y7.4332F10
X2.8Y7.4725
Y7.2835
X2.84Y7.3387
Y7.504
X2.88Y7.5355
Y7.3859
X2.92Y7.4253
Y7.5591
X2.96Y7.5828
Y7.4568
X3Y7.4804
Y7.6064
X3.04Y7.6221
Y7.504
X3.08Y7.5276
Y7.6379
X3.12Y7.6458
Y7.5434
X3.16Y7.5591
Y7.6615
X3.2Y7.6694
Y7.567
X3.24Y7.5828
Y7.6773
X3.28Y7.6851
Y7.5906
X3.32
Y7.6851
X3.36Y7.693
Y7.5985
X3.4
Y7.693
X3.44
Y7.5985
X3.48
Y7.693
X3.52
Y7.5985
X3.56Y7.5906
Y7.6851
X3.6
Y7.5828
X3.64Y7.5749
Y7.6773
X3.68Y7.6694
Y7.567
X3.72Y7.5513
Y7.6615
X3.76Y7.6458
Y7.5355
X3.8Y7.5119
Y7.63
X3.84Y7.6143
Y7.4883
X3.88Y7.4647
Y7.5985
X3.92Y7.5749
Y7.4253
X3.96Y7.378
Y7.5434
X4Y7.5119
Y7.315
X4.04Y7.2363
Y7.4725
X4.08Y7.4253
Y7.1891
X4.12Y7.2048
Y7.3544
X4.16Y7.2678
Y7.2127
G0Z0.3937
X3.4Y3.9843
G1Z-0.25F5
Y3.9055F10
X3.44Y3.8977
Y4.0473
X3.48Y4.0945
Y3.8898
X3.52Y3.9685
Y4.126
X3.56Y4.1496
Y4.0315
X3.6Y4.0709
Y4.1654
X3.64Y4.1811
Y4.1024
X3.68Y4.1181
Y4.1969
X3.72Y4.2048
Y4.1339
X3.76Y4.1418
Y4.2126
X3.8Y4.2205
Y4.1496
X3.84Y4.1575
Y4.2205
X3.88Y4.2284
Y4.1575
X3.92
Y4.2284
X3.96
Y4.1575
X4Y4.1496
Y4.2284
X4.04
Y4.1418
X4.08Y4.1339
Y4.2205
X4.12Y4.2126
Y4.1181
X4.16Y4.1024
Y4.2048
X4.2Y4.1969
Y4.0788
X4.24Y4.0394
Y4.1811
X4.28Y4.1575
Y3.9843
G0Z0.3937
X3.32Y3.2835
G1Z-0.25F5
Y3.126F10
G0Z0.3937
X3.36Y3.0236
G1Z-0.25F5
Y3.378F10
X3.4Y3.4331
Y2.9764
X3.44Y2.937
Y3.4646
X3.48Y3.4961
Y3.3465
X3.52Y3.4016
Y3.5197
X3.56Y3.5355
Y3.4331
X3.6Y3.4567
Y3.5512
X3.64Y3.5591
Y3.4725
X3.68Y3.4882
Y3.567
X3.72Y3.5748
Y3.4961
X3.76Y3.504
Y3.5827
X3.8
Y3.5118
X3.84Y3.5197
Y3.5906
X3.88Y3.5984
Y3.5276
X3.92
Y3.5984
X3.96Y3.6063
Y3.5355
X4Y3.5433
Y3.6142
X4.04Y3.6221
Y3.5512
X4.08Y3.5591
Y3.6299
X4.12Y3.6378
Y3.5748
X4.16Y3.5827
Y3.6457
X4.2Y3.6536
Y3.5984
X4.24Y3.6063
Y3.6614
X4.28Y3.6772
Y3.6063
G0Z0.3937
X3.48Y3.0709
G1Z-0.25F5
Y2.9134F10
X3.52Y2.8976
Y3.0158
X3.56Y2.9843
Y2.8819
X3.6Y2.874
Y2.9606
X3.64Y2.9449
Y2.8662
X3.68Y2.8583
Y2.9291
X3.72Y2.9213
Y2.8583
X3.76
Y2.9213
X3.8Y2.9134
Y2.8583
X3.84Y2.8662
Y2.9213
X3.88
Y2.8662
X3.92Y2.8819
Y2.9291
X3.96Y2.937
Y2.8898
X4Y2.9055
Y2.9528
X4.04Y2.9685
Y2.9213
X4.08Y2.9449
Y2.9843
X4.12Y2.9685
Y3.0079
X4.16Y3
Y3.0394
X4.2Y3.0236
Y3.0788
X4.24Y3.0551
Y3.1339
X4.28Y3.063
Y3.2126
G0Z0.3937
X4.32Y3.0394
G1Z-0.25F5
Y4.1339F10
X4.36Y4.1024
Y2.8898
X4.4
Y4.0315
G0Z0.3937
X4.44Y3.1103
G1Z-0.25F5
Y2.8898F10
G0Z0.3937
X1.6
G1Z-0.25F5
Y4.7402F10
X1.64
Y2.8898
X1.68
Y4.7402
X1.72
Y4.5985
X1.76Y4.6378
Y4.7402
X1.8
Y4.6378
X1.84
Y4.7402
X1.88
Y4.6378
X1.92
Y4.7402
X1.96
Y4.6378
X2
Y4.7402
X2.04
Y4.6378
X2.08
Y4.7402
X2.12
Y4.6378
X2.16
Y4.7402
X2.2
Y4.6378
X2.24
Y4.7402
X2.28
Y4.6378
X2.32
Y4.7402
X2.36
Y4.6378
X2.4
Y4.7402
X2.44
Y4.6378
X2.48Y4.63
Y4.7323
X2.52
Y4.6221
X2.56Y4.6142
Y4.7245
X2.6Y4.7166
Y4.5985
X2.64Y4.5827
Y4.7087
X2.68Y4.693
Y4.5512
X2.72Y4.5118
Y4.6772
X2.76Y4.6536
Y4.4567
X2.8Y4.3701
Y4.6221
G0Z0.3937
X1.72Y3.8347
G1Z-0.25F5
Y3.6614F10
X1.76Y3.6929
Y3.8032
X1.8
Y3.6929
X1.84
Y3.8032
X1.88
Y3.6929
X1.92
Y3.8032
X1.96
Y3.6929
X2
Y3.8032
X2.04
Y3.6929
X2.08
Y3.8032
X2.12
Y3.6929
X2.16
Y3.8032
X2.2
Y3.6929
X2.24
Y3.8032
X2.28
Y3.6929
X2.32Y3.7008
Y3.8032
X2.36
Y3.7008
X2.4
Y3.8032
X2.44Y3.8111
Y3.7008
X2.48Y3.7087
Y3.8189
X2.52Y3.8268
Y3.7166
X2.56Y3.7244
Y3.8347
X2.6Y3.8504
Y3.7323
X2.64Y3.7402
Y3.874
X2.68Y3.8977
Y3.7559
X2.72Y3.7796
Y3.937
X2.76Y3.9922
Y3.8032
X2.8Y3.8268
Y4.0788
G0Z0.3937
X2.84Y3.874
G1Z-0.25F5
Y4.5827F10
X2.88Y4.5355
Y3.9292
X2.92Y4
Y4.4567
G0Z0.3937
X2.96Y4.3229
G1Z-0.25F5
Y4.1418F10
G0Z0.3937
X3.4Y3.9843
G1Z-0.26F5
Y3.9055F10
X3.44Y3.8977
Y4.0473
X3.48Y4.0945
Y3.8898
X3.52Y3.9685
Y4.126
X3.56Y4.1496
Y4.0315
X3.6Y4.0709
Y4.1654
X3.64Y4.1811
Y4.1024
X3.68Y4.1181
Y4.1969
X3.72Y4.2048
Y4.1339
X3.76Y4.1418
Y4.2126
X3.8Y4.2205
Y4.1496
X3.84Y4.1575
Y4.2205
G0Z0.3937
X3.88Y4.2284
G1Z-0.26F5
Y4.1575F10
X3.92
Y4.2284
X3.96
Y4.1575
X4Y4.1496
Y4.2284
X4.04
Y4.1418
X4.08Y4.1339
Y4.2205
X4.12Y4.2126
Y4.1181
X4.16Y4.1024
Y4.2048
X4.2Y4.1969
Y4.0788
X4.24Y4.0394
Y4.1811
X4.28Y4.1575
Y3.9843
G0Z0.3937
X3.32Y3.2835
G1Z-0.26F5
Y3.126F10
G0Z0.3937
X3.36Y3.0236
G1Z-0.26F5
Y3.378F10
X3.4Y3.4331
Y2.9764
X3.44Y2.937
Y3.4646
X3.48Y3.4961
Y3.3465
X3.52Y3.4016
Y3.5197
X3.56Y3.5355
Y3.4331
X3.6Y3.4567
Y3.5512
X3.64Y3.5591
Y3.4725
X3.68Y3.4882
Y3.567
X3.72Y3.5748
Y3.4961
X3.76Y3.504
Y3.5827
X3.8
Y3.5118
X3.84Y3.5197
Y3.5906
X3.88Y3.5984
Y3.5276
X3.92
Y3.5984
X3.96Y3.6063
Y3.5355
X4Y3.5433
Y3.6142
X4.04Y3.6221
Y3.5512
X4.08Y3.5591
Y3.6299
X4.12Y3.6378
Y3.5748
X4.16Y3.5827
Y3.6457
X4.2Y3.6536
Y3.5984
X4.24Y3.6063
Y3.6614
X4.28Y3.6772
Y3.6063
G0Z0.3937
X3.48Y3.0709
G1Z-0.26F5
Y2.9134F10
X3.52Y2.8976
Y3.0158
X3.56Y2.9843
Y2.8819
X3.6Y2.874
Y2.9606
X3.64Y2.9449
Y2.8662
X3.68Y2.8583
Y2.9291
X3.72Y2.9213
Y2.8583
X3.76
Y2.9213
X3.8Y2.9134
Y2.8583
X3.84Y2.8662
Y2.9213
X3.88
Y2.8662
X3.92Y2.8819
Y2.9291
X3.96Y2.937
Y2.8898
X4Y2.9055
Y2.9528
X4.04Y2.9685
Y2.9213
X4.08Y2.9449
Y2.9843
X4.12Y2.9685
Y3.0079
X4.16Y3
Y3.0394
X4.2Y3.0236
Y3.0788
X4.24Y3.0551
Y3.1339
X4.28Y3.063
Y3.2126
G0Z0.3937
X4.32Y3.0394
G1Z-0.26F5
Y4.1339F10
X4.36Y4.1024
Y2.8898
X4.4
Y4.0315
G0Z0.3937
X4.96Y4.1969
G1Z-0.26F5
Y2.8898F10
X5
Y4.1969
G0Z0.3937
X5.04Y4.0079
G1Z-0.26F5
Y2.8898F10
G0Z0.3937
X4.44
G1Z-0.26F5
Y3.1103F10
G0Z0.3937
X5.08Y3.8189
G1Z-0.26F5
Y3.9764F10
X5.12Y3.9843
Y3.937
X5.16Y4
Y4.0394
X5.2
Y4.1024
X5.24Y4.0709
Y4.1496
X5.28Y4.189
Y4.0866
X5.32Y4.1024
Y4.2126
X5.36Y4.2284
Y4.1103
X5.4
Y4.2284
X5.44
Y4.1024
X5.48Y4.0945
Y4.2205
X5.52Y4.2048
Y4.0866
X5.56Y4.1496
Y4.189
G0Z0.3937
X5.88Y4.7402
G1Z-0.26F5
Y2.8898F10
X5.92
Y4.7402
X5.96
Y2.8898
G0Z0.3937
X6Y3.441
G1Z-0.26F5
Y3.6299F10
X6.04Y3.6142
Y3.4803
X6.08Y3.5197
Y3.6221
X6.12Y3.6614
Y3.5591
X6.16Y3.5984
Y3.7087
X6.2Y3.7481
Y3.6221
X6.24
Y3.7874
X6.28Y3.8268
Y3.5748
X6.32Y3.5118
Y3.8662
X6.36Y3.9055
Y3.7953
X6.4Y3.8347
Y3.9449
X6.44Y3.9922
Y3.874
X6.48Y3.9134
Y4.0315
X6.52Y4.0709
Y3.9528
X6.56Y3.9922
Y4.1103
X6.6Y4.1496
Y4.0237
X6.64Y4.063
Y4.189
X6.68Y4.1969
Y4.1024
X6.72Y4.1418
Y4.1969
X6.76
Y4.1811
G0Z0.3937
X7.28Y4.1969
G1Z-0.26F5
Y2.8898F10
X7.32
Y4.1969
X7.36
Y2.8898
G0Z0.3937
X7.88
G1Z-0.26F5
Y4.1969F10
X7.92
Y2.8898
X7.96
Y4.0315
X8Y3.9922
Y3.8189
G0Z0.3937
X8.04Y3.937
G1Z-0.26F5
Y3.9922F10
X8.08Y4
Y4.0315
X8.12Y4.0394
Y4.0866
X8.16Y4.0709
Y4.1181
X8.2Y4.0945
Y4.1496
X8.24Y4.1733
Y4.1103
X8.28Y4.126
Y4.1969
X8.32Y4.2048
Y4.1339
X8.36Y4.1418
Y4.2205
X8.4
Y4.1496
X8.44
Y4.2284
X8.48
Y4.1418
X8.52
Y4.2284
X8.56Y4.2205
Y4.126
X8.6Y4.1103
Y4.2126
X8.64Y4.2048
Y4.0866
X8.68Y4.0551
Y4.189
X8.72Y4.1733
Y4.0079
X8.76Y3.9213
Y4.1496
X8.8Y4.1181
Y2.8898
X8.84
Y4.063
X8.88Y3.9764
Y2.8898
G0Z0.3937
X9.4Y2.6221
G1Z-0.26F5
Y2.5039F10
X9.44Y2.4488
Y2.6142
X9.48
Y2.4173
X9.52Y2.3858
Y2.5197
X9.56Y2.4724
Y2.3622
X9.6Y2.3465
Y2.4409
X9.64Y2.4173
Y2.3386
X9.68Y2.3228
Y2.4016
X9.72Y2.3937
Y2.315
X9.76
Y2.3858
X9.8Y2.378
Y2.3071
X9.84
Y2.378
X9.88
Y2.3071
X9.92
Y2.378
X9.96Y2.3858
Y2.3071
X10Y2.315
Y2.3858
X10.04Y2.4016
Y2.3228
X10.08Y2.3307
Y2.4095
X10.12Y2.4331
Y2.3465
X10.16Y2.3622
Y2.4567
X10.2Y2.4882
Y2.378
X10.24Y2.4016
Y2.5354
X10.28Y2.5984
Y2.4331
X10.32Y2.4724
Y2.7559
G0Z0.3937
X9.32Y3.4095
G1Z-0.26F5
Y3.6929F10
G0Z0.3937
X9.36Y3.8583
G1Z-0.26F5
Y3.2599F10
X9.4Y3.1732
Y3.9449
X9.44Y4.0158
Y3.6614
G0Z0.3937
Y3.4646
G1Z-0.26F5
Y3.1024F10
X9.48Y3.0551
Y3.2599
X9.52Y3.1732
Y3.0158
X9.56Y2.9764
Y3.1181
X9.6Y3.0709
Y2.9528
X9.64Y2.937
Y3.0394
X9.68Y3.0158
Y2.9213
X9.72Y2.9055
Y2.9921
X9.76Y2.9764
Y2.8976
X9.8Y2.8898
Y2.9685
X9.84Y2.9606
Y2.8898
X9.88
Y2.9606
X9.92
Y2.8898
X9.96Y2.8976
Y2.9685
X10Y2.9764
Y2.9055
X10.04Y2.9213
Y2.9843
X10.08Y3
Y2.937
X10.12Y2.9685
Y3.0236
X10.16Y3.0551
Y2.9921
X10.2Y3.0315
Y3.0866
X10.24Y3.0709
Y3.1339
X10.28Y3.0788
Y3.2047
G0Z0.3937
X10.32Y3.3071
G1Z-0.26F5
Y3.0473F10
G0Z0.3937
X9.48Y3.8583
G1Z-0.26F5
Y4.063F10
X9.52Y4.1024
Y3.9449
X9.56Y4
Y4.1339
X9.6Y4.1654
Y4.0394
X9.64Y4.0788
Y4.1811
X9.68Y4.1969
Y4.1024
X9.72Y4.126
Y4.2126
X9.76Y4.2205
Y4.1418
X9.8Y4.1496
Y4.2284
X9.84
Y4.1575
X9.88
Y4.2284
X9.92
Y4.1575
X9.96Y4.1496
Y4.2205
X10Y4.2126
Y4.1418
X10.04Y4.1339
Y4.1969
X10.08Y4.1811
Y4.1103
X10.12Y4.0866
Y4.1575
X10.16Y4.126
Y4.0551
X10.2Y4.0237
Y4.0945
X10.24Y4.0473
Y3.9764
X10.28Y4.0237
Y3.9055
G0Z0.3937
X10.32Y3.8032
G1Z-0.26F5
Y4.0315F10
G0Z0.3937
X10.36Y4.1969
G1Z-0.26F5
Y2.5197F10
X10.4Y2.5984
Y4.1969
X10.44
Y2.7717
G0Z0.3937
X7.28Y4.5906
G1Z-0.26F5
Y4.7402F10
X7.32
Y4.5906
X7.36
Y4.7402
G0Z0.3937
X7.72Y6.0631
G1Z-0.26F5
Y6.1182F10
X7.76Y6.126
Y5.9843
X7.8Y5.9292
Y6.1339
X7.84Y6.0709
Y5.8898
X7.88Y5.8583
Y6.0001
X7.92Y5.9528
Y5.8347
X7.96Y5.819
Y5.9213
X8Y5.8977
Y5.8032
X8.04Y5.7953
Y5.8741
X8.08Y5.8662
Y5.7875
X8.12Y5.7796
Y5.8505
X8.16
Y5.7796
X8.2Y5.7717
Y5.8426
X8.24
Y5.7717
X8.28
Y5.8426
X8.32Y5.8505
Y5.7796
X8.36
Y5.8505
X8.4Y5.8583
Y5.7875
X8.44Y5.8032
Y5.8741
X8.48Y5.8898
Y5.8111
X8.52Y5.8268
Y5.9213
X8.56Y5.9528
Y5.8505
X8.6Y5.8741
Y6.0079
G0Z0.3937
X7.76Y6.6615
G1Z-0.26F5
Y6.9292F10
X7.8Y6.9922
Y6.6064
X7.84Y6.567
Y7.0316
X7.88Y7.0631
Y6.945
X7.92Y6.9922
Y7.0867
X7.96Y7.1024
Y7.0237
X8Y7.0395
Y7.1182
X8.04Y7.1261
Y7.0552
X8.08Y7.0631
Y7.1339
X8.12Y7.1418
Y7.0709
X8.16
Y7.1418
X8.2
Y7.0788
X8.24
Y7.1418
X8.28
Y7.0709
X8.32Y7.0631
Y7.1418
X8.36Y7.1339
Y7.0552
X8.4Y7.0395
Y7.1261
X8.44Y7.1103
Y7.0237
X8.48Y6.9922
Y7.0946
X8.52Y7.0788
Y6.9528
X8.56Y6.8898
Y7.0552
X8.6Y7.0237
Y6.8505
X8.64Y6.8583
Y6.9765
X8.68Y6.8977
Y6.8583
G0Z0.3937
X9.04Y7.0552
G1Z-0.26F5
Y7.1103F10
X9.08
Y7.0552
X9.12
Y7.1103
X9.16
Y7.0552
X9.2Y7.0316
Y7.1339
G0Z0.3937
X9.24Y7.5119
G1Z-0.26F5
Y5.9056F10
X9.28Y5.8505
Y7.5355
X9.32Y7.5591
Y5.819
X9.36Y5.8032
Y5.9764
X9.4Y5.9213
Y5.7953
X9.44Y5.7875
Y5.8977
X9.48Y5.8898
Y5.7875
X9.52
Y5.882
X9.56
Y5.7875
X9.6Y5.7953
Y5.8347
G0Z0.3937
X9.36Y7.0395
G1Z-0.26F5
Y7.1261F10
X9.4Y7.1103
Y7.0552
X9.44
Y7.1103
X9.48
Y7.0552
X9.52
Y7.1103
X9.56
Y7.0552
G0Z0.3937
X7.88Y6.7009
G1Z-0.26F5
Y6.5434F10
G0Z0.3937
X7.92Y6.5198
G1Z-0.26F5
Y6.6615F10
X7.96Y6.6379
Y6.504
X8Y6.4883
Y6.6142
X8.04Y6.5985
Y6.4725
X8.08Y6.4646
Y6.5906
X8.12Y6.5749
Y6.4489
X8.16Y6.441
Y6.567
X8.2Y6.5591
Y6.4331
X8.24Y6.4174
Y6.5434
X8.28Y6.5355
Y6.4095
X8.32Y6.4016
Y6.5198
X8.36Y6.5119
Y6.3859
X8.4Y6.378
Y6.504
X8.44Y6.4883
Y6.3623
X8.48Y6.3465
Y6.4725
X8.52Y6.4646
Y6.3308
X8.56Y6.2993
Y6.4489
X8.6Y6.4253
Y6.252
G0Z0.3937
X8.64Y6.4016
G1Z-0.26F5
Y5.9056F10
X8.68Y5.9449
Y6.3701
X8.72Y6.3229
Y6.0079
G0Z0.3937
X6.2Y6.1812
G1Z-0.26F5
Y6.7245F10
G0Z0.3937
X6.24Y6.8268
G1Z-0.26F5
Y6.0788F10
X6.28Y6.0079
Y6.8977
X6.32Y6.9528
Y6.7087
G0Z0.3937
X6.36Y6.819
G1Z-0.26F5
Y6.9922F10
X6.4Y7.0237
Y6.8898
X6.44Y6.9371
Y7.0552
X6.48Y7.0788
Y6.9765
X6.52Y7.0001
Y7.0946
X6.56Y7.1103
Y7.0237
X6.6Y7.0473
Y7.1261
X6.64Y7.1339
Y7.0552
X6.68Y7.0709
Y7.1418
X6.72
Y7.0709
X6.76Y7.0788
Y7.1418
X6.8
Y7.0788
X6.84Y7.0709
Y7.1418
X6.88Y7.1339
Y7.0631
X6.92Y7.0552
Y7.1261
X6.96Y7.1182
Y7.0395
X7Y7.0158
Y7.1024
X7.04Y7.0867
Y6.9922
X7.08Y6.9607
Y7.0631
X7.12Y7.0395
Y6.9213
X7.16Y6.8583
Y7.008
X7.2Y6.9686
Y6.7717
G0Z0.3937
X6.32Y6.5513
G1Z-0.26F5
Y6.4568F10
X6.36Y6.4646
Y6.5355
X6.4
Y6.4646
X6.44
Y6.5355
X6.48
Y6.4646
X6.52
Y6.5355
X6.56
Y6.4646
X6.6
Y6.5355
X6.64
Y6.4646
X6.68
Y6.5355
X6.72
Y6.4646
X6.76
Y6.5355
X6.8
Y6.4646
X6.84
Y6.5355
X6.88
Y6.4646
X6.92
Y6.5355
X6.96
Y6.4646
X7
Y6.5355
X7.04
Y6.4646
X7.08
Y6.5355
X7.12
Y6.4646
X7.16
Y6.5355
X7.2Y6.5434
Y6.4646
X7.24
Y6.9213
G0Z0.3937
X7.28Y6.8505
G1Z-0.26F5
Y6.4646F10
X7.32
Y6.7639
G0Z0.3937
X7.36Y6.567
G1Z-0.26F5
Y6.4646F10
G0Z0.3937
X6.32Y6.2127
G1Z-0.26F5
Y5.9607F10
X6.36Y5.9213
Y6.1103
X6.4Y6.0394
Y5.8898
X6.44Y5.8583
Y5.9922
X6.48Y5.9528
Y5.8426
X6.52Y5.819
Y5.9213
X6.56Y5.8977
Y5.8032
X6.6Y5.7953
Y5.882
X6.64Y5.8662
Y5.7875
X6.68Y5.7796
Y5.8583
X6.72Y5.8505
Y5.7796
X6.76Y5.7717
Y5.8426
X6.8
Y5.7717
X6.84Y5.7796
Y5.8426
X6.88Y5.8505
Y5.7796
X6.92Y5.7875
Y5.8583
X6.96Y5.8741
Y5.7953
X7Y5.8032
Y5.8898
X7.04Y5.9134
Y5.819
X7.08Y5.8347
Y5.9449
X7.12Y5.9922
Y5.8583
X7.16Y5.882
Y6.0473
X7.2Y6.1182
Y5.9134
X7.24Y5.9607
Y6.126
X7.28
Y6.0079
X7.32Y6.0867
Y6.1182
G0Z0.3937
X4.72Y6.0394
G1Z-0.26F5
Y7.1103F10
X4.76
Y5.9449
X4.8Y5.8898
Y7.1103
G0Z0.3937
X4.84Y6.0867
G1Z-0.26F5
Y5.8583F10
X4.88Y5.8347
Y6.0001
X4.92Y5.9528
Y5.819
X4.96Y5.8032
Y5.9134
X5Y5.8898
Y5.7875
X5.04Y5.7796
Y5.8741
X5.08Y5.8662
Y5.7796
X5.12Y5.7717
Y5.8583
X5.16Y5.8505
Y5.7717
X5.2Y5.7796
Y5.8505
X5.24Y5.8583
Y5.7875
X5.28Y5.7953
Y5.8662
X5.32Y5.8741
Y5.8111
X5.36Y5.8268
Y5.8898
X5.4Y5.9134
Y5.8583
X5.44Y5.8898
Y5.9371
X5.48Y5.9213
Y5.9686
X5.52Y5.9764
Y6.0079
X5.56Y6.0158
Y6.0709
X5.6Y6.0158
Y6.189
G0Z0.3937
X5.64Y5.9764
G1Z-0.26F5
Y7.1103F10
X5.68
Y5.8032
X5.72
Y7.1103
G0Z0.3937
X3.52Y6.6851
G1Z-0.26F5
Y6.5828F10
X3.56
Y6.6851
X3.6
Y6.5828
X3.64
Y6.6851
X3.68
Y6.5828
X3.72
Y6.6851
X3.76
Y6.5828
X3.8
Y6.6851
X3.84
Y6.5828
X3.88
Y6.6851
X3.92
Y6.5828
X3.96
Y6.6851
X4
Y6.5828
X4.04
Y6.6851
X4.08
Y6.5591
G0Z0.3937
X2.52Y6.5749
G1Z-0.26F5
Y6.8662F10
G0Z0.3937
X2.56Y7.0631
G1Z-0.26F5
Y6.3859F10
G0Z0.3937
X2.6Y6.2835
G1Z-0.26F5
Y7.1733F10
X2.64Y7.2599
Y6.2048
X2.68Y6.1339
Y6.4961
G0Z0.3937
X2.72Y6.3465
G1Z-0.26F5
Y6.0867F10
X2.76Y6.0394
Y6.2599
X2.8Y6.189
Y6.0001
X2.84Y5.9686
Y6.1339
X2.88Y6.0946
Y5.9371
X2.92Y5.9134
Y6.0552
X2.96Y6.0237
Y5.8898
X3Y5.8741
Y6.0001
X3.04Y5.9764
Y5.8505
X3.08Y5.8347
Y5.9607
X3.12Y5.9371
Y5.8268
X3.16Y5.8111
Y5.9292
X3.2Y5.9134
Y5.8032
X3.24Y5.7953
Y5.9056
X3.28Y5.8977
Y5.7875
X3.32Y5.7796
Y5.8898
X3.36Y5.882
Y5.7796
X3.4Y5.7717
Y5.882
X3.44
Y5.7717
X3.48
Y5.882
X3.52
Y5.7717
X3.56Y5.7796
Y5.882
X3.6Y5.8898
Y5.7796
X3.64Y5.7875
Y5.8977
X3.68Y5.9056
Y5.7953
X3.72Y5.8032
Y5.9213
X3.76Y5.9292
Y5.8111
X3.8Y5.8268
Y5.9449
X3.84Y5.9607
Y5.8347
X3.88Y5.8505
Y5.9843
X3.92Y6.0001
Y5.8662
X3.96Y5.8898
Y6.0237
X4Y6.0473
Y5.9056
X4.04Y5.9292
Y6.0788
X4.08Y6.1103
Y5.9528
X4.12Y5.9764
Y6.6851
X4.16
Y6.0079
X4.2Y6.0316
Y6.6851
G0Z0.3937
X2.68Y6.9686
G1Z-0.26F5
Y7.3308F10
X2.72Y7.3859
Y7.1182
G0Z0.3937
X2.76Y7.2127
G1Z-0.26F5
Y7.4332F10
X2.8Y7.4725
Y7.2835
X2.84Y7.3387
Y7.504
X2.88Y7.5355
Y7.3859
X2.92Y7.4253
Y7.5591
X2.96Y7.5828
Y7.4568
X3Y7.4804
Y7.6064
X3.04Y7.6221
Y7.504
X3.08Y7.5276
Y7.6379
X3.12Y7.6458
Y7.5434
X3.16Y7.5591
Y7.6615
X3.2Y7.6694
Y7.567
X3.24Y7.5828
Y7.6773
X3.28Y7.6851
Y7.5906
X3.32
Y7.6851
X3.36Y7.693
Y7.5985
X3.4
Y7.693
X3.44
Y7.5985
X3.48
Y7.693
X3.52
Y7.5985
X3.56Y7.5906
Y7.6851
X3.6
Y7.5828
X3.64Y7.5749
Y7.6773
X3.68Y7.6694
Y7.567
X3.72Y7.5513
Y7.6615
X3.76Y7.6458
Y7.5355
X3.8Y7.5119
Y7.63
X3.84Y7.6143
Y7.4883
X3.88Y7.4647
Y7.5985
X3.92Y7.5749
Y7.4253
X3.96Y7.378
Y7.5434
X4Y7.5119
Y7.315
X4.04Y7.2363
Y7.4725
X4.08Y7.4253
Y7.1891
X4.12Y7.2048
Y7.3544
X4.16Y7.2678
Y7.2127
G0Z0.3937
X1.6Y4.7402
G1Z-0.26F5
Y2.8898F10
X1.64
Y4.7402
X1.68
Y2.8898
G0Z0.3937
X1.72Y3.6614
G1Z-0.26F5
Y3.8347F10
X1.76Y3.8032
Y3.6929
X1.8
Y3.8032
X1.84
Y3.6929
X1.88
Y3.8032
X1.92
Y3.6929
X1.96
Y3.8032
X2
Y3.6929
X2.04
Y3.8032
X2.08
Y3.6929
X2.12
Y3.8032
X2.16
Y3.6929
X2.2
Y3.8032
X2.24
Y3.6929
X2.28
Y3.8032
X2.32
Y3.7008
X2.36
Y3.8032
X2.4
Y3.7008
X2.44
Y3.8111
X2.48Y3.8189
Y3.7087
X2.52Y3.7166
Y3.8268
X2.56Y3.8347
Y3.7244
X2.6Y3.7323
Y3.8504
X2.64Y3.874
Y3.7402
X2.68Y3.7559
Y3.8977
X2.72Y3.937
Y3.7796
X2.76Y3.8032
Y3.9922
X2.8Y4.0788
Y3.8268
G0Z0.3937
X1.72Y4.5985
G1Z-0.26F5
Y4.7402F10
X1.76
Y4.6378
X1.8
Y4.7402
X1.84
Y4.6378
X1.88
Y4.7402
X1.92
Y4.6378
X1.96
Y4.7402
X2
Y4.6378
X2.04
Y4.7402
X2.08
Y4.6378
X2.12
Y4.7402
X2.16
Y4.6378
X2.2
Y4.7402
X2.24
Y4.6378
X2.28
Y4.7402
X2.32
Y4.6378
X2.36
Y4.7402
X2.4
Y4.6378
X2.44
Y4.7402
X2.48Y4.7323
Y4.63
X2.52Y4.6221
Y4.7323
X2.56Y4.7245
Y4.6142
X2.6Y4.5985
Y4.7166
X2.64Y4.7087
Y4.5827
X2.68Y4.5512
Y4.693
X2.72Y4.6772
Y4.5118
X2.76Y4.4567
Y4.6536
X2.8Y4.6221
Y4.3701
G0Z0.3937
X2.84Y4.5827
G1Z-0.26F5
Y3.874F10
X2.88Y3.9292
Y4.5355
X2.92Y4.4567
Y4
G0Z0.3937
X2.96Y4.1418
G1Z-0.26F5
Y4.3229F10
G0Z0.3937
X6.36Y3.6536
G1Z-0.26F5
Y3.4488F10
X6.4Y3.3858
Y3.5906
X6.44Y3.5276
Y3.3229
X6.48Y3.2677
Y3.4725
X6.52Y3.4095
Y3.2047
X6.56Y3.1417
Y3.3543
X6.6Y3.2914
Y3.0788
X6.64Y3.0158
Y3.2284
X6.68Y3.1732
Y2.9528
X6.72Y2.8898
Y3.1103
X6.76Y3.0551
Y2.8898
X6.8
Y2.9921
X6.84Y2.9291
Y2.8898
G0Z0.3937
 
